{
 "compressionlevel": -1,
 "height": 40,
 "width": 60,
 "tilewidth": 16,
 "tileheight": 16,
 "infinite": false,
 "orientation": "orthogonal",
 "renderorder": "right-down",
 "tiledversion": "1.10.2",
 "version": "1.10",
 "type": "map",
 "nextlayerid": 9,
 "nextobjectid": 153,
 "tilesets": [
  {
   "firstgid": 1,
   "source": "../tilesets/office-floors.tsx"
  },
  {
   "firstgid": 34,
   "source": "../tilesets/office-walls.tsx"
  },
  {
   "firstgid": 146,
   "source": "../tilesets/office-props.tsx"
  }
 ],
 "layers": [
  {
   "data": [
    6,
    6,
    6,
    6,
    6,
    6,
    6,
    6,
    6,
    6,
    6,
    6,
    6,
    6,
    6,
    6,
    6,
    6,
    6,
    6,
    6,
    6,
    6,
    6,
    6,
    6,
    6,
    6,
    6,
    6,
    6,
    6,
    6,
    6,
    6,
    6,
    6,
    6,
    6,
    6,
    6,
    6,
    6,
    6,
    6,
    6,
    6,
    6,
    6,
    6,
    6,
    6,
    6,
    6,
    6,
    6,
    6,
    6,
    6,
    6,
    6,
    6,
    6,
    6,
    6,
    6,
    6,
    6,
    6,
    6,
    6,
    6,
    6,
    6,
    6,
    6,
    6,
    6,
    6,
    6,
    6,
    6,
    6,
    6,
    6,
    6,
    6,
    6,
    6,
    6,
    6,
    6,
    6,
    6,
    6,
    6,
    6,
    6,
    6,
    6,
    6,
    6,
    6,
    6,
    6,
    6,
    6,
    6,
    6,
    6,
    6,
    6,
    6,
    6,
    6,
    6,
    6,
    6,
    6,
    6,
    6,
    6,
    6,
    6,
    6,
    6,
    6,
    6,
    6,
    6,
    6,
    6,
    6,
    6,
    6,
    6,
    6,
    6,
    6,
    6,
    6,
    6,
    6,
    6,
    6,
    6,
    6,
    6,
    6,
    6,
    6,
    6,
    6,
    6,
    6,
    6,
    6,
    6,
    6,
    6,
    6,
    6,
    6,
    6,
    6,
    6,
    6,
    6,
    6,
    6,
    6,
    6,
    6,
    6,
    6,
    6,
    6,
    6,
    6,
    6,
    6,
    6,
    6,
    6,
    6,
    6,
    6,
    6,
    6,
    6,
    6,
    6,
    6,
    6,
    6,
    6,
    6,
    6,
    6,
    6,
    6,
    6,
    6,
    6,
    6,
    6,
    6,
    6,
    6,
    6,
    6,
    6,
    6,
    6,
    6,
    6,
    6,
    6,
    6,
    6,
    6,
    6,
    6,
    6,
    6,
    6,
    6,
    6,
    6,
    6,
    6,
    6,
    6,
    6,
    6,
    6,
    6,
    6,
    6,
    6,
    6,
    6,
    6,
    6,
    6,
    6,
    6,
    6,
    6,
    6,
    6,
    6,
    6,
    6,
    6,
    6,
    6,
    6,
    6,
    6,
    6,
    6,
    6,
    6,
    6,
    6,
    6,
    6,
    6,
    6,
    6,
    6,
    6,
    6,
    6,
    6,
    6,
    6,
    6,
    6,
    6,
    6,
    6,
    6,
    6,
    6,
    6,
    6,
    6,
    6,
    6,
    6,
    6,
    6,
    6,
    6,
    6,
    6,
    6,
    6,
    6,
    6,
    6,
    6,
    6,
    6,
    6,
    6,
    6,
    6,
    6,
    6,
    6,
    6,
    6,
    6,
    6,
    6,
    6,
    6,
    6,
    6,
    6,
    6,
    6,
    6,
    6,
    6,
    6,
    6,
    6,
    6,
    6,
    6,
    6,
    6,
    6,
    6,
    6,
    6,
    6,
    6,
    6,
    6,
    6,
    6,
    6,
    6,
    6,
    6,
    6,
    6,
    6,
    6,
    6,
    6,
    6,
    6,
    6,
    6,
    6,
    6,
    6,
    6,
    6,
    6,
    6,
    6,
    6,
    6,
    6,
    6,
    6,
    6,
    6,
    6,
    6,
    6,
    6,
    6,
    6,
    6,
    6,
    6,
    6,
    6,
    6,
    6,
    6,
    6,
    6,
    6,
    6,
    6,
    6,
    6,
    6,
    6,
    6,
    6,
    6,
    6,
    6,
    6,
    6,
    6,
    6,
    6,
    6,
    6,
    6,
    6,
    6,
    6,
    6,
    6,
    6,
    6,
    6,
    6,
    6,
    6,
    6,
    6,
    6,
    6,
    6,
    6,
    6,
    6,
    6,
    6,
    6,
    6,
    6,
    6,
    6,
    6,
    6,
    6,
    6,
    6,
    6,
    6,
    6,
    6,
    6,
    6,
    6,
    6,
    6,
    6,
    6,
    6,
    6,
    6,
    6,
    6,
    6,
    6,
    6,
    6,
    6,
    6,
    6,
    6,
    6,
    6,
    6,
    6,
    6,
    6,
    6,
    6,
    6,
    6,
    6,
    6,
    6,
    6,
    6,
    6,
    6,
    6,
    6,
    6,
    6,
    6,
    6,
    6,
    6,
    6,
    6,
    6,
    6,
    6,
    6,
    6,
    6,
    6,
    6,
    6,
    6,
    6,
    6,
    6,
    6,
    6,
    6,
    6,
    6,
    6,
    6,
    6,
    6,
    6,
    6,
    6,
    6,
    6,
    6,
    6,
    6,
    6,
    6,
    6,
    6,
    6,
    6,
    6,
    6,
    6,
    6,
    6,
    6,
    6,
    6,
    6,
    6,
    6,
    6,
    6,
    6,
    6,
    6,
    6,
    6,
    6,
    6,
    6,
    6,
    6,
    6,
    6,
    6,
    6,
    6,
    6,
    6,
    6,
    6,
    6,
    6,
    6,
    6,
    6,
    6,
    6,
    6,
    6,
    6,
    6,
    6,
    6,
    6,
    6,
    6,
    6,
    6,
    6,
    6,
    6,
    6,
    6,
    6,
    6,
    6,
    6,
    6,
    6,
    6,
    6,
    6,
    6,
    6,
    6,
    6,
    6,
    6,
    6,
    6,
    6,
    6,
    6,
    6,
    6,
    6,
    6,
    6,
    6,
    6,
    6,
    6,
    6,
    6,
    6,
    6,
    6,
    6,
    6,
    6,
    6,
    6,
    6,
    6,
    6,
    6,
    6,
    6,
    6,
    6,
    6,
    6,
    6,
    6,
    6,
    6,
    6,
    6,
    6,
    6,
    6,
    6,
    6,
    6,
    6,
    6,
    6,
    6,
    6,
    6,
    6,
    6,
    6,
    6,
    6,
    6,
    6,
    6,
    6,
    6,
    6,
    6,
    6,
    6,
    6,
    6,
    6,
    6,
    6,
    6,
    6,
    5,
    5,
    5,
    5,
    5,
    5,
    5,
    5,
    5,
    5,
    5,
    5,
    5,
    5,
    5,
    5,
    6,
    6,
    6,
    6,
    6,
    6,
    6,
    6,
    6,
    6,
    6,
    6,
    6,
    6,
    6,
    6,
    6,
    6,
    6,
    6,
    6,
    6,
    6,
    6,
    6,
    6,
    6,
    6,
    6,
    6,
    6,
    6,
    6,
    6,
    6,
    6,
    6,
    6,
    6,
    6,
    6,
    6,
    6,
    6,
    5,
    5,
    5,
    5,
    5,
    5,
    5,
    5,
    5,
    5,
    5,
    5,
    5,
    5,
    5,
    5,
    6,
    6,
    6,
    6,
    6,
    6,
    6,
    6,
    6,
    6,
    6,
    6,
    11,
    11,
    11,
    11,
    11,
    11,
    11,
    11,
    11,
    11,
    11,
    11,
    11,
    11,
    6,
    6,
    6,
    6,
    6,
    6,
    6,
    6,
    6,
    6,
    6,
    6,
    6,
    6,
    6,
    6,
    6,
    6,
    5,
    5,
    5,
    5,
    5,
    5,
    5,
    5,
    5,
    5,
    5,
    5,
    5,
    5,
    5,
    5,
    6,
    6,
    6,
    6,
    6,
    6,
    6,
    6,
    6,
    6,
    6,
    6,
    11,
    11,
    11,
    11,
    11,
    11,
    11,
    11,
    11,
    11,
    11,
    11,
    11,
    11,
    6,
    6,
    6,
    6,
    6,
    6,
    6,
    6,
    6,
    6,
    6,
    6,
    6,
    6,
    6,
    6,
    6,
    6,
    5,
    5,
    5,
    5,
    5,
    5,
    5,
    5,
    5,
    5,
    5,
    5,
    5,
    5,
    5,
    5,
    6,
    6,
    6,
    6,
    6,
    6,
    6,
    6,
    6,
    6,
    6,
    6,
    11,
    11,
    11,
    11,
    11,
    11,
    11,
    11,
    11,
    11,
    11,
    11,
    11,
    11,
    6,
    6,
    6,
    6,
    6,
    6,
    6,
    6,
    6,
    6,
    6,
    6,
    6,
    6,
    6,
    6,
    6,
    6,
    5,
    5,
    5,
    5,
    5,
    5,
    5,
    5,
    5,
    5,
    5,
    5,
    5,
    5,
    5,
    5,
    6,
    6,
    6,
    6,
    6,
    6,
    6,
    6,
    6,
    6,
    6,
    6,
    11,
    11,
    11,
    11,
    11,
    11,
    11,
    11,
    11,
    11,
    11,
    11,
    11,
    11,
    6,
    6,
    6,
    6,
    6,
    6,
    6,
    6,
    6,
    6,
    6,
    6,
    6,
    6,
    6,
    6,
    6,
    6,
    5,
    5,
    5,
    5,
    5,
    5,
    5,
    5,
    5,
    5,
    5,
    5,
    5,
    5,
    5,
    5,
    6,
    6,
    6,
    6,
    6,
    6,
    6,
    6,
    6,
    6,
    6,
    6,
    11,
    11,
    11,
    11,
    11,
    11,
    11,
    11,
    11,
    11,
    11,
    11,
    11,
    11,
    6,
    6,
    6,
    6,
    6,
    6,
    6,
    6,
    6,
    6,
    6,
    6,
    6,
    6,
    6,
    6,
    6,
    6,
    5,
    5,
    5,
    5,
    5,
    5,
    5,
    5,
    5,
    5,
    5,
    5,
    5,
    5,
    5,
    5,
    6,
    6,
    6,
    6,
    6,
    6,
    6,
    6,
    6,
    6,
    6,
    6,
    11,
    11,
    11,
    11,
    11,
    11,
    11,
    11,
    11,
    11,
    11,
    11,
    11,
    11,
    6,
    6,
    6,
    6,
    6,
    6,
    6,
    6,
    6,
    6,
    6,
    6,
    6,
    6,
    6,
    6,
    6,
    6,
    5,
    5,
    5,
    5,
    5,
    5,
    5,
    5,
    5,
    5,
    5,
    5,
    5,
    5,
    5,
    5,
    6,
    6,
    6,
    6,
    6,
    6,
    6,
    6,
    6,
    6,
    6,
    6,
    11,
    11,
    11,
    11,
    11,
    11,
    11,
    11,
    11,
    11,
    11,
    11,
    11,
    11,
    6,
    6,
    6,
    6,
    6,
    6,
    6,
    6,
    6,
    6,
    6,
    6,
    6,
    6,
    6,
    6,
    6,
    6,
    5,
    5,
    5,
    5,
    5,
    5,
    5,
    5,
    5,
    5,
    5,
    5,
    5,
    5,
    5,
    5,
    6,
    6,
    6,
    6,
    6,
    6,
    6,
    6,
    6,
    6,
    6,
    6,
    11,
    11,
    11,
    11,
    11,
    11,
    11,
    11,
    11,
    11,
    11,
    11,
    11,
    11,
    6,
    6,
    6,
    6,
    6,
    6,
    6,
    6,
    6,
    6,
    6,
    6,
    6,
    6,
    6,
    6,
    6,
    6,
    5,
    5,
    5,
    5,
    5,
    5,
    5,
    5,
    5,
    5,
    5,
    5,
    5,
    5,
    5,
    5,
    6,
    6,
    6,
    6,
    6,
    6,
    6,
    6,
    6,
    6,
    6,
    6,
    11,
    11,
    11,
    11,
    11,
    11,
    11,
    11,
    11,
    11,
    11,
    11,
    11,
    11,
    6,
    6,
    6,
    6,
    6,
    6,
    6,
    6,
    6,
    6,
    6,
    6,
    6,
    6,
    6,
    6,
    6,
    6,
    5,
    5,
    5,
    5,
    5,
    5,
    5,
    5,
    5,
    5,
    5,
    5,
    5,
    5,
    5,
    5,
    6,
    6,
    6,
    6,
    6,
    6,
    6,
    6,
    6,
    6,
    6,
    6,
    6,
    6,
    6,
    6,
    6,
    6,
    6,
    6,
    6,
    6,
    6,
    6,
    6,
    6,
    6,
    6,
    6,
    6,
    6,
    6,
    6,
    6,
    6,
    6,
    6,
    6,
    6,
    6,
    6,
    6,
    6,
    6,
    5,
    5,
    5,
    5,
    5,
    5,
    5,
    5,
    5,
    5,
    5,
    5,
    5,
    5,
    5,
    5,
    6,
    6,
    6,
    6,
    6,
    6,
    6,
    6,
    6,
    6,
    6,
    6,
    6,
    6,
    6,
    6,
    6,
    6,
    6,
    6,
    6,
    6,
    6,
    6,
    6,
    6,
    6,
    6,
    6,
    6,
    6,
    6,
    6,
    6,
    6,
    6,
    6,
    6,
    6,
    6,
    6,
    6,
    6,
    6,
    5,
    5,
    5,
    5,
    5,
    5,
    5,
    5,
    5,
    5,
    5,
    5,
    5,
    5,
    5,
    5,
    6,
    6,
    6,
    6,
    6,
    6,
    6,
    6,
    6,
    6,
    6,
    6,
    6,
    6,
    6,
    6,
    6,
    6,
    6,
    6,
    6,
    6,
    6,
    6,
    6,
    6,
    6,
    6,
    6,
    6,
    6,
    6,
    6,
    6,
    6,
    6,
    6,
    6,
    6,
    6,
    6,
    6,
    6,
    6,
    6,
    6,
    6,
    6,
    6,
    6,
    6,
    6,
    6,
    6,
    6,
    6,
    6,
    6,
    6,
    6,
    6,
    6,
    6,
    6,
    6,
    6,
    6,
    6,
    6,
    6,
    6,
    6,
    6,
    6,
    6,
    6,
    6,
    6,
    6,
    6,
    6,
    6,
    6,
    6,
    6,
    6,
    6,
    6,
    6,
    6,
    6,
    6,
    6,
    6,
    6,
    6,
    6,
    6,
    6,
    6,
    6,
    6,
    6,
    6,
    6,
    6,
    6,
    6,
    6,
    6,
    6,
    6,
    6,
    6,
    6,
    6,
    6,
    6,
    6,
    6,
    6,
    6,
    6,
    6,
    6,
    6,
    6,
    6,
    6,
    6,
    6,
    6,
    6,
    6,
    6,
    6,
    6,
    6,
    6,
    6,
    6,
    6,
    6,
    6,
    6,
    6,
    6,
    6,
    6,
    6,
    6,
    6,
    6,
    6,
    6,
    6,
    6,
    6,
    6,
    6,
    6,
    6,
    6,
    6,
    6,
    6,
    6,
    6,
    6,
    6,
    6,
    6,
    6,
    6,
    6,
    6,
    6,
    6,
    6,
    6,
    6,
    6,
    6,
    6,
    6,
    6,
    6,
    6,
    6,
    6,
    6,
    6,
    6,
    6,
    6,
    6,
    6,
    6,
    6,
    6,
    6,
    6,
    6,
    6,
    6,
    6,
    6,
    6,
    6,
    6,
    6,
    6,
    6,
    6,
    6,
    6,
    6,
    6,
    6,
    6,
    6,
    6,
    6,
    6,
    6,
    6,
    6,
    6,
    6,
    6,
    6,
    6,
    6,
    6,
    6,
    6,
    6,
    6,
    6,
    6,
    6,
    6,
    6,
    6,
    6,
    6,
    6,
    6,
    6,
    6,
    6,
    6,
    6,
    6,
    6,
    6,
    6,
    6,
    6,
    6,
    6,
    6,
    6,
    6,
    6,
    6,
    6,
    6,
    6,
    6,
    6,
    6,
    6,
    6,
    6,
    6,
    6,
    6,
    6,
    6,
    6,
    6,
    6,
    6,
    6,
    6,
    6,
    6,
    6,
    6,
    6,
    6,
    6,
    6,
    6,
    6,
    6,
    6,
    6,
    6,
    6,
    6,
    6,
    6,
    6,
    6,
    6,
    6,
    6,
    6,
    6,
    6,
    6,
    6,
    6,
    6,
    6,
    6,
    6,
    6,
    6,
    6,
    6,
    6,
    6,
    6,
    6,
    6,
    6,
    6,
    6,
    6,
    6,
    6,
    6,
    6,
    6,
    6,
    6,
    6,
    6,
    6,
    6,
    6,
    6,
    6,
    6,
    6,
    6,
    6,
    6,
    6,
    6,
    6,
    6,
    6,
    6,
    6,
    6,
    6,
    6,
    6,
    6,
    6,
    6,
    6,
    6,
    6,
    6,
    6,
    6,
    6,
    6,
    6,
    6,
    6,
    6,
    6,
    6,
    6,
    6,
    6,
    6,
    6,
    6,
    6,
    6,
    6,
    6,
    6,
    6,
    6,
    6,
    6,
    6,
    6,
    6,
    6,
    6,
    6,
    6,
    6,
    6,
    6,
    6,
    6,
    6,
    6,
    6,
    6,
    6,
    6,
    6,
    6,
    6,
    6,
    6,
    6,
    6,
    6,
    6,
    6,
    6,
    6,
    6,
    6,
    6,
    6,
    6,
    6,
    6,
    6,
    6,
    6,
    6,
    6,
    6,
    6,
    6,
    6,
    6,
    6,
    6,
    6,
    6,
    6,
    6,
    6,
    6,
    6,
    6,
    6,
    6,
    6,
    6,
    6,
    6,
    6,
    6,
    6,
    6,
    6,
    6,
    6,
    6,
    6,
    6,
    6,
    6,
    6,
    6,
    6,
    6,
    6,
    6,
    6,
    6,
    6,
    6,
    6,
    6,
    6,
    6,
    6,
    6,
    6,
    6,
    6,
    6,
    11,
    11,
    11,
    11,
    11,
    11,
    11,
    11,
    11,
    11,
    11,
    11,
    11,
    11,
    11,
    11,
    11,
    11,
    11,
    11,
    11,
    11,
    6,
    6,
    6,
    2,
    2,
    2,
    2,
    2,
    2,
    2,
    2,
    2,
    2,
    2,
    2,
    2,
    2,
    2,
    2,
    6,
    6,
    5,
    2,
    5,
    2,
    5,
    2,
    5,
    2,
    5,
    2,
    5,
    2,
    5,
    2,
    6,
    6,
    6,
    11,
    11,
    11,
    11,
    11,
    11,
    11,
    11,
    11,
    11,
    11,
    11,
    11,
    11,
    11,
    11,
    11,
    11,
    11,
    11,
    11,
    11,
    6,
    6,
    6,
    2,
    2,
    2,
    2,
    2,
    2,
    2,
    2,
    2,
    2,
    2,
    2,
    2,
    2,
    2,
    2,
    6,
    6,
    2,
    5,
    2,
    5,
    2,
    5,
    2,
    5,
    2,
    5,
    2,
    5,
    2,
    5,
    6,
    6,
    6,
    11,
    11,
    11,
    11,
    11,
    11,
    11,
    11,
    11,
    11,
    11,
    11,
    11,
    11,
    11,
    11,
    11,
    11,
    11,
    11,
    11,
    11,
    6,
    6,
    6,
    2,
    2,
    2,
    2,
    2,
    2,
    2,
    2,
    2,
    2,
    2,
    2,
    2,
    2,
    2,
    2,
    6,
    6,
    5,
    2,
    5,
    2,
    5,
    2,
    5,
    2,
    5,
    2,
    5,
    2,
    5,
    2,
    6,
    6,
    6,
    11,
    11,
    11,
    11,
    11,
    11,
    11,
    11,
    11,
    11,
    11,
    11,
    11,
    11,
    11,
    11,
    11,
    11,
    11,
    11,
    11,
    11,
    6,
    6,
    6,
    2,
    2,
    2,
    2,
    2,
    2,
    2,
    2,
    2,
    2,
    2,
    2,
    2,
    2,
    2,
    2,
    6,
    6,
    2,
    5,
    2,
    5,
    2,
    5,
    2,
    5,
    2,
    5,
    2,
    5,
    2,
    5,
    6,
    6,
    6,
    11,
    11,
    11,
    11,
    11,
    11,
    11,
    11,
    11,
    11,
    11,
    11,
    11,
    11,
    11,
    11,
    11,
    11,
    11,
    11,
    11,
    11,
    6,
    6,
    6,
    2,
    2,
    2,
    2,
    2,
    2,
    2,
    2,
    2,
    2,
    2,
    2,
    2,
    2,
    2,
    2,
    6,
    6,
    5,
    2,
    5,
    2,
    5,
    2,
    5,
    2,
    5,
    2,
    5,
    2,
    5,
    2,
    6,
    6,
    6,
    11,
    11,
    11,
    11,
    11,
    11,
    11,
    11,
    11,
    11,
    11,
    11,
    11,
    11,
    11,
    11,
    11,
    11,
    11,
    11,
    11,
    11,
    6,
    6,
    6,
    2,
    2,
    2,
    2,
    2,
    2,
    2,
    2,
    2,
    2,
    2,
    2,
    2,
    2,
    2,
    2,
    6,
    6,
    2,
    5,
    2,
    5,
    2,
    5,
    2,
    5,
    2,
    5,
    2,
    5,
    2,
    5,
    6,
    6,
    6,
    11,
    11,
    11,
    11,
    11,
    11,
    11,
    11,
    11,
    11,
    11,
    11,
    11,
    11,
    11,
    11,
    11,
    11,
    11,
    11,
    11,
    11,
    6,
    6,
    6,
    2,
    2,
    2,
    2,
    2,
    2,
    2,
    2,
    2,
    2,
    2,
    2,
    2,
    2,
    2,
    2,
    6,
    6,
    5,
    2,
    5,
    2,
    5,
    2,
    5,
    2,
    5,
    2,
    5,
    2,
    5,
    2,
    6,
    6,
    6,
    11,
    11,
    11,
    11,
    11,
    11,
    11,
    11,
    11,
    11,
    11,
    11,
    11,
    11,
    11,
    11,
    11,
    11,
    11,
    11,
    11,
    11,
    6,
    6,
    6,
    6,
    6,
    6,
    6,
    6,
    6,
    6,
    6,
    6,
    6,
    6,
    6,
    6,
    6,
    6,
    6,
    6,
    6,
    6,
    6,
    6,
    6,
    6,
    6,
    6,
    6,
    6,
    6,
    6,
    6,
    6,
    6,
    6,
    6,
    6,
    6,
    6,
    6,
    6,
    6,
    6,
    6,
    6,
    6,
    6,
    6,
    6,
    6,
    6,
    6,
    6,
    6,
    6,
    6,
    6,
    6,
    6,
    6
   ],
   "height": 40,
   "width": 60,
   "name": "Ground",
   "opacity": 1,
   "type": "tilelayer",
   "visible": true,
   "x": 0,
   "y": 0,
   "id": 1
  },
  {
   "data": [
    4,
    4,
    4,
    4,
    4,
    4,
    4,
    4,
    4,
    4,
    4,
    4,
    4,
    4,
    4,
    4,
    4,
    4,
    4,
    4,
    4,
    4,
    4,
    4,
    4,
    4,
    4,
    4,
    4,
    4,
    4,
    4,
    4,
    4,
    4,
    4,
    4,
    4,
    4,
    4,
    4,
    4,
    4,
    4,
    4,
    4,
    4,
    4,
    4,
    4,
    4,
    4,
    4,
    4,
    4,
    4,
    4,
    4,
    4,
    4,
    4,
    4,
    4,
    4,
    4,
    4,
    4,
    4,
    4,
    4,
    4,
    4,
    4,
    4,
    4,
    4,
    4,
    4,
    4,
    4,
    4,
    4,
    4,
    4,
    4,
    4,
    4,
    4,
    4,
    4,
    4,
    4,
    4,
    4,
    4,
    4,
    4,
    4,
    4,
    4,
    4,
    4,
    4,
    4,
    4,
    4,
    4,
    4,
    4,
    4,
    4,
    4,
    4,
    4,
    4,
    4,
    4,
    4,
    4,
    4,
    4,
    0,
    0,
    0,
    0,
    0,
    0,
    0,
    0,
    0,
    0,
    0,
    0,
    0,
    0,
    0,
    0,
    0,
    0,
    0,
    0,
    0,
    0,
    0,
    0,
    0,
    0,
    0,
    0,
    0,
    0,
    0,
    0,
    0,
    0,
    0,
    0,
    0,
    0,
    0,
    0,
    0,
    0,
    0,
    0,
    0,
    0,
    0,
    0,
    0,
    0,
    0,
    0,
    0,
    0,
    0,
    0,
    0,
    0,
    4,
    4,
    0,
    0,
    0,
    0,
    0,
    0,
    0,
    0,
    0,
    0,
    0,
    0,
    0,
    0,
    0,
    0,
    0,
    0,
    0,
    0,
    0,
    0,
    0,
    0,
    0,
    0,
    0,
    0,
    0,
    0,
    0,
    0,
    0,
    0,
    0,
    0,
    0,
    0,
    0,
    0,
    0,
    0,
    0,
    0,
    0,
    0,
    0,
    0,
    0,
    0,
    0,
    0,
    0,
    0,
    0,
    0,
    0,
    0,
    4,
    4,
    0,
    0,
    0,
    0,
    0,
    0,
    0,
    0,
    0,
    0,
    0,
    0,
    0,
    0,
    0,
    0,
    0,
    0,
    0,
    0,
    0,
    0,
    0,
    0,
    0,
    0,
    0,
    0,
    0,
    0,
    0,
    0,
    0,
    0,
    0,
    0,
    0,
    0,
    0,
    0,
    0,
    0,
    0,
    0,
    0,
    0,
    0,
    0,
    0,
    0,
    0,
    0,
    0,
    0,
    0,
    0,
    0,
    0,
    4,
    4,
    0,
    0,
    0,
    0,
    0,
    0,
    0,
    0,
    0,
    0,
    0,
    0,
    0,
    0,
    0,
    0,
    0,
    0,
    0,
    0,
    0,
    0,
    0,
    0,
    0,
    0,
    0,
    0,
    0,
    0,
    0,
    0,
    0,
    0,
    0,
    0,
    0,
    0,
    0,
    0,
    0,
    0,
    0,
    0,
    0,
    0,
    0,
    0,
    0,
    0,
    0,
    0,
    0,
    0,
    0,
    0,
    0,
    0,
    4,
    4,
    0,
    0,
    0,
    0,
    0,
    0,
    0,
    0,
    0,
    0,
    0,
    0,
    0,
    0,
    0,
    0,
    0,
    0,
    0,
    0,
    0,
    0,
    0,
    0,
    0,
    0,
    0,
    0,
    0,
    0,
    0,
    0,
    0,
    0,
    0,
    0,
    0,
    0,
    0,
    0,
    0,
    0,
    0,
    0,
    0,
    0,
    0,
    0,
    0,
    0,
    0,
    0,
    0,
    0,
    0,
    0,
    0,
    0,
    4,
    4,
    0,
    0,
    0,
    0,
    0,
    0,
    0,
    0,
    0,
    0,
    0,
    0,
    0,
    0,
    0,
    0,
    0,
    0,
    0,
    0,
    0,
    0,
    0,
    0,
    0,
    0,
    0,
    0,
    0,
    0,
    0,
    0,
    0,
    0,
    0,
    0,
    0,
    0,
    0,
    0,
    0,
    0,
    0,
    0,
    0,
    0,
    0,
    0,
    0,
    0,
    0,
    0,
    0,
    0,
    0,
    0,
    0,
    0,
    4,
    4,
    0,
    0,
    0,
    0,
    0,
    0,
    0,
    0,
    0,
    0,
    0,
    0,
    0,
    0,
    0,
    0,
    0,
    0,
    0,
    0,
    0,
    0,
    0,
    0,
    0,
    0,
    0,
    0,
    0,
    0,
    0,
    0,
    0,
    0,
    0,
    0,
    0,
    0,
    0,
    0,
    0,
    0,
    0,
    0,
    0,
    0,
    0,
    0,
    0,
    0,
    0,
    0,
    0,
    0,
    0,
    0,
    0,
    0,
    4,
    4,
    0,
    0,
    0,
    0,
    0,
    0,
    0,
    0,
    0,
    0,
    0,
    0,
    0,
    0,
    0,
    0,
    0,
    0,
    0,
    0,
    0,
    0,
    0,
    0,
    0,
    0,
    0,
    0,
    0,
    0,
    0,
    0,
    0,
    0,
    0,
    0,
    0,
    0,
    0,
    0,
    0,
    0,
    0,
    0,
    0,
    0,
    0,
    0,
    0,
    0,
    0,
    0,
    0,
    0,
    0,
    0,
    0,
    0,
    4,
    4,
    0,
    0,
    0,
    0,
    0,
    0,
    0,
    0,
    0,
    0,
    0,
    0,
    0,
    0,
    0,
    0,
    0,
    0,
    0,
    0,
    0,
    0,
    0,
    0,
    0,
    0,
    0,
    0,
    0,
    0,
    0,
    0,
    0,
    0,
    0,
    0,
    0,
    0,
    0,
    0,
    0,
    0,
    0,
    0,
    0,
    0,
    0,
    0,
    0,
    0,
    0,
    0,
    0,
    0,
    0,
    0,
    0,
    0,
    4,
    4,
    0,
    0,
    0,
    0,
    0,
    0,
    0,
    0,
    0,
    0,
    0,
    0,
    0,
    0,
    0,
    0,
    0,
    0,
    0,
    0,
    0,
    0,
    0,
    0,
    0,
    0,
    0,
    0,
    0,
    0,
    0,
    0,
    0,
    0,
    0,
    0,
    0,
    0,
    0,
    0,
    0,
    0,
    0,
    0,
    0,
    0,
    0,
    0,
    0,
    0,
    0,
    0,
    0,
    0,
    0,
    0,
    0,
    0,
    4,
    4,
    0,
    0,
    0,
    0,
    0,
    0,
    0,
    0,
    0,
    0,
    0,
    0,
    0,
    0,
    0,
    0,
    0,
    0,
    0,
    0,
    0,
    0,
    0,
    0,
    0,
    0,
    0,
    0,
    0,
    0,
    0,
    0,
    0,
    0,
    0,
    0,
    0,
    0,
    0,
    0,
    0,
    0,
    0,
    0,
    0,
    0,
    0,
    0,
    0,
    0,
    0,
    0,
    0,
    0,
    0,
    0,
    0,
    0,
    4,
    4,
    0,
    0,
    0,
    0,
    0,
    0,
    0,
    0,
    0,
    0,
    0,
    0,
    0,
    0,
    0,
    0,
    0,
    0,
    0,
    0,
    0,
    0,
    0,
    0,
    0,
    0,
    0,
    0,
    0,
    0,
    0,
    0,
    0,
    0,
    0,
    0,
    0,
    0,
    0,
    0,
    0,
    0,
    0,
    0,
    0,
    0,
    0,
    0,
    0,
    0,
    0,
    0,
    0,
    0,
    0,
    0,
    0,
    0,
    4,
    4,
    0,
    0,
    0,
    0,
    0,
    0,
    0,
    0,
    0,
    0,
    0,
    0,
    0,
    0,
    0,
    0,
    0,
    0,
    0,
    0,
    0,
    0,
    0,
    0,
    0,
    0,
    0,
    0,
    0,
    0,
    0,
    0,
    0,
    0,
    0,
    0,
    0,
    0,
    0,
    0,
    0,
    0,
    0,
    0,
    0,
    0,
    0,
    0,
    0,
    0,
    0,
    0,
    0,
    0,
    0,
    0,
    0,
    0,
    4,
    4,
    0,
    0,
    0,
    0,
    0,
    0,
    0,
    0,
    0,
    0,
    0,
    0,
    0,
    0,
    0,
    0,
    0,
    0,
    0,
    0,
    0,
    0,
    0,
    0,
    0,
    0,
    0,
    0,
    0,
    0,
    0,
    0,
    0,
    0,
    0,
    0,
    0,
    0,
    0,
    0,
    0,
    0,
    0,
    0,
    0,
    0,
    0,
    0,
    0,
    0,
    0,
    0,
    0,
    0,
    0,
    0,
    0,
    0,
    4,
    4,
    0,
    0,
    0,
    0,
    0,
    0,
    0,
    0,
    0,
    0,
    0,
    0,
    0,
    0,
    0,
    0,
    0,
    0,
    0,
    0,
    0,
    0,
    0,
    0,
    0,
    0,
    0,
    0,
    0,
    0,
    0,
    0,
    0,
    0,
    0,
    0,
    0,
    0,
    0,
    0,
    0,
    0,
    0,
    0,
    0,
    0,
    0,
    0,
    0,
    0,
    0,
    0,
    0,
    0,
    0,
    0,
    0,
    0,
    4,
    4,
    0,
    0,
    0,
    0,
    0,
    0,
    0,
    0,
    0,
    0,
    0,
    0,
    0,
    0,
    0,
    0,
    0,
    0,
    0,
    0,
    0,
    0,
    0,
    0,
    0,
    0,
    0,
    0,
    0,
    0,
    0,
    0,
    0,
    0,
    0,
    0,
    0,
    0,
    0,
    0,
    0,
    0,
    0,
    0,
    0,
    0,
    0,
    0,
    0,
    0,
    0,
    0,
    0,
    0,
    0,
    0,
    0,
    0,
    4,
    4,
    0,
    0,
    0,
    0,
    0,
    0,
    0,
    0,
    0,
    0,
    0,
    0,
    0,
    0,
    0,
    0,
    0,
    0,
    0,
    0,
    0,
    0,
    0,
    0,
    0,
    0,
    0,
    0,
    0,
    0,
    0,
    0,
    0,
    0,
    0,
    0,
    0,
    0,
    0,
    0,
    0,
    0,
    0,
    0,
    0,
    0,
    0,
    0,
    0,
    0,
    0,
    0,
    0,
    0,
    0,
    0,
    0,
    0,
    4,
    4,
    0,
    0,
    0,
    0,
    0,
    0,
    0,
    0,
    0,
    0,
    0,
    0,
    0,
    0,
    0,
    0,
    0,
    0,
    0,
    0,
    0,
    0,
    0,
    0,
    0,
    0,
    0,
    0,
    0,
    0,
    0,
    0,
    0,
    0,
    0,
    0,
    0,
    0,
    0,
    0,
    0,
    0,
    0,
    0,
    0,
    0,
    0,
    0,
    0,
    0,
    0,
    0,
    0,
    0,
    0,
    0,
    0,
    0,
    4,
    4,
    0,
    0,
    0,
    0,
    0,
    0,
    0,
    0,
    0,
    0,
    0,
    0,
    0,
    0,
    0,
    0,
    0,
    0,
    0,
    0,
    0,
    0,
    0,
    0,
    0,
    0,
    0,
    0,
    0,
    0,
    0,
    0,
    0,
    0,
    0,
    0,
    0,
    0,
    0,
    0,
    0,
    0,
    0,
    0,
    0,
    0,
    0,
    0,
    0,
    0,
    0,
    0,
    0,
    0,
    0,
    0,
    0,
    0,
    4,
    4,
    0,
    0,
    0,
    0,
    0,
    0,
    0,
    0,
    0,
    0,
    0,
    0,
    0,
    0,
    0,
    0,
    0,
    0,
    0,
    0,
    0,
    0,
    0,
    0,
    0,
    0,
    0,
    0,
    0,
    0,
    0,
    0,
    0,
    0,
    0,
    0,
    0,
    0,
    0,
    0,
    0,
    0,
    0,
    0,
    0,
    0,
    0,
    0,
    0,
    0,
    0,
    0,
    0,
    0,
    0,
    0,
    0,
    0,
    4,
    4,
    0,
    0,
    0,
    0,
    0,
    0,
    0,
    0,
    0,
    0,
    0,
    0,
    0,
    0,
    0,
    0,
    0,
    0,
    0,
    0,
    0,
    0,
    0,
    0,
    0,
    0,
    0,
    0,
    0,
    0,
    0,
    0,
    0,
    0,
    0,
    0,
    0,
    0,
    0,
    0,
    0,
    0,
    0,
    0,
    0,
    0,
    0,
    0,
    0,
    0,
    0,
    0,
    0,
    0,
    0,
    0,
    0,
    0,
    4,
    4,
    0,
    0,
    0,
    0,
    0,
    0,
    0,
    0,
    0,
    0,
    0,
    0,
    0,
    0,
    0,
    0,
    0,
    0,
    0,
    0,
    0,
    0,
    0,
    0,
    0,
    0,
    0,
    0,
    0,
    0,
    0,
    0,
    0,
    0,
    0,
    0,
    0,
    0,
    0,
    0,
    0,
    0,
    0,
    0,
    0,
    0,
    0,
    0,
    0,
    0,
    0,
    0,
    0,
    0,
    0,
    0,
    0,
    0,
    4,
    4,
    0,
    0,
    0,
    0,
    0,
    0,
    0,
    0,
    0,
    0,
    0,
    0,
    0,
    0,
    0,
    0,
    0,
    0,
    0,
    0,
    0,
    0,
    0,
    0,
    0,
    0,
    0,
    0,
    0,
    0,
    0,
    0,
    0,
    0,
    0,
    0,
    0,
    0,
    0,
    0,
    0,
    0,
    0,
    0,
    0,
    0,
    0,
    0,
    0,
    0,
    0,
    0,
    0,
    0,
    0,
    0,
    0,
    0,
    4,
    4,
    0,
    0,
    0,
    0,
    0,
    0,
    0,
    0,
    0,
    0,
    0,
    0,
    0,
    0,
    0,
    0,
    0,
    0,
    0,
    0,
    0,
    0,
    0,
    0,
    0,
    0,
    0,
    0,
    0,
    0,
    0,
    0,
    0,
    0,
    0,
    0,
    0,
    0,
    0,
    0,
    0,
    0,
    0,
    0,
    0,
    0,
    0,
    0,
    0,
    0,
    0,
    0,
    0,
    0,
    0,
    0,
    0,
    0,
    4,
    4,
    0,
    0,
    0,
    0,
    0,
    0,
    0,
    0,
    0,
    0,
    0,
    0,
    0,
    0,
    0,
    0,
    0,
    0,
    0,
    0,
    0,
    0,
    0,
    0,
    0,
    0,
    0,
    0,
    0,
    0,
    0,
    0,
    0,
    0,
    0,
    0,
    0,
    0,
    0,
    0,
    0,
    0,
    0,
    0,
    0,
    0,
    0,
    0,
    0,
    0,
    0,
    0,
    0,
    0,
    0,
    0,
    0,
    0,
    4,
    4,
    0,
    0,
    0,
    0,
    0,
    0,
    0,
    0,
    0,
    0,
    0,
    0,
    0,
    0,
    0,
    0,
    0,
    0,
    0,
    0,
    0,
    0,
    0,
    0,
    0,
    0,
    0,
    0,
    0,
    0,
    0,
    0,
    0,
    0,
    0,
    0,
    0,
    0,
    0,
    0,
    0,
    0,
    0,
    0,
    0,
    0,
    0,
    0,
    0,
    0,
    0,
    0,
    0,
    0,
    0,
    0,
    0,
    0,
    4,
    4,
    0,
    0,
    0,
    0,
    0,
    0,
    0,
    0,
    0,
    0,
    0,
    0,
    0,
    0,
    0,
    0,
    0,
    0,
    0,
    0,
    0,
    0,
    0,
    0,
    0,
    0,
    0,
    0,
    0,
    0,
    0,
    0,
    0,
    0,
    0,
    0,
    0,
    0,
    0,
    0,
    0,
    0,
    0,
    0,
    0,
    0,
    0,
    0,
    0,
    0,
    0,
    0,
    0,
    0,
    0,
    0,
    0,
    0,
    4,
    4,
    0,
    0,
    0,
    0,
    0,
    0,
    0,
    0,
    0,
    0,
    0,
    0,
    0,
    0,
    0,
    0,
    0,
    0,
    0,
    0,
    0,
    0,
    0,
    0,
    0,
    0,
    0,
    0,
    0,
    0,
    0,
    0,
    0,
    0,
    0,
    0,
    0,
    0,
    0,
    0,
    0,
    0,
    0,
    0,
    0,
    0,
    0,
    0,
    0,
    0,
    0,
    0,
    0,
    0,
    0,
    0,
    0,
    0,
    4,
    4,
    4,
    4,
    4,
    4,
    4,
    4,
    4,
    4,
    4,
    0,
    0,
    4,
    4,
    4,
    4,
    4,
    4,
    4,
    4,
    4,
    4,
    4,
    4,
    4,
    4,
    0,
    0,
    4,
    4,
    4,
    4,
    4,
    4,
    4,
    4,
    4,
    4,
    4,
    4,
    4,
    4,
    4,
    4,
    4,
    0,
    0,
    4,
    4,
    4,
    4,
    4,
    4,
    4,
    4,
    4,
    4,
    4,
    4,
    4,
    4,
    0,
    0,
    0,
    0,
    0,
    0,
    0,
    0,
    0,
    0,
    0,
    0,
    0,
    0,
    0,
    0,
    0,
    4,
    0,
    0,
    0,
    0,
    0,
    0,
    0,
    0,
    0,
    0,
    0,
    0,
    0,
    0,
    0,
    0,
    4,
    0,
    0,
    0,
    0,
    0,
    0,
    0,
    0,
    0,
    0,
    0,
    0,
    0,
    0,
    0,
    0,
    0,
    0,
    0,
    0,
    0,
    0,
    0,
    4,
    4,
    0,
    0,
    0,
    0,
    0,
    0,
    0,
    0,
    0,
    0,
    0,
    0,
    0,
    0,
    0,
    0,
    0,
    4,
    0,
    0,
    0,
    0,
    0,
    0,
    0,
    0,
    0,
    0,
    0,
    0,
    0,
    0,
    0,
    0,
    4,
    0,
    0,
    0,
    0,
    0,
    0,
    0,
    0,
    0,
    0,
    0,
    0,
    0,
    0,
    0,
    0,
    0,
    0,
    0,
    0,
    0,
    0,
    0,
    4,
    4,
    0,
    0,
    0,
    0,
    0,
    0,
    0,
    0,
    0,
    0,
    0,
    0,
    0,
    0,
    0,
    0,
    0,
    4,
    0,
    0,
    0,
    0,
    0,
    0,
    0,
    0,
    0,
    0,
    0,
    0,
    0,
    0,
    0,
    0,
    4,
    0,
    0,
    0,
    0,
    0,
    0,
    0,
    0,
    0,
    0,
    0,
    0,
    0,
    0,
    0,
    0,
    0,
    0,
    0,
    0,
    0,
    0,
    0,
    4,
    4,
    0,
    0,
    0,
    0,
    0,
    0,
    0,
    0,
    0,
    0,
    0,
    0,
    0,
    0,
    0,
    0,
    0,
    0,
    0,
    0,
    0,
    0,
    0,
    0,
    0,
    0,
    0,
    0,
    0,
    0,
    0,
    0,
    0,
    0,
    0,
    0,
    0,
    0,
    0,
    0,
    0,
    0,
    0,
    0,
    0,
    0,
    0,
    0,
    0,
    0,
    0,
    0,
    0,
    0,
    0,
    0,
    0,
    0,
    4,
    4,
    0,
    0,
    0,
    0,
    0,
    0,
    0,
    0,
    0,
    0,
    0,
    0,
    0,
    0,
    0,
    0,
    0,
    0,
    0,
    0,
    0,
    0,
    0,
    0,
    0,
    0,
    0,
    0,
    0,
    0,
    0,
    0,
    0,
    0,
    0,
    0,
    0,
    0,
    0,
    0,
    0,
    0,
    0,
    0,
    0,
    0,
    0,
    0,
    0,
    0,
    0,
    0,
    0,
    0,
    0,
    0,
    0,
    0,
    4,
    4,
    0,
    0,
    0,
    0,
    0,
    0,
    0,
    0,
    0,
    0,
    0,
    0,
    0,
    0,
    0,
    0,
    0,
    4,
    0,
    0,
    0,
    0,
    0,
    0,
    0,
    0,
    0,
    0,
    0,
    0,
    0,
    0,
    0,
    0,
    4,
    0,
    0,
    0,
    0,
    0,
    0,
    0,
    0,
    0,
    0,
    0,
    0,
    0,
    0,
    0,
    0,
    0,
    0,
    0,
    0,
    0,
    0,
    0,
    4,
    4,
    0,
    0,
    0,
    0,
    0,
    0,
    0,
    0,
    0,
    0,
    0,
    0,
    0,
    0,
    0,
    0,
    0,
    4,
    0,
    0,
    0,
    0,
    0,
    0,
    0,
    0,
    0,
    0,
    0,
    0,
    0,
    0,
    0,
    0,
    4,
    0,
    0,
    0,
    0,
    0,
    0,
    0,
    0,
    0,
    0,
    0,
    0,
    0,
    0,
    0,
    0,
    0,
    0,
    0,
    0,
    0,
    0,
    0,
    4,
    4,
    0,
    0,
    0,
    0,
    0,
    0,
    0,
    0,
    0,
    0,
    0,
    0,
    0,
    0,
    0,
    0,
    0,
    4,
    0,
    0,
    0,
    0,
    0,
    0,
    0,
    0,
    0,
    0,
    0,
    0,
    0,
    0,
    0,
    0,
    4,
    0,
    0,
    0,
    0,
    0,
    0,
    0,
    0,
    0,
    0,
    0,
    0,
    0,
    0,
    0,
    0,
    0,
    0,
    0,
    0,
    0,
    0,
    0,
    4,
    4,
    4,
    4,
    4,
    4,
    4,
    4,
    4,
    4,
    4,
    4,
    4,
    4,
    4,
    4,
    4,
    4,
    4,
    4,
    4,
    4,
    4,
    4,
    4,
    4,
    4,
    4,
    4,
    4,
    4,
    4,
    4,
    4,
    4,
    4,
    4,
    4,
    4,
    4,
    4,
    4,
    4,
    4,
    4,
    4,
    4,
    4,
    4,
    4,
    4,
    4,
    4,
    4,
    4,
    4,
    4,
    4,
    4,
    4,
    4
   ],
   "height": 40,
   "width": 60,
   "name": "Walls",
   "opacity": 1,
   "type": "tilelayer",
   "visible": true,
   "x": 0,
   "y": 0,
   "id": 2
  },
  {
   "draworder": "topdown",
   "id": 3,
   "name": "Furniture",
   "objects": [
    {
     "gid": 165,
     "id": 2,
     "name": "",
     "type": "",
     "visible": true,
     "x": 80,
     "y": 64,
     "width": 16,
     "height": 16,
     "rotation": 0
    },
    {
     "gid": 165,
     "id": 3,
     "name": "",
     "type": "",
     "visible": true,
     "x": 96,
     "y": 64,
     "width": 16,
     "height": 16,
     "rotation": 0
    },
    {
     "gid": 155,
     "id": 4,
     "name": "",
     "type": "",
     "visible": true,
     "x": 128,
     "y": 64,
     "width": 16,
     "height": 14,
     "rotation": 0
    },
    {
     "gid": 164,
     "id": 6,
     "name": "",
     "type": "",
     "visible": true,
     "x": 208,
     "y": 64,
     "width": 16,
     "height": 16,
     "rotation": 0
    },
    {
     "gid": 165,
     "id": 7,
     "name": "",
     "type": "",
     "visible": true,
     "x": 224,
     "y": 64,
     "width": 16,
     "height": 16,
     "rotation": 0
    },
    {
     "gid": 165,
     "id": 15,
     "name": "",
     "type": "",
     "visible": true,
     "x": 800,
     "y": 64,
     "width": 16,
     "height": 16,
     "rotation": 0
    },
    {
     "gid": 165,
     "id": 16,
     "name": "",
     "type": "",
     "visible": true,
     "x": 816,
     "y": 64,
     "width": 16,
     "height": 16,
     "rotation": 0
    },
    {
     "gid": 165,
     "id": 17,
     "name": "",
     "type": "",
     "visible": true,
     "x": 832,
     "y": 64,
     "width": 16,
     "height": 16,
     "rotation": 0
    },
    {
     "gid": 165,
     "id": 19,
     "name": "",
     "type": "",
     "visible": true,
     "x": 224,
     "y": 192,
     "width": 16,
     "height": 16,
     "rotation": 0
    },
    {
     "gid": 165,
     "id": 20,
     "name": "",
     "type": "",
     "visible": true,
     "x": 240,
     "y": 192,
     "width": 16,
     "height": 16,
     "rotation": 0
    },
    {
     "gid": 165,
     "id": 21,
     "name": "",
     "type": "",
     "visible": true,
     "x": 336,
     "y": 192,
     "width": 16,
     "height": 16,
     "rotation": 0
    },
    {
     "gid": 165,
     "id": 22,
     "name": "",
     "type": "",
     "visible": true,
     "x": 352,
     "y": 192,
     "width": 16,
     "height": 16,
     "rotation": 0
    },
    {
     "gid": 130,
     "id": 24,
     "name": "",
     "type": "",
     "visible": true,
     "x": 288,
     "y": 240,
     "width": 16,
     "height": 16,
     "rotation": 0
    },
    {
     "gid": 131,
     "id": 25,
     "name": "",
     "type": "",
     "visible": true,
     "x": 304,
     "y": 240,
     "width": 16,
     "height": 16,
     "rotation": 0
    },
    {
     "gid": 132,
     "id": 26,
     "name": "",
     "type": "",
     "visible": true,
     "x": 320,
     "y": 240,
     "width": 16,
     "height": 16,
     "rotation": 0
    },
    {
     "gid": 167,
     "id": 27,
     "name": "",
     "type": "",
     "visible": true,
     "x": 288,
     "y": 288,
     "width": 31,
     "height": 22,
     "rotation": 0
    },
    {
     "gid": 154,
     "id": 28,
     "name": "",
     "type": "",
     "visible": true,
     "x": 256,
     "y": 288,
     "width": 16,
     "height": 16,
     "rotation": 0
    },
    {
     "gid": 151,
     "id": 29,
     "name": "",
     "type": "",
     "visible": true,
     "x": 352,
     "y": 288,
     "width": 16,
     "height": 16,
     "rotation": 0
    },
    {
     "gid": 152,
     "id": 30,
     "name": "",
     "type": "",
     "visible": true,
     "x": 288,
     "y": 256,
     "width": 16,
     "height": 16,
     "rotation": 0
    },
    {
     "gid": 153,
     "id": 31,
     "name": "",
     "type": "",
     "visible": true,
     "x": 304,
     "y": 320,
     "width": 16,
     "height": 16,
     "rotation": 0
    },
    {
     "gid": 130,
     "id": 33,
     "name": "",
     "type": "",
     "visible": true,
     "x": 240,
     "y": 368,
     "width": 16,
     "height": 16,
     "rotation": 0
    },
    {
     "gid": 131,
     "id": 34,
     "name": "",
     "type": "",
     "visible": true,
     "x": 256,
     "y": 368,
     "width": 16,
     "height": 16,
     "rotation": 0
    },
    {
     "gid": 132,
     "id": 35,
     "name": "",
     "type": "",
     "visible": true,
     "x": 272,
     "y": 368,
     "width": 16,
     "height": 16,
     "rotation": 0
    },
    {
     "gid": 130,
     "id": 36,
     "name": "",
     "type": "",
     "visible": true,
     "x": 288,
     "y": 368,
     "width": 16,
     "height": 16,
     "rotation": 0
    },
    {
     "gid": 131,
     "id": 37,
     "name": "",
     "type": "",
     "visible": true,
     "x": 304,
     "y": 368,
     "width": 16,
     "height": 16,
     "rotation": 0
    },
    {
     "gid": 132,
     "id": 38,
     "name": "",
     "type": "",
     "visible": true,
     "x": 320,
     "y": 368,
     "width": 16,
     "height": 16,
     "rotation": 0
    },
    {
     "gid": 167,
     "id": 39,
     "name": "",
     "type": "",
     "visible": true,
     "x": 672,
     "y": 224,
     "width": 31,
     "height": 22,
     "rotation": 0
    },
    {
     "gid": 153,
     "id": 42,
     "name": "",
     "type": "",
     "visible": true,
     "x": 672,
     "y": 240,
     "width": 16,
     "height": 16,
     "rotation": 0
    },
    {
     "gid": 167,
     "id": 43,
     "name": "",
     "type": "",
     "visible": true,
     "x": 736,
     "y": 224,
     "width": 31,
     "height": 22,
     "rotation": 0
    },
    {
     "gid": 153,
     "id": 46,
     "name": "",
     "type": "",
     "visible": true,
     "x": 736,
     "y": 240,
     "width": 16,
     "height": 16,
     "rotation": 0
    },
    {
     "gid": 167,
     "id": 47,
     "name": "",
     "type": "",
     "visible": true,
     "x": 800,
     "y": 224,
     "width": 31,
     "height": 22,
     "rotation": 0
    },
    {
     "gid": 153,
     "id": 50,
     "name": "",
     "type": "",
     "visible": true,
     "x": 800,
     "y": 240,
     "width": 16,
     "height": 16,
     "rotation": 0
    },
    {
     "gid": 167,
     "id": 51,
     "name": "",
     "type": "",
     "visible": true,
     "x": 672,
     "y": 304,
     "width": 31,
     "height": 22,
     "rotation": 0
    },
    {
     "gid": 153,
     "id": 54,
     "name": "",
     "type": "",
     "visible": true,
     "x": 672,
     "y": 320,
     "width": 16,
     "height": 16,
     "rotation": 0
    },
    {
     "gid": 167,
     "id": 55,
     "name": "",
     "type": "",
     "visible": true,
     "x": 736,
     "y": 304,
     "width": 31,
     "height": 22,
     "rotation": 0
    },
    {
     "gid": 153,
     "id": 58,
     "name": "",
     "type": "",
     "visible": true,
     "x": 736,
     "y": 320,
     "width": 16,
     "height": 16,
     "rotation": 0
    },
    {
     "gid": 167,
     "id": 59,
     "name": "",
     "type": "",
     "visible": true,
     "x": 800,
     "y": 304,
     "width": 31,
     "height": 22,
     "rotation": 0
    },
    {
     "gid": 153,
     "id": 62,
     "name": "",
     "type": "",
     "visible": true,
     "x": 800,
     "y": 320,
     "width": 16,
     "height": 16,
     "rotation": 0
    },
    {
     "gid": 130,
     "id": 70,
     "name": "",
     "type": "",
     "visible": true,
     "x": 64,
     "y": 560,
     "width": 16,
     "height": 16,
     "rotation": 0
    },
    {
     "gid": 131,
     "id": 71,
     "name": "",
     "type": "",
     "visible": true,
     "x": 80,
     "y": 560,
     "width": 16,
     "height": 16,
     "rotation": 0
    },
    {
     "gid": 132,
     "id": 72,
     "name": "",
     "type": "",
     "visible": true,
     "x": 96,
     "y": 560,
     "width": 16,
     "height": 16,
     "rotation": 0
    },
    {
     "gid": 167,
     "id": 73,
     "name": "",
     "type": "",
     "visible": true,
     "x": 80,
     "y": 592,
     "width": 31,
     "height": 22,
     "rotation": 0
    },
    {
     "gid": 153,
     "id": 74,
     "name": "",
     "type": "",
     "visible": true,
     "x": 80,
     "y": 624,
     "width": 16,
     "height": 16,
     "rotation": 0
    },
    {
     "gid": 151,
     "id": 75,
     "name": "",
     "type": "",
     "visible": true,
     "x": 144,
     "y": 592,
     "width": 16,
     "height": 16,
     "rotation": 0
    },
    {
     "gid": 152,
     "id": 78,
     "name": "",
     "type": "",
     "visible": true,
     "x": 416,
     "y": 560,
     "width": 16,
     "height": 16,
     "rotation": 0
    },
    {
     "gid": 165,
     "id": 80,
     "name": "",
     "type": "",
     "visible": true,
     "x": 496,
     "y": 528,
     "width": 16,
     "height": 16,
     "rotation": 0
    },
    {
     "gid": 164,
     "id": 81,
     "name": "",
     "type": "",
     "visible": true,
     "x": 512,
     "y": 528,
     "width": 16,
     "height": 16,
     "rotation": 0
    },
    {
     "gid": 170,
     "id": 82,
     "name": "",
     "type": "",
     "visible": true,
     "x": 352,
     "y": 592,
     "width": 46,
     "height": 23,
     "rotation": 0
    },
    {
     "gid": 167,
     "id": 83,
     "name": "",
     "type": "",
     "visible": true,
     "x": 624,
     "y": 544,
     "width": 31,
     "height": 22,
     "rotation": 0
    },
    {
     "gid": 153,
     "id": 85,
     "name": "",
     "type": "",
     "visible": true,
     "x": 640,
     "y": 576,
     "width": 16,
     "height": 16,
     "rotation": 0
    },
    {
     "gid": 167,
     "id": 86,
     "name": "",
     "type": "",
     "visible": true,
     "x": 720,
     "y": 544,
     "width": 31,
     "height": 22,
     "rotation": 0
    },
    {
     "gid": 153,
     "id": 88,
     "name": "",
     "type": "",
     "visible": true,
     "x": 736,
     "y": 576,
     "width": 16,
     "height": 16,
     "rotation": 0
    },
    {
     "gid": 167,
     "id": 89,
     "name": "",
     "type": "",
     "visible": true,
     "x": 816,
     "y": 544,
     "width": 31,
     "height": 22,
     "rotation": 0
    },
    {
     "gid": 153,
     "id": 91,
     "name": "",
     "type": "",
     "visible": true,
     "x": 832,
     "y": 576,
     "width": 16,
     "height": 16,
     "rotation": 0
    },
    {
     "gid": 164,
     "id": 92,
     "name": "",
     "type": "",
     "visible": true,
     "x": 896,
     "y": 528,
     "width": 16,
     "height": 16,
     "rotation": 0
    },
    {
     "gid": 165,
     "id": 93,
     "name": "",
     "type": "",
     "visible": true,
     "x": 912,
     "y": 528,
     "width": 16,
     "height": 16,
     "rotation": 0
    }
   ],
   "opacity": 1,
   "type": "objectgroup",
   "visible": true,
   "x": 0,
   "y": 0
  },
  {
   "draworder": "topdown",
   "id": 4,
   "name": "Decorations",
   "objects": [
    {
     "gid": 158,
     "id": 1,
     "name": "",
     "type": "",
     "visible": true,
     "x": 48,
     "y": 64,
     "width": 20,
     "height": 19,
     "rotation": 0
    },
    {
     "gid": 150,
     "id": 5,
     "name": "",
     "type": "",
     "visible": true,
     "x": 176,
     "y": 64,
     "width": 16,
     "height": 27,
     "rotation": 0
    },
    {
     "gid": 158,
     "id": 8,
     "name": "",
     "type": "",
     "visible": true,
     "x": 272,
     "y": 64,
     "width": 20,
     "height": 19,
     "rotation": 0
    },
    {
     "gid": 156,
     "id": 9,
     "name": "",
     "type": "",
     "visible": true,
     "x": 352,
     "y": 48,
     "width": 16,
     "height": 17,
     "rotation": 0
    },
    {
     "gid": 156,
     "id": 10,
     "name": "",
     "type": "",
     "visible": true,
     "x": 384,
     "y": 48,
     "width": 16,
     "height": 17,
     "rotation": 0
    },
    {
     "gid": 156,
     "id": 11,
     "name": "",
     "type": "",
     "visible": true,
     "x": 672,
     "y": 48,
     "width": 16,
     "height": 17,
     "rotation": 0
    },
    {
     "gid": 156,
     "id": 12,
     "name": "",
     "type": "",
     "visible": true,
     "x": 704,
     "y": 48,
     "width": 16,
     "height": 17,
     "rotation": 0
    },
    {
     "gid": 166,
     "id": 13,
     "name": "",
     "type": "",
     "visible": true,
     "x": 480,
     "y": 64,
     "width": 21,
     "height": 25,
     "rotation": 0
    },
    {
     "gid": 158,
     "id": 14,
     "name": "",
     "type": "",
     "visible": true,
     "x": 544,
     "y": 64,
     "width": 20,
     "height": 19,
     "rotation": 0
    },
    {
     "gid": 158,
     "id": 18,
     "name": "",
     "type": "",
     "visible": true,
     "x": 896,
     "y": 64,
     "width": 20,
     "height": 19,
     "rotation": 0
    },
    {
     "gid": 158,
     "id": 23,
     "name": "",
     "type": "",
     "visible": true,
     "x": 400,
     "y": 192,
     "width": 20,
     "height": 19,
     "rotation": 0
    },
    {
     "gid": 158,
     "id": 32,
     "name": "",
     "type": "",
     "visible": true,
     "x": 208,
     "y": 336,
     "width": 20,
     "height": 19,
     "rotation": 0
    },
    {
     "gid": 147,
     "id": 40,
     "name": "",
     "type": "",
     "visible": true,
     "x": 672,
     "y": 208,
     "width": 16,
     "height": 19,
     "rotation": 0
    },
    {
     "gid": 159,
     "id": 41,
     "name": "",
     "type": "",
     "visible": true,
     "x": 672,
     "y": 224,
     "width": 12,
     "height": 4,
     "rotation": 0
    },
    {
     "gid": 148,
     "id": 44,
     "name": "",
     "type": "",
     "visible": true,
     "x": 736,
     "y": 208,
     "width": 16,
     "height": 19,
     "rotation": 0
    },
    {
     "gid": 159,
     "id": 45,
     "name": "",
     "type": "",
     "visible": true,
     "x": 736,
     "y": 224,
     "width": 12,
     "height": 4,
     "rotation": 0
    },
    {
     "gid": 147,
     "id": 48,
     "name": "",
     "type": "",
     "visible": true,
     "x": 800,
     "y": 208,
     "width": 16,
     "height": 19,
     "rotation": 0
    },
    {
     "gid": 159,
     "id": 49,
     "name": "",
     "type": "",
     "visible": true,
     "x": 800,
     "y": 224,
     "width": 12,
     "height": 4,
     "rotation": 0
    },
    {
     "gid": 148,
     "id": 52,
     "name": "",
     "type": "",
     "visible": true,
     "x": 672,
     "y": 288,
     "width": 16,
     "height": 19,
     "rotation": 0
    },
    {
     "gid": 159,
     "id": 53,
     "name": "",
     "type": "",
     "visible": true,
     "x": 672,
     "y": 304,
     "width": 12,
     "height": 4,
     "rotation": 0
    },
    {
     "gid": 147,
     "id": 56,
     "name": "",
     "type": "",
     "visible": true,
     "x": 736,
     "y": 288,
     "width": 16,
     "height": 19,
     "rotation": 0
    },
    {
     "gid": 159,
     "id": 57,
     "name": "",
     "type": "",
     "visible": true,
     "x": 736,
     "y": 304,
     "width": 12,
     "height": 4,
     "rotation": 0
    },
    {
     "gid": 148,
     "id": 60,
     "name": "",
     "type": "",
     "visible": true,
     "x": 800,
     "y": 288,
     "width": 16,
     "height": 19,
     "rotation": 0
    },
    {
     "gid": 159,
     "id": 61,
     "name": "",
     "type": "",
     "visible": true,
     "x": 800,
     "y": 304,
     "width": 12,
     "height": 4,
     "rotation": 0
    },
    {
     "gid": 158,
     "id": 76,
     "name": "",
     "type": "",
     "visible": true,
     "x": 224,
     "y": 544,
     "width": 20,
     "height": 19,
     "rotation": 0
    },
    {
     "gid": 166,
     "id": 77,
     "name": "",
     "type": "",
     "visible": true,
     "x": 48,
     "y": 528,
     "width": 21,
     "height": 25,
     "rotation": 0
    },
    {
     "gid": 158,
     "id": 79,
     "name": "",
     "type": "",
     "visible": true,
     "x": 464,
     "y": 528,
     "width": 20,
     "height": 19,
     "rotation": 0
    },
    {
     "gid": 148,
     "id": 84,
     "name": "",
     "type": "",
     "visible": true,
     "x": 640,
     "y": 528,
     "width": 16,
     "height": 19,
     "rotation": 0
    },
    {
     "gid": 148,
     "id": 87,
     "name": "",
     "type": "",
     "visible": true,
     "x": 736,
     "y": 528,
     "width": 16,
     "height": 19,
     "rotation": 0
    },
    {
     "gid": 148,
     "id": 90,
     "name": "",
     "type": "",
     "visible": true,
     "x": 832,
     "y": 528,
     "width": 16,
     "height": 19,
     "rotation": 0
    },
    {
     "gid": 149,
     "id": 94,
     "name": "",
     "type": "",
     "visible": true,
     "x": 880,
     "y": 592,
     "width": 32,
     "height": 32,
     "rotation": 0
    },
    {
     "gid": 158,
     "id": 95,
     "name": "",
     "type": "",
     "visible": true,
     "x": 592,
     "y": 608,
     "width": 20,
     "height": 19,
     "rotation": 0
    },
    {
     "gid": 158,
     "id": 96,
     "name": "",
     "type": "",
     "visible": true,
     "x": 480,
     "y": 432,
     "width": 20,
     "height": 19,
     "rotation": 0
    },
    {
     "gid": 163,
     "id": 97,
     "name": "",
     "type": "",
     "visible": true,
     "x": 912,
     "y": 432,
     "width": 16,
     "height": 24,
     "rotation": 0
    },
    {
     "gid": 169,
     "id": 98,
     "name": "",
     "type": "",
     "visible": true,
     "x": 160,
     "y": 496,
     "width": 44,
     "height": 54,
     "rotation": 0
    },
    {
     "gid": 169,
     "id": 99,
     "name": "",
     "type": "",
     "visible": true,
     "x": 720,
     "y": 496,
     "width": 44,
     "height": 54,
     "rotation": 0
    }
   ],
   "opacity": 1,
   "type": "objectgroup",
   "visible": true,
   "x": 0,
   "y": 0
  },
  {
   "draworder": "topdown",
   "id": 5,
   "name": "Collision",
   "objects": [
    {
     "id": 100,
     "name": "",
     "type": "",
     "visible": true,
     "x": 80,
     "y": 48,
     "width": 16,
     "height": 16,
     "rotation": 0
    },
    {
     "id": 101,
     "name": "",
     "type": "",
     "visible": true,
     "x": 96,
     "y": 48,
     "width": 16,
     "height": 16,
     "rotation": 0
    },
    {
     "id": 102,
     "name": "",
     "type": "",
     "visible": true,
     "x": 128,
     "y": 48,
     "width": 16,
     "height": 16,
     "rotation": 0
    },
    {
     "id": 103,
     "name": "",
     "type": "",
     "visible": true,
     "x": 208,
     "y": 48,
     "width": 16,
     "height": 16,
     "rotation": 0
    },
    {
     "id": 104,
     "name": "",
     "type": "",
     "visible": true,
     "x": 224,
     "y": 48,
     "width": 16,
     "height": 16,
     "rotation": 0
    },
    {
     "id": 105,
     "name": "",
     "type": "",
     "visible": true,
     "x": 800,
     "y": 48,
     "width": 16,
     "height": 16,
     "rotation": 0
    },
    {
     "id": 106,
     "name": "",
     "type": "",
     "visible": true,
     "x": 816,
     "y": 48,
     "width": 16,
     "height": 16,
     "rotation": 0
    },
    {
     "id": 107,
     "name": "",
     "type": "",
     "visible": true,
     "x": 832,
     "y": 48,
     "width": 16,
     "height": 16,
     "rotation": 0
    },
    {
     "id": 108,
     "name": "",
     "type": "",
     "visible": true,
     "x": 224,
     "y": 176,
     "width": 16,
     "height": 16,
     "rotation": 0
    },
    {
     "id": 109,
     "name": "",
     "type": "",
     "visible": true,
     "x": 240,
     "y": 176,
     "width": 16,
     "height": 16,
     "rotation": 0
    },
    {
     "id": 110,
     "name": "",
     "type": "",
     "visible": true,
     "x": 336,
     "y": 176,
     "width": 16,
     "height": 16,
     "rotation": 0
    },
    {
     "id": 111,
     "name": "",
     "type": "",
     "visible": true,
     "x": 352,
     "y": 176,
     "width": 16,
     "height": 16,
     "rotation": 0
    },
    {
     "id": 112,
     "name": "",
     "type": "",
     "visible": true,
     "x": 288,
     "y": 224,
     "width": 16,
     "height": 16,
     "rotation": 0
    },
    {
     "id": 113,
     "name": "",
     "type": "",
     "visible": true,
     "x": 304,
     "y": 224,
     "width": 16,
     "height": 16,
     "rotation": 0
    },
    {
     "id": 114,
     "name": "",
     "type": "",
     "visible": true,
     "x": 320,
     "y": 224,
     "width": 16,
     "height": 16,
     "rotation": 0
    },
    {
     "id": 115,
     "name": "",
     "type": "",
     "visible": true,
     "x": 288,
     "y": 256,
     "width": 32,
     "height": 32,
     "rotation": 0
    },
    {
     "id": 116,
     "name": "",
     "type": "",
     "visible": true,
     "x": 240,
     "y": 352,
     "width": 16,
     "height": 16,
     "rotation": 0
    },
    {
     "id": 117,
     "name": "",
     "type": "",
     "visible": true,
     "x": 256,
     "y": 352,
     "width": 16,
     "height": 16,
     "rotation": 0
    },
    {
     "id": 118,
     "name": "",
     "type": "",
     "visible": true,
     "x": 272,
     "y": 352,
     "width": 16,
     "height": 16,
     "rotation": 0
    },
    {
     "id": 119,
     "name": "",
     "type": "",
     "visible": true,
     "x": 288,
     "y": 352,
     "width": 16,
     "height": 16,
     "rotation": 0
    },
    {
     "id": 120,
     "name": "",
     "type": "",
     "visible": true,
     "x": 304,
     "y": 352,
     "width": 16,
     "height": 16,
     "rotation": 0
    },
    {
     "id": 121,
     "name": "",
     "type": "",
     "visible": true,
     "x": 320,
     "y": 352,
     "width": 16,
     "height": 16,
     "rotation": 0
    },
    {
     "id": 122,
     "name": "",
     "type": "",
     "visible": true,
     "x": 672,
     "y": 192,
     "width": 32,
     "height": 32,
     "rotation": 0
    },
    {
     "id": 123,
     "name": "",
     "type": "",
     "visible": true,
     "x": 736,
     "y": 192,
     "width": 32,
     "height": 32,
     "rotation": 0
    },
    {
     "id": 124,
     "name": "",
     "type": "",
     "visible": true,
     "x": 800,
     "y": 192,
     "width": 32,
     "height": 32,
     "rotation": 0
    },
    {
     "id": 125,
     "name": "",
     "type": "",
     "visible": true,
     "x": 672,
     "y": 272,
     "width": 32,
     "height": 32,
     "rotation": 0
    },
    {
     "id": 126,
     "name": "",
     "type": "",
     "visible": true,
     "x": 736,
     "y": 272,
     "width": 32,
     "height": 32,
     "rotation": 0
    },
    {
     "id": 127,
     "name": "",
     "type": "",
     "visible": true,
     "x": 800,
     "y": 272,
     "width": 32,
     "height": 32,
     "rotation": 0
    },
    {
     "id": 128,
     "name": "",
     "type": "",
     "visible": true,
     "x": 64,
     "y": 544,
     "width": 16,
     "height": 16,
     "rotation": 0
    },
    {
     "id": 129,
     "name": "",
     "type": "",
     "visible": true,
     "x": 80,
     "y": 544,
     "width": 16,
     "height": 16,
     "rotation": 0
    },
    {
     "id": 130,
     "name": "",
     "type": "",
     "visible": true,
     "x": 96,
     "y": 544,
     "width": 16,
     "height": 16,
     "rotation": 0
    },
    {
     "id": 131,
     "name": "",
     "type": "",
     "visible": true,
     "x": 80,
     "y": 560,
     "width": 32,
     "height": 32,
     "rotation": 0
    },
    {
     "id": 132,
     "name": "",
     "type": "",
     "visible": true,
     "x": 496,
     "y": 512,
     "width": 16,
     "height": 16,
     "rotation": 0
    },
    {
     "id": 133,
     "name": "",
     "type": "",
     "visible": true,
     "x": 512,
     "y": 512,
     "width": 16,
     "height": 16,
     "rotation": 0
    },
    {
     "id": 134,
     "name": "",
     "type": "",
     "visible": true,
     "x": 352,
     "y": 560,
     "width": 48,
     "height": 32,
     "rotation": 0
    },
    {
     "id": 135,
     "name": "",
     "type": "",
     "visible": true,
     "x": 624,
     "y": 512,
     "width": 32,
     "height": 32,
     "rotation": 0
    },
    {
     "id": 136,
     "name": "",
     "type": "",
     "visible": true,
     "x": 720,
     "y": 512,
     "width": 32,
     "height": 32,
     "rotation": 0
    },
    {
     "id": 137,
     "name": "",
     "type": "",
     "visible": true,
     "x": 816,
     "y": 512,
     "width": 32,
     "height": 32,
     "rotation": 0
    },
    {
     "id": 138,
     "name": "",
     "type": "",
     "visible": true,
     "x": 896,
     "y": 512,
     "width": 16,
     "height": 16,
     "rotation": 0
    },
    {
     "id": 139,
     "name": "",
     "type": "",
     "visible": true,
     "x": 912,
     "y": 512,
     "width": 16,
     "height": 16,
     "rotation": 0
    },
    {
     "id": 140,
     "name": "wall-top",
     "type": "",
     "visible": true,
     "x": 0,
     "y": 0,
     "width": 960,
     "height": 32,
     "rotation": 0
    },
    {
     "id": 141,
     "name": "wall-bottom",
     "type": "",
     "visible": true,
     "x": 0,
     "y": 624,
     "width": 960,
     "height": 16,
     "rotation": 0
    },
    {
     "id": 142,
     "name": "wall-left",
     "type": "",
     "visible": true,
     "x": 0,
     "y": 0,
     "width": 16,
     "height": 640,
     "rotation": 0
    },
    {
     "id": 143,
     "name": "wall-right",
     "type": "",
     "visible": true,
     "x": 944,
     "y": 0,
     "width": 16,
     "height": 640,
     "rotation": 0
    },
    {
     "id": 144,
     "name": "divider",
     "type": "",
     "visible": true,
     "x": 16,
     "y": 480,
     "width": 144,
     "height": 16,
     "rotation": 0
    },
    {
     "id": 145,
     "name": "divider",
     "type": "",
     "visible": true,
     "x": 192,
     "y": 480,
     "width": 224,
     "height": 16,
     "rotation": 0
    },
    {
     "id": 146,
     "name": "divider",
     "type": "",
     "visible": true,
     "x": 448,
     "y": 480,
     "width": 272,
     "height": 16,
     "rotation": 0
    },
    {
     "id": 147,
     "name": "divider",
     "type": "",
     "visible": true,
     "x": 752,
     "y": 480,
     "width": 192,
     "height": 16,
     "rotation": 0
    }
   ],
   "opacity": 1,
   "type": "objectgroup",
   "visible": true,
   "x": 0,
   "y": 0
  },
  {
   "draworder": "topdown",
   "id": 6,
   "name": "Objects",
   "objects": [
    {
     "id": 63,
     "name": "team-workstation",
     "type": "workstation",
     "class": "workstation",
     "visible": true,
     "x": 640,
     "y": 192,
     "width": 224,
     "height": 144,
     "rotation": 0,
     "properties": [
      {
       "name": "capacity",
       "type": "int",
       "value": 6
      },
      {
       "name": "seats",
       "type": "string",
       "value": "team-seat-1,team-seat-2,team-seat-3,team-seat-4,team-seat-5,team-seat-6"
      }
     ]
    },
    {
     "id": 64,
     "name": "team-seat-1",
     "type": "seat",
     "class": "seat",
     "visible": true,
     "x": 672,
     "y": 224,
     "width": 16,
     "height": 16,
     "rotation": 0,
     "properties": [
      {
       "name": "facing",
       "type": "string",
       "value": "up"
      },
      {
       "name": "seatType",
       "type": "string",
       "value": "deskchair"
      }
     ]
    },
    {
     "id": 65,
     "name": "team-seat-2",
     "type": "seat",
     "class": "seat",
     "visible": true,
     "x": 736,
     "y": 224,
     "width": 16,
     "height": 16,
     "rotation": 0,
     "properties": [
      {
       "name": "facing",
       "type": "string",
       "value": "up"
      },
      {
       "name": "seatType",
       "type": "string",
       "value": "deskchair"
      }
     ]
    },
    {
     "id": 66,
     "name": "team-seat-3",
     "type": "seat",
     "class": "seat",
     "visible": true,
     "x": 800,
     "y": 224,
     "width": 16,
     "height": 16,
     "rotation": 0,
     "properties": [
      {
       "name": "facing",
       "type": "string",
       "value": "up"
      },
      {
       "name": "seatType",
       "type": "string",
       "value": "deskchair"
      }
     ]
    },
    {
     "id": 67,
     "name": "team-seat-4",
     "type": "seat",
     "class": "seat",
     "visible": true,
     "x": 672,
     "y": 304,
     "width": 16,
     "height": 16,
     "rotation": 0,
     "properties": [
      {
       "name": "facing",
       "type": "string",
       "value": "up"
      },
      {
       "name": "seatType",
       "type": "string",
       "value": "deskchair"
      }
     ]
    },
    {
     "id": 68,
     "name": "team-seat-5",
     "type": "seat",
     "class": "seat",
     "visible": true,
     "x": 736,
     "y": 304,
     "width": 16,
     "height": 16,
     "rotation": 0,
     "properties": [
      {
       "name": "facing",
       "type": "string",
       "value": "up"
      },
      {
       "name": "seatType",
       "type": "string",
       "value": "deskchair"
      }
     ]
    },
    {
     "id": 69,
     "name": "team-seat-6",
     "type": "seat",
     "class": "seat",
     "visible": true,
     "x": 800,
     "y": 304,
     "width": 16,
     "height": 16,
     "rotation": 0,
     "properties": [
      {
       "name": "facing",
       "type": "string",
       "value": "up"
      },
      {
       "name": "seatType",
       "type": "string",
       "value": "deskchair"
      }
     ]
    }
   ],
   "opacity": 1,
   "type": "objectgroup",
   "visible": true,
   "x": 0,
   "y": 0
  },
  {
   "draworder": "topdown",
   "id": 7,
   "name": "InteractionZones",
   "objects": [
    {
     "id": 149,
     "name": "team-pod",
     "type": "interaction-zone",
     "visible": true,
     "x": 640,
     "y": 192,
     "width": 224,
     "height": 144,
     "rotation": 0,
     "properties": [
      {
       "name": "kind",
       "type": "string",
       "value": "audio-private"
      },
      {
       "name": "id",
       "type": "string",
       "value": "team-pod"
      }
     ]
    },
    {
     "id": 150,
     "name": "left-lounge",
     "type": "interaction-zone",
     "visible": true,
     "x": 192,
     "y": 176,
     "width": 256,
     "height": 208,
     "rotation": 0,
     "properties": [
      {
       "name": "kind",
       "type": "string",
       "value": "trigger"
      },
      {
       "name": "id",
       "type": "string",
       "value": "left-lounge"
      }
     ]
    },
    {
     "id": 151,
     "name": "br-workspace",
     "type": "interaction-zone",
     "visible": true,
     "x": 592,
     "y": 496,
     "width": 352,
     "height": 128,
     "rotation": 0,
     "properties": [
      {
       "name": "kind",
       "type": "string",
       "value": "audio-private"
      },
      {
       "name": "id",
       "type": "string",
       "value": "br-workspace"
      }
     ]
    }
   ],
   "opacity": 1,
   "type": "objectgroup",
   "visible": true,
   "x": 0,
   "y": 0
  },
  {
   "draworder": "topdown",
   "id": 8,
   "name": "SpawnPoints",
   "objects": [
    {
     "id": 148,
     "name": "player_spawn",
     "type": "spawn",
     "visible": true,
     "x": 480,
     "y": 416,
     "width": 16,
     "height": 16,
     "rotation": 0,
     "point": true,
     "properties": [
      {
       "name": "id",
       "type": "string",
       "value": "player_spawn"
      },
      {
       "name": "default",
       "type": "bool",
       "value": true
      }
     ]
    }
   ],
   "opacity": 1,
   "type": "objectgroup",
   "visible": true,
   "x": 0,
   "y": 0
  }
 ]
}