{"compressionlevel": -1, "height": 66, "width": 84, "infinite": false, "nextlayerid": 12, "nextobjectid": 450, "orientation": "orthogonal", "renderorder": "right-down", "tiledversion": "1.10.2", "tileheight": 16, "tilewidth": 16, "type": "map", "version": "1.10", "layers": [{"id": 1, "name": "Ground", "type": "tilelayer", "opacity": 1, "visible": true, "x": 0, "y": 0, "width": 84, "height": 66, "data": [91, 91, 91, 98, 91, 80, 78, 91, 91, 91, 91, 91, 91, 91, 91, 91, 91, 91, 91, 91, 91, 91, 91, 91, 91, 91, 91, 91, 91, 91, 91, 91, 91, 91, 91, 91, 91, 91, 91, 91, 91, 91, 91, 91, 91, 91, 91, 91, 91, 91, 91, 91, 91, 91, 91, 91, 91, 91, 91, 91, 91, 91, 91, 91, 91, 91, 91, 91, 91, 91, 91, 91, 91, 91, 91, 91, 91, 91, 91, 91, 91, 91, 91, 91, 91, 80, 98, 91, 79, 91, 91, 91, 91, 91, 91, 91, 91, 91, 91, 91, 91, 91, 91, 91, 91, 91, 91, 91, 91, 91, 91, 91, 91, 91, 91, 91, 91, 91, 91, 91, 91, 91, 91, 91, 91, 91, 91, 91, 91, 91, 91, 91, 91, 91, 91, 91, 91, 91, 91, 91, 91, 91, 91, 91, 91, 91, 91, 91, 91, 91, 91, 91, 91, 91, 91, 91, 91, 91, 91, 91, 91, 91, 91, 91, 91, 91, 91, 91, 91, 98, 91, 91, 98, 79, 91, 91, 1943, 1943, 1943, 1943, 1943, 1943, 1943, 1943, 1943, 1943, 1943, 1943, 1943, 1943, 1943, 1943, 1943, 1943, 91, 2051, 2051, 2051, 2051, 2051, 2051, 2051, 2051, 2051, 2051, 2051, 2051, 2051, 2051, 2051, 2051, 2051, 2051, 91, 2776, 2776, 2776, 2776, 2776, 2776, 2776, 2776, 2776, 2776, 2776, 2776, 2776, 2776, 2776, 2776, 2776, 2776, 91, 2531, 2531, 2531, 2531, 2531, 2531, 2531, 2531, 2531, 2531, 2531, 2531, 2531, 2531, 2531, 2531, 2531, 91, 91, 91, 91, 91, 98, 79, 91, 91, 91, 1943, 1943, 1943, 1943, 1943, 1943, 1943, 1943, 1943, 1943, 1943, 1943, 1943, 1943, 1943, 1943, 1943, 1943, 91, 2051, 2051, 2051, 2051, 2051, 2051, 2051, 2051, 2051, 2051, 2051, 2051, 2051, 2051, 2051, 2051, 2051, 2051, 91, 2776, 2776, 2776, 2776, 2776, 2776, 2776, 2776, 2776, 2776, 2776, 2776, 2776, 2776, 2776, 2776, 2776, 2776, 91, 2531, 2531, 2531, 2531, 2531, 2531, 2531, 2531, 2531, 2531, 2531, 2531, 2531, 2531, 2531, 2531, 2531, 91, 91, 79, 91, 91, 78, 78, 91, 91, 91, 1943, 1943, 1943, 1943, 1943, 1943, 1943, 1943, 1943, 1943, 1943, 1943, 1943, 1943, 1943, 1943, 1943, 1943, 91, 2051, 2051, 2051, 2051, 2051, 2051, 2051, 2051, 2051, 2051, 2051, 2051, 2051, 2051, 2051, 2051, 2051, 2051, 91, 2776, 2776, 2776, 2776, 2776, 2776, 2776, 2776, 2776, 2776, 2776, 2776, 2776, 2776, 2776, 2776, 2776, 2776, 91, 2531, 2531, 2531, 2531, 2531, 2531, 2531, 2531, 2531, 2531, 2531, 2531, 2531, 2531, 2531, 2531, 2531, 91, 91, 80, 91, 98, 91, 80, 98, 79, 91, 1943, 1943, 1943, 1943, 1943, 1943, 1943, 1943, 1943, 1943, 1943, 1943, 1943, 1943, 1943, 1943, 1943, 1943, 91, 2051, 2051, 2051, 2051, 2051, 2051, 2051, 2051, 2051, 2051, 2051, 2051, 2051, 2051, 2051, 2051, 2051, 2051, 91, 2776, 2776, 2776, 2776, 2776, 2776, 2776, 2776, 2776, 2776, 2776, 2776, 2776, 2776, 2776, 2776, 2776, 2776, 91, 2531, 2531, 2531, 2531, 2531, 2531, 2531, 2531, 2531, 2531, 2531, 2531, 2531, 2531, 2531, 2531, 2531, 91, 91, 91, 80, 78, 91, 78, 91, 91, 91, 1943, 1943, 1943, 1943, 1943, 1943, 1943, 1943, 1943, 1943, 1943, 1943, 1943, 1943, 1943, 1943, 1943, 1943, 91, 2051, 2051, 2051, 2051, 2051, 2051, 2051, 2051, 2051, 2051, 2051, 2051, 2051, 2051, 2051, 2051, 2051, 2051, 91, 2776, 2776, 2776, 2776, 2776, 2776, 2776, 2776, 2776, 2776, 2776, 2776, 2776, 2776, 2776, 2776, 2776, 2776, 91, 2531, 2531, 2531, 2531, 2531, 2531, 2531, 2531, 2531, 2531, 2531, 2531, 2531, 2531, 2531, 2531, 2531, 91, 91, 91, 91, 91, 91, 80, 91, 91, 91, 1943, 1943, 1943, 1943, 1943, 1943, 1943, 1943, 1943, 1943, 1943, 1943, 1943, 1943, 1943, 1943, 1943, 1943, 91, 2051, 2051, 2051, 2051, 2051, 2051, 2051, 2051, 2051, 2051, 2051, 2051, 2051, 2051, 2051, 2051, 2051, 2051, 91, 2776, 2776, 2776, 2776, 2776, 2776, 2776, 2776, 2776, 2776, 2776, 2776, 2776, 2776, 2776, 2776, 2776, 2776, 91, 2531, 2531, 2531, 2531, 2531, 2531, 2531, 2531, 2531, 2531, 2531, 2531, 2531, 2531, 2531, 2531, 2531, 91, 91, 1997, 1997, 1997, 1997, 1997, 1997, 1997, 1997, 1943, 1943, 1943, 1943, 1943, 1943, 1943, 1943, 1943, 1943, 1943, 1943, 1943, 1943, 1943, 1943, 1943, 1943, 91, 2051, 2051, 2051, 2051, 2051, 2051, 2051, 2051, 2051, 2051, 2051, 2051, 2051, 2051, 2051, 2051, 2051, 2051, 91, 2776, 2776, 2776, 2776, 2776, 2776, 2776, 2776, 2776, 2776, 2776, 2776, 2776, 2776, 2776, 2776, 2776, 2776, 91, 2531, 2531, 2531, 2531, 2531, 2531, 2531, 2531, 2531, 2531, 2531, 2531, 2531, 2531, 2531, 2531, 2531, 91, 91, 1997, 1997, 1997, 1997, 1997, 1997, 1997, 1997, 1943, 1943, 1943, 2531, 2531, 2531, 2531, 2531, 2531, 2531, 2531, 2531, 2531, 2531, 2531, 1943, 1943, 1943, 91, 2051, 2051, 2051, 2051, 2051, 2051, 2051, 2051, 2051, 2051, 2051, 2051, 2051, 2051, 2051, 2051, 2051, 2051, 91, 2776, 2776, 2776, 2776, 2776, 2776, 2776, 2776, 2776, 2776, 2776, 2776, 2776, 2776, 2776, 2776, 2776, 2776, 91, 2531, 2531, 2531, 2531, 2531, 2531, 2531, 2531, 2531, 2531, 2531, 2531, 2531, 2531, 2531, 2531, 2531, 91, 91, 1997, 1997, 1997, 1997, 1997, 1997, 1997, 1997, 1943, 1943, 1943, 2531, 2531, 2531, 2531, 2531, 2531, 2531, 2531, 2531, 2531, 2531, 2531, 1943, 1943, 1943, 91, 2051, 2051, 2051, 2051, 2051, 2051, 2051, 2051, 2051, 2051, 2051, 2051, 2051, 2051, 2051, 2051, 2051, 2051, 91, 2776, 2776, 2776, 2776, 2776, 2776, 2776, 2776, 2776, 2776, 2776, 2776, 2776, 2776, 2776, 2776, 2776, 2776, 91, 2531, 2531, 2531, 2531, 2531, 2531, 2531, 2531, 2531, 2531, 2531, 2531, 2531, 2531, 2531, 2531, 2531, 91, 91, 1997, 1997, 1997, 1997, 1997, 1997, 1997, 1997, 1943, 1943, 1943, 2531, 2531, 2531, 2531, 2531, 2531, 2531, 2531, 2531, 2531, 2531, 2531, 1943, 1943, 1943, 91, 2051, 2051, 2051, 2051, 2051, 2051, 2051, 2051, 2051, 2051, 2051, 2051, 2051, 2051, 2051, 2051, 2051, 2051, 91, 2776, 2776, 2776, 2776, 2776, 2776, 2776, 2776, 2776, 2776, 2776, 2776, 2776, 2776, 2776, 2776, 2776, 2776, 91, 2531, 2531, 2531, 2531, 2531, 2531, 2531, 2531, 2531, 2531, 2531, 2531, 2531, 2531, 2531, 2531, 2531, 91, 91, 91, 98, 91, 98, 80, 98, 79, 91, 1943, 1943, 1943, 2531, 2531, 2531, 2531, 2531, 2531, 2531, 2531, 2531, 2531, 2531, 2531, 1943, 1943, 1943, 91, 2051, 2051, 2051, 2051, 2051, 2051, 2051, 2051, 2051, 2051, 2051, 2051, 2051, 2051, 2051, 2051, 2051, 2051, 91, 2776, 2776, 2776, 2776, 2776, 2776, 2776, 2776, 2776, 2776, 2776, 2776, 2776, 2776, 2776, 2776, 2776, 2776, 91, 2531, 2531, 2531, 2531, 2531, 2531, 2531, 2531, 2531, 2531, 2531, 2531, 2531, 2531, 2531, 2531, 2531, 91, 91, 98, 91, 91, 98, 78, 91, 91, 91, 1943, 1943, 1943, 2531, 2531, 2531, 2531, 2531, 2531, 2531, 2531, 2531, 2531, 2531, 2531, 1943, 1943, 1943, 91, 2051, 2051, 2051, 2051, 2051, 2051, 2051, 2051, 2051, 2051, 2051, 2051, 2051, 2051, 2051, 2051, 2051, 2051, 91, 2776, 2776, 2776, 2776, 2776, 2776, 2776, 2776, 2776, 2776, 2776, 2776, 2776, 2776, 2776, 2776, 2776, 2776, 91, 2531, 2531, 2531, 2531, 2531, 2531, 2531, 2531, 2531, 2531, 2531, 2531, 2531, 2531, 2531, 2531, 2531, 91, 91, 91, 91, 78, 79, 91, 80, 91, 91, 1943, 1943, 1943, 2531, 2531, 2531, 2531, 2531, 2531, 2531, 2531, 2531, 2531, 2531, 2531, 1943, 1943, 1943, 91, 2051, 2051, 2051, 2051, 2051, 2051, 2051, 2051, 2051, 2051, 2051, 2051, 2051, 2051, 2051, 2051, 2051, 2051, 91, 2776, 2776, 2776, 2776, 2776, 2776, 2776, 2776, 2776, 2776, 2776, 2776, 2776, 2776, 2776, 2776, 2776, 2776, 91, 2531, 2531, 2531, 2531, 2531, 2531, 2531, 2531, 2531, 2531, 2531, 2531, 2531, 2531, 2531, 2531, 2531, 91, 91, 78, 91, 91, 79, 80, 80, 80, 91, 1943, 1943, 1943, 2531, 2531, 2531, 2531, 2531, 2531, 2531, 2531, 2531, 2531, 2531, 2531, 1943, 1943, 1943, 91, 2051, 2051, 2051, 2051, 2051, 2051, 2051, 2051, 2051, 2051, 2051, 2051, 2051, 2051, 2051, 2051, 2051, 2051, 91, 2776, 2776, 2776, 2776, 2776, 2776, 2776, 2776, 2776, 2776, 2776, 2776, 2776, 2776, 2776, 2776, 2776, 2776, 91, 2531, 2531, 2531, 2531, 2531, 2531, 2531, 2531, 2531, 2531, 2531, 2531, 2531, 2531, 2531, 2531, 2531, 91, 91, 91, 91, 98, 91, 91, 78, 91, 91, 1943, 1943, 1943, 1943, 1943, 1943, 1943, 1943, 1943, 1943, 1943, 1943, 1943, 1943, 1943, 1943, 1943, 1943, 91, 2051, 2051, 2051, 2051, 2051, 2051, 2051, 2051, 2051, 2051, 2051, 2051, 2051, 2051, 2051, 2051, 2051, 2051, 91, 2776, 2776, 2776, 2776, 2776, 2776, 2776, 2776, 2776, 2776, 2776, 2776, 2776, 2776, 2776, 2776, 2776, 2776, 91, 2531, 2531, 2531, 2531, 2531, 2531, 2531, 2531, 2531, 2531, 2531, 2531, 2531, 2531, 2531, 2531, 2531, 91, 91, 91, 80, 79, 98, 91, 91, 78, 91, 1943, 1943, 1943, 1943, 1943, 1943, 1943, 1943, 1943, 1943, 1943, 1943, 1943, 1943, 1943, 1943, 1943, 1943, 91, 2051, 2051, 2051, 2051, 2051, 2051, 2051, 2051, 2051, 2051, 2051, 2051, 2051, 2051, 2051, 2051, 2051, 2051, 91, 2776, 2776, 2776, 2776, 2776, 2776, 2776, 2776, 2776, 2776, 2776, 2776, 2776, 2776, 2776, 2776, 2776, 2776, 91, 2531, 2531, 2531, 2531, 2531, 2531, 2531, 2531, 2531, 2531, 2531, 2531, 2531, 2531, 2531, 2531, 2531, 91, 91, 91, 91, 79, 91, 91, 91, 98, 91, 91, 91, 91, 91, 91, 91, 91, 91, 91, 91, 91, 91, 1997, 1997, 1997, 1997, 91, 91, 91, 91, 91, 91, 91, 91, 91, 91, 1997, 1997, 1997, 1997, 91, 91, 91, 91, 91, 91, 91, 91, 91, 91, 91, 91, 91, 91, 91, 1997, 1997, 1997, 1997, 91, 91, 91, 91, 91, 91, 91, 91, 91, 91, 91, 91, 91, 91, 1997, 1997, 1997, 1997, 91, 91, 91, 91, 91, 91, 91, 91, 91, 91, 78, 98, 80, 91, 79, 79, 91, 1997, 1997, 1997, 1997, 1997, 1997, 1997, 1997, 1997, 1997, 1997, 1997, 1997, 1997, 1997, 1997, 1997, 1997, 1997, 1997, 1997, 1997, 1997, 1997, 1997, 1997, 1997, 1997, 1997, 1997, 1997, 1997, 1997, 1997, 1997, 1997, 1997, 1997, 1997, 1997, 1997, 1997, 1997, 1997, 1997, 1997, 1997, 1997, 1997, 1997, 1997, 1997, 1997, 1997, 1997, 1997, 1997, 1997, 1997, 1997, 1997, 1997, 1997, 1997, 1997, 1997, 1997, 1997, 1997, 1997, 1997, 1997, 1997, 1997, 91, 91, 91, 91, 91, 80, 91, 80, 79, 91, 1997, 1997, 1997, 1997, 1997, 1997, 1997, 1997, 1997, 1997, 1997, 1997, 1997, 1997, 1997, 1997, 1997, 1997, 1997, 1997, 1997, 1997, 1997, 1997, 1997, 1997, 1997, 1997, 1997, 1997, 1997, 1997, 1997, 1997, 1997, 1997, 1997, 1997, 1997, 1997, 1997, 1997, 1997, 1997, 1997, 1997, 1997, 1997, 1997, 1997, 1997, 1997, 1997, 1997, 1997, 1997, 1997, 1997, 1997, 1997, 1997, 1997, 1997, 1997, 1997, 1997, 1997, 1997, 1997, 1997, 1997, 1997, 1997, 1997, 91, 91, 98, 98, 98, 80, 91, 91, 91, 91, 1997, 1997, 1997, 1997, 1997, 1997, 1997, 1997, 1997, 1997, 1997, 1997, 1997, 1997, 1997, 1997, 1997, 1997, 1997, 1997, 1997, 1997, 1997, 1997, 1997, 1997, 1997, 1997, 1997, 1997, 1997, 1997, 1997, 1997, 1997, 1997, 1997, 1997, 1997, 1997, 1997, 1997, 1997, 1997, 1997, 1997, 1997, 1997, 1997, 1997, 1997, 1997, 1997, 1997, 1997, 1997, 1997, 1997, 1997, 1997, 1997, 1997, 1997, 1997, 1997, 1997, 1997, 1997, 1997, 1997, 1997, 1997, 1997, 1997, 91, 91, 79, 91, 91, 91, 98, 91, 91, 91, 1997, 1997, 1997, 1997, 1997, 1997, 1997, 1997, 1997, 1997, 1997, 1997, 1997, 1997, 1997, 1997, 1997, 1997, 1997, 1997, 1997, 1997, 1997, 1997, 1997, 1997, 1997, 1997, 1997, 1997, 1997, 1997, 1997, 1997, 1997, 1997, 1997, 1997, 1997, 1997, 1997, 1997, 1997, 1997, 1997, 1997, 1997, 1997, 1997, 1997, 1997, 1997, 1997, 1997, 1997, 1997, 1997, 1997, 1997, 1997, 1997, 1997, 1997, 1997, 1997, 1997, 1997, 1997, 1997, 1997, 1997, 1997, 1997, 1997, 91, 91, 91, 98, 91, 91, 80, 98, 80, 91, 1997, 1997, 1997, 1997, 1997, 1997, 1997, 1997, 1997, 1997, 1997, 1997, 1997, 1997, 1997, 1997, 1997, 1997, 1997, 1997, 1997, 1997, 1997, 1997, 1997, 1997, 1997, 1997, 1997, 1997, 1997, 1997, 1997, 1997, 1997, 1997, 1997, 1997, 1997, 1997, 1997, 1997, 1997, 1997, 1997, 1997, 1997, 1997, 1997, 1997, 1997, 1997, 1997, 1997, 1997, 1997, 1997, 1997, 1997, 1997, 1997, 1997, 1997, 1997, 1997, 1997, 1997, 1997, 1997, 1997, 1997, 1997, 1997, 1997, 91, 91, 80, 78, 91, 91, 98, 91, 91, 91, 91, 91, 91, 91, 91, 91, 91, 1997, 1997, 1997, 1997, 91, 91, 91, 91, 91, 91, 91, 91, 91, 91, 91, 91, 91, 91, 91, 91, 91, 91, 91, 1997, 1997, 1997, 1997, 1997, 1997, 1997, 1997, 1997, 91, 91, 91, 91, 91, 91, 91, 91, 91, 91, 91, 91, 91, 91, 91, 91, 91, 91, 91, 91, 91, 1997, 1997, 1997, 1997, 91, 91, 91, 91, 91, 91, 91, 91, 91, 91, 91, 91, 79, 78, 91, 91, 91, 80, 91, 91, 2051, 2051, 2051, 2051, 2051, 2051, 2051, 2051, 2051, 2051, 2051, 2051, 2051, 2051, 2051, 2051, 2051, 2051, 91, 2535, 2535, 2535, 2535, 2535, 2535, 2535, 2535, 2535, 2535, 2535, 2535, 2535, 2535, 2535, 2535, 2535, 2535, 2535, 2535, 2535, 2535, 2535, 2535, 2535, 2535, 2535, 2535, 2535, 2535, 2535, 91, 2051, 2051, 2051, 2051, 2051, 2051, 2051, 2051, 2051, 2051, 2051, 2051, 2051, 2051, 2051, 2051, 2051, 2051, 2051, 2051, 2051, 2051, 2051, 91, 91, 98, 98, 91, 91, 91, 91, 91, 91, 2051, 2051, 2051, 2051, 2051, 2051, 2051, 2051, 2051, 2051, 2051, 2051, 2051, 2051, 2051, 2051, 2051, 2051, 91, 2535, 2535, 2535, 2535, 2535, 2535, 2535, 2535, 2535, 2535, 2535, 2535, 2535, 2535, 2535, 2535, 2535, 2535, 2535, 2535, 2535, 2535, 2535, 2535, 2535, 2535, 2535, 2535, 2535, 2535, 2535, 91, 2051, 2051, 2051, 2051, 2051, 2051, 2051, 2051, 2051, 2051, 2051, 2051, 2051, 2051, 2051, 2051, 2051, 2051, 2051, 2051, 2051, 2051, 2051, 91, 91, 98, 80, 91, 91, 91, 91, 80, 91, 2051, 2051, 2051, 2051, 2051, 2051, 2051, 2051, 2051, 2051, 2051, 2051, 2051, 2051, 2051, 2051, 2051, 2051, 91, 2535, 2535, 2535, 2535, 2535, 2535, 2535, 2535, 2535, 2535, 2535, 2535, 2535, 2535, 2535, 2535, 2535, 2535, 2535, 2535, 2535, 2535, 2535, 2535, 2535, 2535, 2535, 2535, 2535, 2535, 2535, 91, 2051, 2051, 2051, 2051, 2051, 2051, 2051, 2051, 2051, 2051, 2051, 2051, 2051, 2051, 2051, 2051, 2051, 2051, 2051, 2051, 2051, 2051, 2051, 91, 91, 79, 91, 91, 98, 91, 91, 80, 91, 2051, 2051, 2051, 2051, 2051, 2051, 2051, 2051, 2051, 2051, 2051, 2051, 2051, 2051, 2051, 2051, 2051, 2051, 91, 2535, 2535, 2535, 2539, 2539, 2539, 2539, 2539, 2539, 2539, 2539, 2539, 2539, 2539, 2539, 2539, 2539, 2539, 2539, 2539, 2539, 2539, 2539, 2539, 2539, 2539, 2539, 2539, 2535, 2535, 2535, 91, 2051, 2051, 2051, 2051, 2051, 2051, 2051, 2051, 2051, 2051, 2051, 2051, 2051, 2051, 2051, 2051, 2051, 2051, 2051, 2051, 2051, 2051, 2051, 91, 91, 98, 80, 79, 91, 79, 91, 91, 91, 2051, 2051, 2051, 2051, 2051, 2051, 2051, 2051, 2051, 2051, 2051, 2051, 2051, 2051, 2051, 2051, 2051, 2051, 91, 2535, 2535, 2535, 2539, 2539, 2539, 2539, 2539, 2539, 2539, 2539, 2539, 2539, 2539, 2539, 2539, 2539, 2539, 2539, 2539, 2539, 2539, 2539, 2539, 2539, 2539, 2539, 2539, 2535, 2535, 2535, 91, 2051, 2051, 2051, 2051, 2051, 2051, 2051, 2051, 2051, 2051, 2051, 2051, 2051, 2051, 2051, 2051, 2051, 2051, 2051, 2051, 2051, 2051, 2051, 91, 91, 91, 78, 91, 79, 79, 91, 91, 91, 2051, 2051, 2051, 2051, 2051, 2051, 2051, 2051, 2051, 2051, 2051, 2051, 2051, 2051, 2051, 2051, 2051, 2051, 1997, 2535, 2535, 2535, 2539, 2539, 2539, 2539, 2539, 2539, 2539, 2539, 2539, 2539, 2539, 2539, 2539, 2539, 2539, 2539, 2539, 2539, 2539, 2539, 2539, 2539, 2539, 2539, 2539, 2535, 2535, 2535, 1997, 2051, 2051, 2051, 2051, 2051, 2051, 2051, 2051, 2051, 2051, 2051, 2051, 2051, 2051, 2051, 2051, 2051, 2051, 2051, 2051, 2051, 2051, 2051, 91, 91, 98, 78, 91, 98, 91, 91, 98, 91, 2051, 2051, 2051, 2051, 2051, 2051, 2051, 2051, 2051, 2051, 2051, 2051, 2051, 2051, 2051, 2051, 2051, 2051, 1997, 2535, 2535, 2535, 2539, 2539, 2539, 2539, 2539, 2539, 2539, 2539, 2539, 2539, 2539, 2539, 2539, 2539, 2539, 2539, 2539, 2539, 2539, 2539, 2539, 2539, 2539, 2539, 2539, 2535, 2535, 2535, 1997, 2051, 2051, 2051, 2051, 2051, 2051, 2051, 2051, 2051, 2051, 2051, 2051, 2051, 2051, 2051, 2051, 2051, 2051, 2051, 2051, 2051, 2051, 2051, 91, 91, 91, 91, 91, 78, 91, 91, 91, 91, 2051, 2051, 2051, 2051, 2051, 2051, 2051, 2051, 2051, 2051, 2051, 2051, 2051, 2051, 2051, 2051, 2051, 2051, 1997, 2535, 2535, 2535, 2539, 2539, 2539, 2539, 2539, 2539, 2539, 2539, 2539, 2539, 2539, 2539, 2539, 2539, 2539, 2539, 2539, 2539, 2539, 2539, 2539, 2539, 2539, 2539, 2539, 2535, 2535, 2535, 1997, 2051, 2051, 2051, 2051, 2051, 2051, 2051, 2051, 2051, 2051, 2051, 2051, 2051, 2051, 2051, 2051, 2051, 2051, 2051, 2051, 2051, 2051, 2051, 91, 91, 79, 91, 91, 80, 80, 91, 91, 91, 2051, 2051, 2051, 2051, 2051, 2051, 2051, 2051, 2051, 2051, 2051, 2051, 2051, 2051, 2051, 2051, 2051, 2051, 1997, 2535, 2535, 2535, 2539, 2539, 2539, 2539, 2539, 2539, 2539, 2539, 2539, 2539, 2539, 2539, 2539, 2539, 2539, 2539, 2539, 2539, 2539, 2539, 2539, 2539, 2539, 2539, 2539, 2535, 2535, 2535, 1997, 2051, 2051, 2051, 2051, 2051, 2051, 2051, 2051, 2051, 2051, 2051, 2051, 2051, 2051, 2051, 2051, 2051, 2051, 2051, 2051, 2051, 2051, 2051, 91, 91, 79, 79, 78, 91, 91, 79, 91, 91, 2051, 2051, 2051, 2051, 2051, 2051, 2051, 2051, 2051, 2051, 2051, 2051, 2051, 2051, 2051, 2051, 2051, 2051, 1997, 2535, 2535, 2535, 2539, 2539, 2539, 2539, 2539, 2539, 2539, 2539, 2539, 2539, 2539, 2539, 2539, 2539, 2539, 2539, 2539, 2539, 2539, 2539, 2539, 2539, 2539, 2539, 2539, 2535, 2535, 2535, 1997, 2051, 2051, 2051, 2051, 2051, 2051, 2051, 2051, 2051, 2051, 2051, 2051, 2051, 2051, 2051, 2051, 2051, 2051, 2051, 2051, 2051, 2051, 2051, 91, 91, 91, 91, 91, 80, 91, 78, 80, 91, 2051, 2051, 2051, 2051, 2051, 2051, 2051, 2051, 2051, 2051, 2051, 2051, 2051, 2051, 2051, 2051, 2051, 2051, 91, 2535, 2535, 2535, 2539, 2539, 2539, 2539, 2539, 2539, 2539, 2539, 2539, 2539, 2539, 2539, 2539, 2539, 2539, 2539, 2539, 2539, 2539, 2539, 2539, 2539, 2539, 2539, 2539, 2535, 2535, 2535, 91, 2051, 2051, 2051, 2051, 2051, 2051, 2051, 2051, 2051, 2051, 2051, 2051, 2051, 2051, 2051, 2051, 2051, 2051, 2051, 2051, 2051, 2051, 2051, 91, 91, 79, 91, 80, 91, 91, 91, 91, 91, 2051, 2051, 2051, 2051, 2051, 2051, 2051, 2051, 2051, 2051, 2051, 2051, 2051, 2051, 2051, 2051, 2051, 2051, 91, 2535, 2535, 2535, 2539, 2539, 2539, 2539, 2539, 2539, 2539, 2539, 2539, 2539, 2539, 2539, 2539, 2539, 2539, 2539, 2539, 2539, 2539, 2539, 2539, 2539, 2539, 2539, 2539, 2535, 2535, 2535, 91, 2051, 2051, 2051, 2051, 2051, 2051, 2051, 2051, 2051, 2051, 2051, 2051, 2051, 2051, 2051, 2051, 2051, 2051, 2051, 2051, 2051, 2051, 2051, 91, 91, 91, 91, 91, 78, 91, 98, 80, 91, 2051, 2051, 2051, 2051, 2051, 2051, 2051, 2051, 2051, 2051, 2051, 2051, 2051, 2051, 2051, 2051, 2051, 2051, 91, 2535, 2535, 2535, 2539, 2539, 2539, 2539, 2539, 2539, 2539, 2539, 2539, 2539, 2539, 2539, 2539, 2539, 2539, 2539, 2539, 2539, 2539, 2539, 2539, 2539, 2539, 2539, 2539, 2535, 2535, 2535, 91, 2051, 2051, 2051, 2051, 2051, 2051, 2051, 2051, 2051, 2051, 2051, 2051, 2051, 2051, 2051, 2051, 2051, 2051, 2051, 2051, 2051, 2051, 2051, 91, 91, 91, 91, 79, 78, 91, 91, 91, 91, 2051, 2051, 2051, 2051, 2051, 2051, 2051, 2051, 2051, 2051, 2051, 2051, 2051, 2051, 2051, 2051, 2051, 2051, 91, 2535, 2535, 2535, 2539, 2539, 2539, 2539, 2539, 2539, 2539, 2539, 2539, 2539, 2539, 2539, 2539, 2539, 2539, 2539, 2539, 2539, 2539, 2539, 2539, 2539, 2539, 2539, 2539, 2535, 2535, 2535, 91, 2051, 2051, 2051, 2051, 2051, 2051, 2051, 2051, 2051, 2051, 2051, 2051, 2051, 2051, 2051, 2051, 2051, 2051, 2051, 2051, 2051, 2051, 2051, 91, 91, 79, 91, 91, 91, 91, 98, 91, 91, 2051, 2051, 2051, 2051, 2051, 2051, 2051, 2051, 2051, 2051, 2051, 2051, 2051, 2051, 2051, 2051, 2051, 2051, 91, 2535, 2535, 2535, 2535, 2535, 2535, 2535, 2535, 2535, 2535, 2535, 2535, 2535, 2535, 2535, 2535, 2535, 2535, 2535, 2535, 2535, 2535, 2535, 2535, 2535, 2535, 2535, 2535, 2535, 2535, 2535, 91, 2051, 2051, 2051, 2051, 2051, 2051, 2051, 2051, 2051, 2051, 2051, 2051, 2051, 2051, 2051, 2051, 2051, 2051, 2051, 2051, 2051, 2051, 2051, 91, 91, 91, 91, 78, 91, 98, 91, 91, 91, 2051, 2051, 2051, 2051, 2051, 2051, 2051, 2051, 2051, 2051, 2051, 2051, 2051, 2051, 2051, 2051, 2051, 2051, 91, 2535, 2535, 2535, 2535, 2535, 2535, 2535, 2535, 2535, 2535, 2535, 2535, 2535, 2535, 2535, 2535, 2535, 2535, 2535, 2535, 2535, 2535, 2535, 2535, 2535, 2535, 2535, 2535, 2535, 2535, 2535, 91, 2051, 2051, 2051, 2051, 2051, 2051, 2051, 2051, 2051, 2051, 2051, 2051, 2051, 2051, 2051, 2051, 2051, 2051, 2051, 2051, 2051, 2051, 2051, 91, 91, 91, 79, 79, 98, 91, 91, 91, 91, 91, 91, 91, 91, 91, 91, 91, 1997, 1997, 1997, 1997, 91, 91, 91, 91, 91, 91, 91, 91, 91, 91, 91, 91, 91, 91, 91, 91, 91, 91, 91, 1997, 1997, 1997, 1997, 1997, 1997, 1997, 1997, 1997, 91, 91, 91, 91, 91, 91, 91, 91, 91, 91, 91, 91, 91, 91, 91, 91, 91, 91, 91, 91, 91, 1997, 1997, 1997, 1997, 91, 91, 91, 91, 91, 91, 91, 91, 91, 91, 91, 91, 91, 91, 91, 91, 78, 91, 91, 91, 1997, 1997, 1997, 1997, 1997, 1997, 1997, 1997, 1997, 1997, 1997, 1997, 1997, 1997, 1997, 1997, 1997, 1997, 1997, 1997, 1997, 1997, 1997, 1997, 1997, 1997, 1997, 1997, 1997, 1997, 1997, 1997, 1997, 1997, 1997, 1997, 1997, 1997, 1997, 1997, 1997, 1997, 1997, 1997, 1997, 1997, 1997, 1997, 1997, 1997, 1997, 1997, 1997, 1997, 1997, 1997, 1997, 1997, 1997, 1997, 1997, 1997, 1997, 1997, 1997, 1997, 1997, 1997, 1997, 1997, 1997, 1997, 1997, 1997, 91, 91, 91, 79, 80, 80, 79, 91, 79, 91, 1997, 1997, 1997, 1997, 1997, 1997, 1997, 1997, 1997, 1997, 1997, 1997, 1997, 1997, 1997, 1997, 1997, 1997, 1997, 1997, 1997, 1997, 1997, 1997, 1997, 1997, 1997, 1997, 1997, 1997, 1997, 1997, 1997, 1997, 1997, 1997, 1997, 1997, 1997, 1997, 1997, 1997, 1997, 1997, 1997, 1997, 1997, 1997, 1997, 1997, 1997, 1997, 1997, 1997, 1997, 1997, 1997, 1997, 1997, 1997, 1997, 1997, 1997, 1997, 1997, 1997, 1997, 1997, 1997, 1997, 1997, 1997, 1997, 1997, 91, 91, 91, 91, 91, 91, 91, 78, 91, 91, 1997, 1997, 1997, 1997, 1997, 1997, 1997, 1997, 1997, 1997, 1997, 1997, 1997, 1997, 1997, 1997, 1997, 1997, 1997, 1997, 1997, 1997, 1997, 1997, 1997, 1997, 1997, 1997, 1997, 1997, 1997, 1997, 1997, 1997, 1997, 1997, 1997, 1997, 1997, 1997, 1997, 1997, 1997, 1997, 1997, 1997, 1997, 1997, 1997, 1997, 1997, 1997, 1997, 1997, 1997, 1997, 1997, 1997, 1997, 1997, 1997, 1997, 1997, 1997, 1997, 1997, 1997, 1997, 1997, 1997, 1997, 1997, 1997, 1997, 91, 91, 91, 91, 91, 91, 80, 78, 91, 91, 1997, 1997, 1997, 1997, 1997, 1997, 1997, 1997, 1997, 1997, 1997, 1997, 1997, 1997, 1997, 1997, 1997, 1997, 1997, 1997, 1997, 1997, 1997, 1997, 1997, 1997, 1997, 1997, 1997, 1997, 1997, 1997, 1997, 1997, 1997, 1997, 1997, 1997, 1997, 1997, 1997, 1997, 1997, 1997, 1997, 1997, 1997, 1997, 1997, 1997, 1997, 1997, 1997, 1997, 1997, 1997, 1997, 1997, 1997, 1997, 1997, 1997, 1997, 1997, 1997, 1997, 1997, 1997, 1997, 1997, 1997, 1997, 1997, 1997, 91, 91, 91, 91, 91, 91, 91, 91, 98, 91, 1997, 1997, 1997, 1997, 1997, 1997, 1997, 1997, 1997, 1997, 1997, 1997, 1997, 1997, 1997, 1997, 1997, 1997, 1997, 1997, 1997, 1997, 1997, 1997, 1997, 1997, 1997, 1997, 1997, 1997, 1997, 1997, 1997, 1997, 1997, 1997, 1997, 1997, 1997, 1997, 1997, 1997, 1997, 1997, 1997, 1997, 1997, 1997, 1997, 1997, 1997, 1997, 1997, 1997, 1997, 1997, 1997, 1997, 1997, 1997, 1997, 1997, 1997, 1997, 1997, 1997, 1997, 1997, 1997, 1997, 1997, 1997, 1997, 1997, 91, 91, 98, 98, 80, 98, 79, 98, 91, 91, 91, 91, 91, 91, 91, 91, 91, 1997, 1997, 1997, 1997, 91, 91, 91, 91, 91, 91, 91, 91, 91, 91, 91, 91, 91, 91, 91, 1997, 1997, 1997, 1997, 91, 91, 91, 91, 91, 91, 91, 91, 91, 91, 91, 91, 91, 91, 91, 1997, 1997, 1997, 1997, 91, 91, 91, 91, 91, 91, 91, 91, 91, 91, 91, 91, 91, 91, 1997, 1997, 1997, 1997, 91, 91, 91, 91, 91, 91, 91, 91, 91, 80, 91, 78, 91, 98, 98, 91, 91, 2531, 2531, 2531, 2531, 2531, 2531, 2531, 2531, 2531, 2531, 2531, 2531, 2531, 2531, 2531, 2531, 2531, 2531, 91, 2051, 2051, 2051, 2051, 2051, 2051, 2051, 2051, 2051, 2051, 2051, 2051, 2051, 2051, 2051, 2051, 2051, 2051, 91, 1943, 1943, 1943, 1943, 1943, 1943, 1943, 1943, 1943, 1943, 1943, 1943, 1943, 1943, 1943, 1943, 1943, 1943, 91, 91, 91, 91, 91, 91, 91, 91, 91, 91, 91, 91, 91, 91, 91, 91, 91, 91, 91, 91, 91, 98, 91, 78, 91, 91, 98, 91, 2531, 2531, 2531, 2531, 2531, 2531, 2531, 2531, 2531, 2531, 2531, 2531, 2531, 2531, 2531, 2531, 2531, 2531, 91, 2051, 2051, 2051, 2051, 2051, 2051, 2051, 2051, 2051, 2051, 2051, 2051, 2051, 2051, 2051, 2051, 2051, 2051, 91, 1943, 1943, 1943, 1943, 1943, 1943, 1943, 1943, 1943, 1943, 1943, 1943, 1943, 1943, 1943, 1943, 1943, 1943, 91, 91, 91, 91, 91, 91, 91, 91, 91, 91, 91, 91, 91, 91, 91, 91, 91, 91, 91, 91, 91, 79, 98, 80, 91, 91, 91, 91, 2531, 2531, 2531, 2531, 2531, 2531, 2531, 2531, 2531, 2531, 2531, 2531, 2531, 2531, 2531, 2531, 2531, 2531, 91, 2051, 2051, 2051, 2051, 2051, 2051, 2051, 2051, 2051, 2051, 2051, 2051, 2051, 2051, 2051, 2051, 2051, 2051, 91, 1943, 1943, 1943, 1943, 1943, 1943, 1943, 1943, 1943, 1943, 1943, 1943, 1943, 1943, 1943, 1943, 1943, 1943, 91, 91, 91, 91, 91, 91, 91, 91, 91, 91, 91, 91, 91, 91, 91, 91, 91, 91, 91, 91, 78, 78, 91, 91, 79, 91, 78, 91, 2531, 2531, 2531, 2531, 2531, 2531, 2531, 2531, 2531, 2531, 2531, 2531, 2531, 2531, 2531, 2531, 2531, 2531, 91, 2051, 2051, 2051, 2051, 2051, 2051, 2051, 2051, 2051, 2051, 2051, 2051, 2051, 2051, 2051, 2051, 2051, 2051, 91, 1943, 1943, 1943, 1943, 1943, 1943, 1943, 1943, 1943, 1943, 1943, 1943, 1943, 1943, 1943, 1943, 1943, 1943, 91, 91, 91, 91, 1997, 1997, 1997, 1997, 1997, 1997, 1997, 1997, 1997, 1997, 1997, 91, 91, 91, 91, 91, 91, 80, 91, 91, 91, 91, 91, 91, 2531, 2531, 2531, 2531, 2531, 2531, 2531, 2531, 2531, 2531, 2531, 2531, 2531, 2531, 2531, 2531, 2531, 2531, 91, 2051, 2051, 2051, 2051, 2051, 2051, 2051, 2051, 2051, 2051, 2051, 2051, 2051, 2051, 2051, 2051, 2051, 2051, 91, 1943, 1943, 1943, 2531, 2531, 2531, 2531, 2531, 2531, 2531, 2531, 2531, 2531, 2531, 2531, 1943, 1943, 1943, 91, 91, 91, 91, 1997, 1997, 1997, 1997, 1997, 1997, 1997, 1997, 1997, 1997, 1997, 91, 91, 91, 91, 91, 80, 91, 79, 79, 91, 80, 78, 91, 2531, 2531, 2531, 2531, 2531, 2531, 2531, 2531, 2531, 2531, 2531, 2531, 2531, 2531, 2531, 2531, 2531, 2531, 91, 2051, 2051, 2051, 2051, 2051, 2051, 2051, 2051, 2051, 2051, 2051, 2051, 2051, 2051, 2051, 2051, 2051, 2051, 91, 1943, 1943, 1943, 2531, 2531, 2531, 2531, 2531, 2531, 2531, 2531, 2531, 2531, 2531, 2531, 1943, 1943, 1943, 91, 91, 91, 91, 1997, 1997, 1997, 1997, 1997, 1997, 1997, 1997, 1997, 1997, 1997, 91, 91, 91, 91, 91, 91, 91, 91, 91, 91, 91, 91, 91, 2531, 2531, 2531, 2531, 2531, 2531, 2531, 2531, 2531, 2531, 2531, 2531, 2531, 2531, 2531, 2531, 2531, 2531, 91, 2051, 2051, 2051, 2051, 2051, 2051, 2051, 2051, 2051, 2051, 2051, 2051, 2051, 2051, 2051, 2051, 2051, 2051, 91, 1943, 1943, 1943, 2531, 2531, 2531, 2531, 2531, 2531, 2531, 2531, 2531, 2531, 2531, 2531, 1943, 1943, 1943, 91, 91, 91, 91, 1997, 1997, 1997, 1997, 1997, 1997, 1997, 1997, 1997, 1997, 1997, 91, 91, 91, 91, 91, 91, 91, 91, 91, 91, 78, 91, 91, 2531, 2531, 2531, 2531, 2531, 2531, 2531, 2531, 2531, 2531, 2531, 2531, 2531, 2531, 2531, 2531, 2531, 2531, 91, 2051, 2051, 2051, 2051, 2051, 2051, 2051, 2051, 2051, 2051, 2051, 2051, 2051, 2051, 2051, 2051, 2051, 2051, 91, 1943, 1943, 1943, 2531, 2531, 2531, 2531, 2531, 2531, 2531, 2531, 2531, 2531, 2531, 2531, 1943, 1943, 1943, 91, 91, 91, 91, 1997, 1997, 1997, 1997, 1997, 1997, 1997, 1997, 1997, 1997, 1997, 91, 91, 91, 91, 91, 91, 91, 78, 91, 91, 91, 91, 91, 2531, 2531, 2531, 2531, 2531, 2531, 2531, 2531, 2531, 2531, 2531, 2531, 2531, 2531, 2531, 2531, 2531, 2531, 91, 2051, 2051, 2051, 2051, 2051, 2051, 2051, 2051, 2051, 2051, 2051, 2051, 2051, 2051, 2051, 2051, 2051, 2051, 91, 1943, 1943, 1943, 2531, 2531, 2531, 2531, 2531, 2531, 2531, 2531, 2531, 2531, 2531, 2531, 1943, 1943, 1943, 91, 91, 91, 91, 1997, 1997, 1997, 1997, 1997, 1997, 1997, 1997, 1997, 1997, 1997, 91, 91, 91, 91, 91, 91, 91, 91, 91, 91, 79, 91, 91, 2531, 2531, 2531, 2531, 2531, 2531, 2531, 2531, 2531, 2531, 2531, 2531, 2531, 2531, 2531, 2531, 2531, 2531, 91, 2051, 2051, 2051, 2051, 2051, 2051, 2051, 2051, 2051, 2051, 2051, 2051, 2051, 2051, 2051, 2051, 2051, 2051, 91, 1943, 1943, 1943, 2531, 2531, 2531, 2531, 2531, 2531, 2531, 2531, 2531, 2531, 2531, 2531, 1943, 1943, 1943, 91, 91, 91, 91, 1997, 1997, 1997, 1997, 1997, 1997, 1997, 1997, 1997, 1997, 1997, 91, 91, 91, 91, 91, 91, 91, 91, 78, 80, 91, 91, 91, 2531, 2531, 2531, 2531, 2531, 2531, 2531, 2531, 2531, 2531, 2531, 2531, 2531, 2531, 2531, 2531, 2531, 2531, 91, 2051, 2051, 2051, 2051, 2051, 2051, 2051, 2051, 2051, 2051, 2051, 2051, 2051, 2051, 2051, 2051, 2051, 2051, 91, 1943, 1943, 1943, 2531, 2531, 2531, 2531, 2531, 2531, 2531, 2531, 2531, 2531, 2531, 2531, 1943, 1943, 1943, 91, 91, 91, 91, 1997, 1997, 1997, 1997, 1997, 1997, 1997, 1997, 1997, 1997, 1997, 91, 91, 91, 91, 91, 80, 98, 91, 80, 91, 91, 91, 91, 2531, 2531, 2531, 2531, 2531, 2531, 2531, 2531, 2531, 2531, 2531, 2531, 2531, 2531, 2531, 2531, 2531, 2531, 91, 2051, 2051, 2051, 2051, 2051, 2051, 2051, 2051, 2051, 2051, 2051, 2051, 2051, 2051, 2051, 2051, 2051, 2051, 91, 1943, 1943, 1943, 2531, 2531, 2531, 2531, 2531, 2531, 2531, 2531, 2531, 2531, 2531, 2531, 1943, 1943, 1943, 91, 91, 91, 91, 1997, 1997, 1997, 1997, 1997, 1997, 1997, 1997, 1997, 1997, 1997, 91, 91, 91, 91, 91, 79, 80, 91, 79, 91, 91, 79, 91, 2531, 2531, 2531, 2531, 2531, 2531, 2531, 2531, 2531, 2531, 2531, 2531, 2531, 2531, 2531, 2531, 2531, 2531, 91, 2051, 2051, 2051, 2051, 2051, 2051, 2051, 2051, 2051, 2051, 2051, 2051, 2051, 2051, 2051, 2051, 2051, 2051, 91, 1943, 1943, 1943, 2531, 2531, 2531, 2531, 2531, 2531, 2531, 2531, 2531, 2531, 2531, 2531, 1943, 1943, 1943, 91, 91, 91, 91, 1997, 1997, 1997, 1997, 1997, 1997, 1997, 1997, 1997, 1997, 1997, 91, 91, 91, 91, 91, 91, 91, 91, 79, 78, 79, 91, 91, 2531, 2531, 2531, 2531, 2531, 2531, 2531, 2531, 2531, 2531, 2531, 2531, 2531, 2531, 2531, 2531, 2531, 2531, 91, 2051, 2051, 2051, 2051, 2051, 2051, 2051, 2051, 2051, 2051, 2051, 2051, 2051, 2051, 2051, 2051, 2051, 2051, 91, 1943, 1943, 1943, 1943, 1943, 1943, 1943, 1943, 1943, 1943, 1943, 1943, 1943, 1943, 1943, 1943, 1943, 1943, 91, 91, 91, 91, 91, 91, 91, 91, 91, 91, 91, 91, 91, 91, 91, 91, 91, 91, 91, 91, 91, 91, 91, 79, 80, 91, 91, 91, 2531, 2531, 2531, 2531, 2531, 2531, 2531, 2531, 2531, 2531, 2531, 2531, 2531, 2531, 2531, 2531, 2531, 2531, 91, 2051, 2051, 2051, 2051, 2051, 2051, 2051, 2051, 2051, 2051, 2051, 2051, 2051, 2051, 2051, 2051, 2051, 2051, 91, 1943, 1943, 1943, 1943, 1943, 1943, 1943, 1943, 1943, 1943, 1943, 1943, 1943, 1943, 1943, 1943, 1943, 1943, 91, 91, 91, 91, 91, 91, 91, 91, 91, 91, 91, 91, 91, 91, 91, 91, 91, 91, 91, 91, 91, 91, 91, 91, 78, 79, 98, 91, 2531, 2531, 2531, 2531, 2531, 2531, 2531, 2531, 2531, 2531, 2531, 2531, 2531, 2531, 2531, 2531, 2531, 2531, 91, 2051, 2051, 2051, 2051, 2051, 2051, 2051, 2051, 2051, 2051, 2051, 2051, 2051, 2051, 2051, 2051, 2051, 2051, 91, 1943, 1943, 1943, 1943, 1943, 1943, 1943, 1943, 1943, 1943, 1943, 1943, 1943, 1943, 1943, 1943, 1943, 1943, 91, 91, 91, 91, 91, 91, 91, 91, 91, 91, 91, 91, 91, 91, 91, 91, 91, 91, 91, 91, 91, 91, 91, 91, 79, 79, 79, 91, 91, 91, 91, 91, 91, 91, 91, 91, 91, 91, 91, 91, 91, 91, 91, 91, 91, 91, 91, 91, 91, 91, 91, 91, 91, 91, 91, 91, 91, 91, 91, 91, 91, 91, 91, 91, 91, 91, 91, 91, 91, 91, 91, 91, 91, 91, 91, 91, 91, 91, 91, 91, 91, 91, 91, 91, 91, 91, 91, 91, 91, 91, 91, 91, 91, 91, 91, 91, 91, 91, 91, 91, 91, 91, 91, 91, 80, 91, 91, 91, 79, 91, 80, 91, 91, 91, 91, 91, 91, 91, 91, 91, 91, 91, 91, 91, 91, 91, 91, 91, 91, 91, 91, 91, 91, 91, 91, 91, 91, 91, 91, 91, 91, 91, 91, 91, 91, 91, 91, 91, 91, 91, 91, 91, 91, 91, 91, 91, 91, 91, 91, 91, 91, 91, 91, 91, 91, 91, 91, 91, 91, 91, 91, 91, 91, 91, 91, 91, 91, 91, 91, 91, 91, 91, 91, 91, 91, 91, 91, 91]}, {"id": 2, "name": "Ground_Details", "type": "tilelayer", "opacity": 1, "visible": true, "x": 0, "y": 0, "width": 84, "height": 66, "data": [0, 0, 0, 0, 0, 0, 0, 0, 0, 0, 0, 0, 0, 0, 0, 0, 0, 0, 0, 0, 0, 0, 0, 0, 0, 0, 0, 0, 0, 0, 0, 0, 0, 0, 0, 0, 0, 0, 0, 0, 0, 0, 0, 0, 0, 0, 0, 0, 0, 0, 0, 0, 0, 0, 0, 0, 0, 0, 0, 0, 0, 0, 0, 0, 0, 0, 0, 0, 0, 0, 0, 0, 0, 0, 0, 0, 0, 0, 0, 0, 0, 0, 0, 0, 0, 0, 0, 0, 0, 0, 0, 0, 0, 0, 0, 0, 0, 0, 0, 0, 0, 0, 0, 0, 0, 0, 0, 0, 0, 0, 0, 0, 0, 0, 0, 0, 0, 0, 0, 0, 0, 0, 0, 0, 0, 0, 0, 0, 0, 0, 0, 0, 0, 0, 0, 0, 0, 0, 0, 0, 0, 0, 0, 0, 0, 0, 0, 0, 0, 0, 0, 0, 0, 0, 0, 0, 0, 0, 0, 0, 0, 0, 0, 0, 0, 0, 0, 0, 0, 0, 0, 0, 0, 0, 0, 0, 0, 0, 0, 0, 0, 0, 0, 0, 0, 0, 0, 0, 0, 0, 0, 0, 0, 0, 0, 0, 0, 0, 0, 0, 0, 0, 0, 0, 0, 0, 0, 0, 0, 0, 0, 0, 0, 0, 0, 0, 0, 0, 0, 0, 0, 0, 0, 0, 0, 0, 0, 0, 0, 0, 0, 0, 0, 0, 0, 0, 0, 0, 0, 0, 0, 0, 0, 0, 0, 0, 0, 0, 0, 0, 0, 0, 0, 0, 0, 0, 0, 0, 0, 0, 0, 0, 0, 0, 0, 0, 0, 0, 0, 0, 0, 0, 0, 0, 0, 0, 0, 0, 0, 0, 0, 0, 0, 0, 0, 0, 0, 0, 0, 0, 0, 0, 0, 0, 0, 0, 0, 0, 0, 0, 0, 0, 0, 0, 0, 0, 0, 0, 0, 0, 0, 0, 0, 0, 0, 0, 0, 0, 0, 0, 0, 0, 0, 0, 0, 0, 0, 0, 0, 0, 0, 0, 0, 0, 0, 0, 0, 0, 0, 0, 0, 0, 0, 0, 0, 0, 0, 0, 0, 0, 0, 0, 0, 0, 0, 0, 0, 0, 0, 0, 0, 0, 0, 0, 0, 0, 0, 0, 0, 0, 0, 0, 0, 0, 0, 0, 0, 0, 0, 0, 0, 0, 0, 0, 0, 0, 0, 0, 0, 0, 0, 0, 0, 0, 0, 0, 0, 0, 0, 0, 0, 0, 0, 0, 0, 0, 0, 0, 0, 0, 0, 0, 0, 0, 0, 0, 0, 0, 0, 0, 0, 0, 0, 0, 0, 0, 0, 0, 0, 0, 0, 0, 0, 0, 0, 0, 0, 0, 0, 0, 0, 0, 0, 0, 0, 0, 0, 0, 0, 0, 0, 0, 0, 0, 0, 0, 0, 0, 0, 0, 0, 0, 0, 0, 0, 0, 0, 0, 0, 0, 0, 0, 0, 0, 0, 0, 0, 0, 0, 0, 0, 0, 0, 0, 0, 0, 0, 0, 0, 0, 0, 0, 0, 0, 0, 0, 0, 0, 0, 0, 0, 0, 0, 0, 0, 0, 0, 0, 0, 0, 0, 0, 0, 0, 0, 0, 0, 0, 0, 0, 0, 0, 0, 0, 0, 0, 0, 0, 0, 0, 0, 0, 0, 0, 0, 0, 0, 0, 0, 0, 0, 0, 0, 0, 0, 0, 0, 0, 0, 0, 0, 0, 0, 0, 0, 0, 0, 0, 0, 0, 0, 0, 0, 0, 0, 0, 0, 0, 0, 0, 0, 0, 0, 0, 0, 0, 0, 0, 0, 0, 0, 0, 0, 0, 0, 0, 0, 0, 0, 0, 0, 0, 0, 0, 0, 0, 0, 0, 0, 0, 0, 0, 0, 0, 0, 0, 0, 0, 0, 0, 0, 0, 0, 0, 0, 0, 0, 0, 0, 0, 0, 0, 0, 0, 0, 0, 0, 0, 0, 0, 0, 0, 0, 0, 0, 0, 0, 0, 0, 0, 0, 0, 0, 0, 0, 0, 0, 0, 0, 0, 0, 0, 0, 0, 0, 0, 0, 0, 0, 0, 0, 0, 0, 0, 0, 0, 0, 0, 0, 0, 0, 0, 0, 0, 0, 0, 0, 0, 0, 0, 0, 0, 0, 0, 0, 0, 0, 0, 0, 0, 0, 0, 0, 0, 0, 0, 0, 0, 0, 0, 0, 0, 0, 0, 0, 0, 0, 0, 0, 0, 0, 0, 0, 0, 0, 0, 0, 0, 0, 0, 0, 0, 0, 0, 0, 0, 0, 0, 0, 0, 0, 0, 0, 0, 0, 0, 0, 0, 0, 0, 0, 0, 0, 0, 0, 0, 0, 0, 0, 0, 0, 0, 0, 0, 0, 0, 0, 0, 0, 0, 0, 0, 0, 0, 0, 0, 0, 0, 0, 0, 0, 0, 0, 0, 0, 0, 0, 0, 0, 0, 0, 0, 0, 0, 0, 0, 0, 0, 0, 0, 0, 0, 0, 0, 0, 0, 0, 0, 0, 0, 0, 0, 0, 0, 0, 0, 0, 0, 0, 0, 0, 0, 0, 0, 0, 0, 0, 0, 0, 0, 0, 0, 0, 0, 0, 0, 0, 0, 0, 0, 0, 0, 0, 0, 0, 0, 0, 0, 0, 0, 0, 0, 0, 0, 0, 0, 0, 0, 0, 0, 0, 0, 0, 0, 0, 0, 0, 0, 0, 0, 0, 0, 0, 0, 0, 0, 0, 0, 0, 0, 0, 0, 0, 0, 0, 0, 0, 0, 0, 0, 0, 0, 0, 0, 0, 0, 0, 0, 0, 0, 0, 0, 0, 0, 0, 0, 0, 0, 0, 0, 0, 0, 0, 0, 0, 0, 0, 0, 0, 0, 0, 0, 0, 0, 0, 0, 0, 0, 0, 0, 0, 0, 0, 0, 0, 0, 0, 0, 0, 0, 0, 0, 0, 0, 0, 0, 0, 0, 0, 0, 0, 0, 0, 0, 0, 0, 0, 0, 0, 0, 0, 0, 0, 0, 0, 0, 0, 0, 0, 0, 0, 0, 0, 0, 0, 0, 0, 0, 0, 0, 0, 0, 0, 0, 0, 0, 0, 0, 0, 0, 0, 0, 0, 0, 0, 0, 0, 0, 0, 0, 0, 0, 0, 0, 0, 0, 0, 0, 0, 0, 0, 0, 0, 0, 0, 0, 0, 0, 0, 0, 0, 0, 0, 0, 0, 0, 0, 0, 0, 0, 0, 0, 0, 0, 0, 0, 0, 0, 0, 0, 0, 0, 0, 0, 0, 0, 0, 0, 0, 0, 0, 0, 0, 0, 0, 0, 0, 0, 0, 0, 0, 0, 0, 0, 0, 0, 0, 0, 0, 0, 0, 0, 0, 0, 0, 0, 0, 0, 0, 0, 0, 0, 0, 0, 0, 0, 0, 0, 0, 0, 0, 0, 0, 0, 0, 0, 0, 0, 0, 0, 0, 0, 0, 0, 0, 0, 0, 0, 0, 0, 0, 0, 0, 0, 0, 0, 0, 0, 0, 0, 0, 0, 0, 0, 0, 0, 0, 0, 0, 0, 0, 0, 0, 0, 0, 0, 0, 0, 0, 0, 0, 0, 0, 0, 0, 0, 0, 0, 0, 0, 0, 0, 0, 0, 0, 0, 0, 0, 0, 0, 0, 0, 0, 0, 0, 0, 0, 0, 0, 0, 0, 0, 0, 0, 0, 0, 0, 0, 0, 0, 0, 0, 0, 0, 0, 0, 0, 0, 0, 0, 0, 0, 0, 0, 0, 0, 0, 0, 0, 0, 0, 0, 0, 0, 0, 0, 0, 0, 0, 0, 0, 0, 0, 0, 0, 0, 0, 0, 0, 0, 0, 0, 0, 0, 0, 0, 0, 0, 0, 0, 0, 0, 0, 0, 0, 0, 0, 0, 0, 0, 0, 0, 0, 0, 0, 0, 0, 0, 0, 0, 0, 0, 0, 0, 0, 0, 0, 0, 0, 0, 0, 0, 0, 0, 0, 0, 0, 0, 0, 0, 0, 0, 0, 0, 0, 0, 0, 0, 0, 0, 0, 0, 0, 0, 0, 0, 0, 0, 0, 0, 0, 0, 0, 0, 0, 0, 0, 0, 0, 0, 0, 0, 0, 0, 0, 0, 0, 0, 0, 0, 0, 0, 0, 0, 0, 0, 0, 0, 0, 0, 0, 0, 0, 0, 0, 0, 0, 0, 0, 0, 0, 0, 0, 0, 0, 0, 0, 0, 0, 0, 0, 0, 0, 0, 0, 0, 0, 0, 0, 0, 0, 0, 0, 0, 0, 0, 0, 0, 0, 0, 0, 0, 0, 0, 0, 0, 0, 0, 0, 0, 0, 0, 0, 0, 0, 0, 0, 0, 0, 0, 0, 0, 0, 0, 0, 0, 0, 0, 0, 0, 0, 0, 0, 0, 0, 0, 0, 0, 0, 0, 0, 0, 0, 0, 0, 0, 0, 0, 0, 0, 0, 0, 0, 0, 0, 0, 0, 0, 0, 0, 0, 0, 0, 0, 0, 0, 0, 0, 0, 0, 0, 0, 0, 0, 0, 0, 0, 0, 0, 0, 0, 0, 0, 0, 0, 0, 0, 0, 0, 0, 0, 0, 0, 0, 0, 0, 0, 0, 0, 0, 0, 0, 0, 0, 0, 0, 0, 0, 0, 0, 0, 0, 0, 0, 0, 0, 0, 0, 0, 0, 0, 0, 0, 0, 0, 0, 0, 0, 0, 0, 0, 0, 0, 0, 0, 0, 0, 0, 0, 0, 0, 0, 0, 0, 0, 0, 0, 0, 0, 0, 0, 0, 0, 0, 0, 0, 0, 0, 0, 0, 0, 0, 0, 0, 0, 0, 0, 0, 0, 0, 0, 0, 0, 0, 0, 0, 0, 0, 0, 0, 0, 0, 0, 0, 0, 0, 0, 0, 0, 0, 0, 0, 0, 0, 0, 0, 0, 0, 0, 0, 0, 0, 0, 0, 0, 0, 0, 0, 0, 0, 0, 0, 0, 0, 0, 0, 0, 0, 0, 0, 0, 0, 0, 0, 0, 0, 0, 0, 0, 0, 0, 0, 0, 0, 0, 0, 0, 0, 0, 0, 0, 0, 0, 0, 0, 0, 0, 0, 0, 0, 0, 0, 0, 0, 0, 0, 0, 0, 0, 0, 0, 0, 0, 0, 0, 0, 0, 0, 0, 0, 0, 0, 0, 0, 0, 0, 0, 0, 0, 0, 0, 0, 0, 0, 0, 0, 0, 0, 0, 0, 0, 0, 0, 0, 0, 0, 0, 0, 0, 0, 0, 0, 0, 0, 0, 0, 0, 0, 0, 0, 0, 0, 0, 0, 0, 0, 0, 0, 0, 0, 0, 0, 0, 0, 0, 0, 0, 0, 0, 0, 0, 0, 0, 0, 0, 0, 0, 0, 0, 0, 0, 0, 0, 0, 0, 0, 0, 0, 0, 0, 0, 0, 0, 0, 0, 0, 0, 0, 0, 0, 0, 0, 0, 0, 0, 0, 0, 0, 0, 0, 0, 0, 0, 0, 0, 0, 0, 0, 0, 0, 0, 0, 0, 0, 0, 0, 0, 0, 0, 0, 0, 0, 0, 0, 0, 0, 0, 0, 0, 0, 0, 0, 0, 0, 0, 0, 0, 0, 0, 0, 0, 0, 0, 0, 0, 0, 0, 0, 0, 0, 0, 0, 0, 0, 0, 0, 0, 0, 0, 0, 0, 0, 0, 0, 0, 0, 0, 0, 0, 0, 0, 0, 0, 0, 0, 0, 0, 0, 0, 0, 0, 0, 0, 0, 0, 0, 0, 0, 0, 0, 0, 0, 0, 0, 0, 0, 0, 0, 0, 0, 0, 0, 0, 0, 0, 0, 0, 0, 0, 0, 0, 0, 0, 0, 0, 0, 0, 0, 0, 0, 0, 0, 0, 0, 0, 0, 0, 0, 0, 0, 0, 0, 0, 0, 0, 0, 0, 0, 0, 0, 0, 0, 0, 0, 0, 0, 0, 0, 0, 0, 0, 0, 0, 0, 0, 0, 0, 0, 0, 0, 0, 0, 0, 0, 0, 0, 0, 0, 0, 0, 0, 0, 0, 0, 0, 0, 0, 0, 0, 0, 0, 0, 0, 0, 0, 0, 0, 0, 0, 0, 0, 0, 0, 0, 0, 0, 0, 0, 0, 0, 0, 0, 0, 0, 0, 0, 0, 0, 0, 0, 0, 0, 0, 0, 0, 0, 0, 0, 0, 0, 0, 0, 0, 0, 0, 0, 0, 0, 0, 0, 0, 0, 0, 0, 0, 0, 0, 0, 0, 0, 0, 0, 0, 0, 0, 0, 0, 0, 0, 0, 0, 0, 0, 0, 0, 0, 0, 0, 0, 0, 0, 0, 0, 0, 0, 0, 0, 0, 0, 0, 0, 0, 0, 0, 0, 0, 0, 0, 0, 0, 0, 0, 0, 0, 0, 0, 0, 0, 0, 0, 0, 0, 0, 0, 0, 0, 0, 0, 0, 0, 0, 0, 0, 0, 0, 0, 0, 0, 0, 0, 0, 0, 0, 0, 0, 0, 0, 0, 0, 0, 0, 0, 0, 0, 0, 0, 0, 0, 0, 0, 0, 0, 0, 0, 0, 0, 0, 0, 0, 0, 0, 0, 0, 0, 0, 0, 0, 0, 0, 0, 0, 0, 0, 0, 0, 0, 0, 0, 0, 0, 0, 0, 0, 0, 0, 0, 0, 0, 0, 0, 0, 0, 0, 0, 0, 0, 0, 0, 0, 0, 0, 0, 0, 0, 0, 0, 0, 0, 0, 0, 0, 0, 0, 0, 0, 0, 0, 0, 0, 0, 0, 0, 0, 0, 0, 0, 0, 0, 0, 0, 0, 0, 0, 0, 0, 0, 0, 0, 0, 0, 0, 0, 0, 0, 0, 0, 0, 0, 0, 0, 0, 0, 0, 0, 0, 0, 0, 0, 0, 0, 0, 0, 0, 0, 0, 0, 0, 0, 0, 0, 0, 0, 0, 0, 0, 0, 0, 0, 0, 0, 0, 0, 0, 0, 0, 0, 0, 0, 0, 0, 0, 0, 0, 0, 0, 0, 0, 0, 0, 0, 0, 0, 0, 0, 0, 0, 0, 0, 0, 0, 0, 0, 0, 0, 0, 0, 0, 0, 0, 0, 0, 0, 0, 0, 0, 0, 0, 0, 0, 0, 0, 0, 0, 0, 0, 0, 0, 0, 0, 0, 0, 0, 0, 0, 0, 0, 0, 0, 0, 0, 0, 0, 0, 0, 0, 0, 0, 0, 0, 0, 0, 0, 0, 0, 0, 0, 0, 0, 0, 0, 0, 0, 0, 0, 0, 0, 0, 0, 0, 0, 0, 0, 0, 0, 0, 0, 0, 0, 0, 0, 0, 0, 0, 0, 0, 0, 0, 0, 0, 0, 0, 0, 0, 0, 0, 0, 0, 0, 0, 0, 0, 0, 0, 0, 0, 0, 0, 0, 0, 0, 0, 0, 0, 0, 0, 0, 0, 0, 0, 0, 0, 0, 0, 0, 0, 0, 0, 0, 0, 0, 0, 0, 0, 0, 0, 0, 0, 0, 0, 0, 0, 0, 0, 0, 0, 0, 0, 0, 0, 0, 0, 0, 0, 0, 0, 0, 0, 0, 0, 0, 0, 0, 0, 0, 0, 0, 0, 0, 0, 0, 0, 0, 0, 0, 0, 0, 0, 0, 0, 0, 0, 0, 0, 0, 0, 0, 0, 0, 0, 0, 0, 0, 0, 0, 0, 0, 0, 0, 0, 0, 0, 0, 0, 0, 0, 0, 0, 0, 0, 0, 0, 0, 0, 0, 0, 0, 0, 0, 0, 0, 0, 0, 0, 0, 0, 0, 0, 0, 0, 0, 0, 0, 0, 0, 0, 0, 0, 0, 0, 0, 0, 0, 0, 0, 0, 0, 0, 0, 0, 0, 0, 0, 0, 0, 0, 0, 0, 0, 0, 0, 0, 0, 0, 0, 0, 0, 0, 0, 0, 0, 0, 0, 0, 0, 0, 0, 0, 0, 0, 0, 0, 0, 0, 0, 0, 0, 0, 0, 0, 0, 0, 0, 0, 0, 0, 0, 0, 0, 0, 0, 0, 0, 0, 0, 0, 0, 0, 0, 0, 0, 0, 0, 0, 0, 0, 0, 0, 0, 0, 0, 0, 0, 0, 0, 0, 0, 0, 0, 0, 0, 0, 0, 0, 0, 0, 0, 0, 0, 0, 0, 0, 0, 0, 0, 0, 0, 0, 0, 0, 0, 0, 0, 0, 0, 0, 0, 0, 0, 0, 0, 0, 0, 0, 0, 0, 0, 0, 0, 0, 0, 0, 0, 0, 0, 0, 0, 0, 0, 0, 0, 0, 0, 0, 0, 0, 0, 0, 0, 0, 0, 0, 0, 0, 0, 0, 0, 0, 0, 0, 0, 0, 0, 0, 0, 0, 0, 0, 0, 0, 0, 0, 0, 0, 0, 0, 0, 0, 0, 0, 0, 0, 0, 0, 0, 0, 0, 0, 0, 0, 0, 0, 0, 0, 0, 0, 0, 0, 0, 0, 0, 0, 0, 0, 0, 0, 0, 0, 0, 0, 0, 0, 0, 0, 0, 0, 0, 0, 0, 0, 0, 0, 0, 0, 0, 0, 0, 0, 0, 0, 0, 0, 0, 0, 0, 0, 0, 0, 0, 0, 0, 0, 0, 0, 0, 0, 0, 0, 0, 0, 0, 0, 0, 0, 0, 0, 0, 0, 0, 0, 0, 0, 0, 0, 0, 0, 0, 0, 0, 0, 0, 0, 0, 0, 0, 0, 0, 0, 0, 0, 0, 0, 0, 0, 0, 0, 0, 0, 0, 0, 0, 0, 0, 0, 0, 0, 0, 0, 0, 0, 0, 0, 0, 0, 0, 0, 0, 0, 0, 0, 0, 0, 0, 0, 0, 0, 0, 0, 0, 0, 0, 0, 0, 0, 0, 0, 0, 0, 0, 0, 0, 0, 0, 0, 0, 0, 0, 0, 0, 0, 0, 0, 0, 0, 0, 0, 0, 0, 0, 0, 0, 0, 0, 0, 0, 0, 0, 0, 0, 0, 0, 0, 0, 0, 0, 0, 0, 0, 0, 0, 0, 0, 0, 0, 0, 0, 0, 0, 0, 0, 0, 0, 0, 0, 0, 0, 0, 0, 0, 0, 0, 0, 0, 0, 0, 0, 0, 0, 0, 0, 0, 0, 0, 0, 0, 0, 0, 0, 0, 0, 0, 0, 0, 0, 0, 0, 0, 0, 0, 0, 0, 0, 0, 0, 0, 0, 0, 0, 0, 0, 0, 0, 0, 0, 0, 0, 0, 0, 0, 0, 0, 0, 0, 0, 0, 0, 0, 0, 0, 0, 0, 0, 0, 0, 0, 0, 0, 0, 0, 0, 0, 0, 0, 0, 0, 0, 0, 0, 0, 0, 0, 0, 0, 0, 0, 0, 0, 0, 0, 0, 0, 0, 0, 0, 0, 0, 0, 0, 0, 0, 0, 0, 0, 0, 0, 0, 0, 0, 0, 0, 0, 0, 0, 0, 0, 0, 0, 0, 0, 0, 0, 0, 0, 0, 0, 0, 0, 0, 0, 0, 0, 0, 0, 0, 0, 0, 0, 0, 0, 0, 0, 0, 0, 0, 0, 0, 0, 0, 0, 0, 0, 0, 0, 0, 0, 0, 0, 0, 0, 0, 0, 0, 0, 0, 0, 0, 0, 0, 0, 0, 0, 0, 0, 0, 0, 0, 0, 0, 0, 0, 0, 0, 0, 0, 0, 0, 0, 0, 0, 0, 0, 0, 0, 0, 0, 0, 0, 0, 0, 0, 0, 0, 0, 0, 0, 0, 0, 0, 0, 0, 0, 0, 0, 0, 0, 0, 0, 0, 0, 0, 0, 0, 0, 0, 0, 0, 0, 0, 0, 0, 0, 0, 0, 0, 0, 0, 0, 0, 0, 0, 0, 0, 0, 0, 0, 0, 0, 0, 0, 0, 0, 0, 0, 0, 0, 0, 0, 0, 0, 0, 0, 0, 0, 0, 0, 0, 0, 0, 0, 0, 0, 0, 0, 0, 0, 0, 0, 0, 0, 0, 0, 0, 0, 0, 0, 0, 0, 0, 0, 0, 0, 0, 0, 0, 0, 0, 0, 0, 0, 0, 0, 0, 0, 0, 0, 0, 0, 0, 0, 0, 0, 0, 0, 0, 0, 0, 0, 0, 0, 0, 0, 0, 0, 0, 0, 0, 0, 0, 0, 0, 0, 0, 0, 0, 0, 0, 0, 0, 0, 0, 0, 0, 0, 0, 0, 0, 0, 0, 0, 0, 0, 0, 0, 0, 0, 0, 0, 0, 0, 0, 0, 0, 0, 0, 0, 0, 0, 0, 0, 0, 0, 0, 0, 0, 0, 0, 0, 0, 0, 0, 0, 0, 0, 0, 0, 0, 0, 0, 0, 0, 0, 0, 0, 0, 0, 0, 0, 0, 0, 0, 0, 0, 0, 0, 0, 0, 0, 0, 0, 0, 0, 0, 0, 0, 0, 0, 0, 0, 0, 0, 0, 0, 0, 0, 0, 0, 0, 0, 0, 0, 0, 0, 0, 0, 0, 0, 0, 0, 0, 0, 0, 0, 0, 0, 0, 0, 0, 0, 0, 0, 0, 0, 0, 0, 0, 0, 0, 0, 0, 0, 0, 0, 0, 0, 0, 0, 0, 0, 0, 0, 0, 0, 0, 0, 0, 0, 0, 0, 0, 0, 0, 0, 0, 0, 0, 0, 0, 0, 0, 0, 0, 0, 0, 0, 0, 0, 0, 0, 0, 0, 0, 0, 0, 0, 0, 0, 0, 0, 0, 0, 0, 0, 0, 0, 0, 0, 0, 0, 0, 0, 0, 0, 0, 0, 0, 0, 0, 0, 0, 0, 0, 0, 0, 0, 0, 0, 0, 0, 0, 0, 0, 0, 0, 0, 0, 0, 0, 0, 0, 0, 0, 0, 0, 0, 0, 0, 0, 0, 0, 0, 0, 0, 0, 0, 0, 0, 0, 0, 0, 0, 0, 0, 0, 0, 0, 0, 0, 0, 0, 0, 0, 0, 0, 0, 0, 0, 0, 0, 0, 0, 0, 0, 0, 0, 0, 0, 0, 0, 0, 0, 0, 0, 0, 0, 0, 0, 0, 0, 0, 0, 0, 0, 0, 0, 0, 0, 0, 0, 0, 0, 0, 0, 0, 0, 0, 0, 0, 0, 0, 0, 0, 0, 0, 0, 0, 0, 0, 0, 0, 0, 0, 0, 0, 0, 0, 0, 0, 0, 0, 0, 0, 0, 0, 0, 0, 0, 0, 0, 0, 0, 0, 0, 0, 0, 0, 0, 0, 0, 0, 0, 0, 0, 0, 0, 0, 0, 0, 0, 0, 0, 0, 0, 0, 0, 0, 0, 0, 0, 0, 0, 0, 0, 0, 0, 0, 0, 0, 0, 0, 0, 0, 0, 0, 0, 0, 0, 0, 0, 0, 0, 0, 0, 0, 0, 0, 0, 0, 0, 0, 0, 0, 0, 0, 0, 0, 0, 0, 0, 0, 0, 0, 0, 0, 0, 0, 0, 0, 0, 0, 0, 0, 0, 0, 0, 0, 0, 0, 0, 0, 0, 0, 0, 0, 0, 0, 0, 0, 0, 0, 0, 0, 0, 0, 0, 0, 0, 0, 0, 0, 0, 0, 0, 0, 0, 0, 0, 0, 0, 0, 0, 0, 0, 0, 0, 0, 0, 0, 0, 0, 0, 0, 0, 0, 0, 0, 0, 0, 0, 0, 0, 0, 0, 0, 0, 0, 0, 0, 0, 0, 0, 0, 0, 0, 0, 0, 0, 0, 0, 0, 0, 0, 0, 0, 0, 0, 0, 0, 0, 0, 0, 0, 0, 0, 0, 0, 0, 0, 0, 0, 0, 0, 0, 0, 0, 0, 0, 0, 0, 0, 0, 0, 0, 0, 0, 0, 0, 0, 0, 0, 0, 0, 0, 0, 0, 0, 0, 0, 0, 0, 0, 0, 0, 0, 0, 0, 0, 0, 0, 0, 0, 0, 0, 0, 0, 0, 0, 0, 0, 0, 0, 0, 0, 0, 0, 0, 0, 0, 0, 0, 0, 0, 0, 0, 0, 0, 0, 0, 0, 0, 0, 0, 0, 0, 0, 0, 0, 0, 0, 0, 0, 0, 0, 0, 0, 0, 0, 0, 0, 0, 0, 0, 0, 0, 0, 0, 0, 0, 0, 0, 0, 0, 0, 0, 0, 0, 0, 0, 0, 0, 0, 0, 0, 0, 0, 0, 0, 0, 0, 0, 0, 0, 0, 0, 0, 0, 0, 0, 0, 0, 0, 0, 0, 0, 0, 0, 0, 0, 0, 0, 0, 0, 0, 0, 0, 0, 0, 0, 0, 0, 0, 0, 0, 0, 0, 0, 0, 0, 0, 0, 0, 0, 0, 0, 0, 0, 0, 0, 0, 0, 0, 0, 0, 0, 0, 0, 0, 0, 0, 0, 0, 0, 0, 0, 0, 0, 0, 0, 0, 0, 0, 0, 0, 0, 0, 0, 0, 0, 0, 0, 0, 0, 0, 0, 0, 0, 0, 0, 0, 0, 0, 0, 0, 0, 0, 0, 0, 0, 0, 0, 0, 0, 0, 0, 0, 0, 0, 0, 0, 0, 0, 0, 0, 0, 0, 0, 0, 0, 0, 0, 0, 0, 0, 0, 0, 0, 0, 0, 0, 0, 0, 0, 0, 0, 0, 0, 0, 0, 0, 0, 0, 0, 0, 0, 0, 0, 0, 0, 0, 0, 0, 0, 0, 0, 0, 0, 0, 0, 0, 0, 0, 0, 0, 0, 0, 0, 0, 0, 0, 0, 0, 0, 0, 0, 0, 0, 0, 0, 0, 0, 0, 0, 0, 0, 0, 0, 0, 0, 0, 0, 0, 0, 0, 0, 0, 0, 0, 0, 0, 0, 0, 0, 0, 0, 0, 0, 0, 0, 0, 0, 0, 0, 0, 0, 0, 0, 0, 0, 0, 0, 0, 0, 0, 0, 0, 0, 0, 0, 0, 0, 0, 0, 0, 0, 0, 0, 0, 0, 0, 0, 0, 0, 0, 0, 0, 0, 0, 0, 0, 0, 0, 0, 0, 0, 0, 0, 0, 0, 0, 0, 0, 0, 0, 0, 0, 0, 0, 0, 0, 0, 0, 0, 0, 0, 0, 0, 0, 0, 0, 0, 0, 0, 0, 0, 0, 0, 0, 0, 0, 0, 0, 0, 0, 0, 0, 0, 0, 0, 0, 0, 0, 0, 0, 0, 0, 0, 0, 0, 0, 0, 0, 0, 0, 0, 0, 0, 0, 0, 0, 0, 0, 0, 0, 0, 0, 0, 0, 0, 0, 0, 0, 0, 0, 0, 0, 0, 0, 0, 0, 0, 0, 0, 0, 0, 0, 0, 0, 0, 0, 0, 0, 0, 0, 0, 0, 0, 0, 0, 0, 0, 0, 0, 0, 0, 0, 0, 0, 0, 0, 0, 0, 0, 0, 0, 0, 0, 0, 0, 0, 0, 0, 0, 0, 0, 0, 0, 0, 0, 0, 0, 0, 0, 0, 0, 0, 0, 0, 0, 0, 0, 0, 0, 0, 0, 0, 0, 0, 0, 0, 0, 0, 0, 0, 0, 0, 0, 0, 0, 0, 0, 0, 0, 0, 0, 0, 0, 0, 0, 0, 0, 0, 0, 0, 0, 0, 0, 0, 0, 0, 0, 0, 0, 0, 0, 0, 0, 0, 0, 0, 0, 0, 0, 0, 0, 0, 0, 0, 0, 0, 0, 0, 0, 0, 0, 0, 0, 0, 0, 0, 0, 0, 0, 0, 0, 0, 0, 0, 0, 0, 0, 0, 0, 0, 0, 0, 0, 0, 0, 0, 0, 0, 0, 0, 0, 0, 0, 0, 0, 0, 0, 0, 0, 0, 0, 0, 0, 0, 0, 0, 0, 0, 0, 0, 0, 0, 0, 0, 0, 0, 0, 0, 0, 0, 0, 0, 0, 0, 0, 0, 0, 0, 0, 0, 0, 0, 0, 0, 0, 0, 0, 0, 0, 0, 0, 0, 0, 0, 0, 0, 0, 0, 0, 0, 0, 0, 0, 0, 0, 0, 0, 0, 0, 0, 0, 0, 0, 0, 0, 0, 0, 0, 0, 0, 0, 0, 0, 0, 0, 0, 0, 0, 0, 0, 0, 0, 0, 0, 0, 0, 0, 0, 0, 0, 0, 0, 0, 0, 0, 0, 0, 0, 0, 0, 0, 0, 0, 0, 0, 0, 0, 0, 0, 0, 0, 0, 0, 0, 0, 0, 0, 0, 0, 0, 0, 0, 0, 0, 0, 0, 0, 0, 0, 0, 0, 0, 0, 0, 0, 0, 0, 0, 0, 0, 0, 0, 0, 0, 0, 0, 0, 0, 0, 0, 0, 0, 0, 0, 0, 0, 0, 0, 0, 0, 0, 0, 0, 0, 0, 0, 0, 0, 0, 0, 0, 0, 0, 0, 0, 0, 0, 0, 0, 0, 0, 0, 0, 0, 0, 0, 0, 0, 0, 0, 0, 0, 0, 0, 0, 0, 0, 0, 0, 0, 0, 0, 0, 0, 0, 0, 0, 0, 0, 0, 0, 0, 0, 0, 0, 0, 0, 0, 0, 0, 0, 0, 0, 0, 0, 0, 0, 0, 0, 0, 0, 0, 0, 0, 0, 0, 0, 0, 0, 0, 0, 0, 0, 0, 0, 0, 0, 0, 0, 0, 0, 0, 0, 0, 0, 0, 0, 0, 0, 0, 0, 0, 0, 0, 0, 0, 0, 0, 0, 0, 0, 0, 0, 0, 0, 0, 0, 0, 0, 0, 0, 0, 0, 0, 0, 0, 0, 0, 0, 0, 0, 0, 0, 0, 0, 0, 0, 0, 0, 0, 0, 0, 0, 0, 0, 0, 0, 0, 0, 0, 0, 0, 0, 0, 0, 0, 0, 0, 0, 0, 0, 0, 0, 0, 0, 0, 0, 0, 0, 0, 0, 0, 0, 0, 0, 0, 0, 0, 0, 0, 0, 0, 0, 0, 0, 0, 0, 0, 0, 0, 0, 0, 0, 0, 0, 0, 0, 0, 0, 0, 0, 0, 0, 0, 0, 0, 0, 0, 0, 0, 0, 0, 0, 0, 0, 0, 0, 0, 0, 0, 0, 0, 0, 0, 0, 0, 0, 0, 0, 0, 0, 0, 0, 0, 0, 0, 0, 0, 0, 0, 0, 0, 0, 0, 0, 0, 0, 0, 0, 0, 0, 0, 0, 0, 0, 0, 0, 0, 0, 0, 0, 0, 0, 0, 0, 0, 0, 0, 0, 0, 0, 0, 0, 0, 0, 0, 0, 0, 0, 0, 0, 0, 0, 0, 0, 0, 0, 0, 0, 0, 0, 0, 0, 0, 0, 0, 0, 0, 0, 0, 0, 0, 0, 0, 0, 0, 0, 0, 0, 0, 0, 0, 0, 0, 0, 0, 0, 0, 0, 0, 0, 0, 0, 0, 0, 0, 0, 0, 0, 0, 0, 0, 0, 0, 0, 0, 0, 0, 0, 0, 0, 0, 0, 0, 0, 0, 0, 0, 0, 0, 0, 0, 0, 0, 0, 0, 0, 0, 0, 0, 0, 0, 0, 0, 0, 0, 0, 0, 0, 0, 0, 0, 0, 0, 0, 0, 0, 0, 0, 0, 0, 0, 0, 0, 0, 0, 0, 0, 0, 0, 0, 0, 0, 0, 0, 0, 0, 0, 0, 0, 0, 0, 0, 0, 0, 0, 0, 0, 0, 0, 0, 0, 0, 0, 0, 0, 0, 0, 0, 0, 0, 0, 0, 0, 0, 0, 0, 0, 0, 0, 0, 0, 0, 0, 0, 0, 0, 0, 0, 0, 0, 0, 0, 0, 0, 0, 0, 0, 0, 0, 0, 0, 0, 0, 0, 0, 0, 0, 0, 0, 0, 0, 0, 0, 0, 0, 0, 0, 0, 0, 0, 0, 0, 0, 0, 0, 0, 0, 0, 0, 0, 0, 0, 0, 0, 0, 0, 0, 0, 0, 0, 0, 0, 0, 0, 0, 0, 0, 0, 0, 0, 0, 0, 0, 0, 0, 0, 0, 0, 0, 0, 0, 0, 0, 0, 0, 0, 0, 0, 0, 0, 0, 0, 0, 0, 0, 0, 0, 0, 0, 0, 0, 0, 0, 0, 0, 0, 0, 0, 0, 0, 0, 0, 0, 0, 0, 0, 0, 0, 0, 0, 0, 0, 0, 0, 0, 0, 0, 0, 0, 0, 0, 0, 0, 0, 0, 0, 0, 0, 0, 0, 0, 0, 0, 0, 0, 0, 0, 0, 0, 0, 0, 0, 0, 0, 0, 0, 0, 0, 0, 0, 0, 0, 0, 0, 0, 0, 0, 0, 0, 0, 0, 0, 0, 0, 0, 0, 0, 0, 0, 0, 0, 0, 0, 0, 0, 0, 0, 0, 0, 0, 0, 0, 0, 0, 0, 0, 0, 0, 0, 0, 0, 0, 0, 0, 0, 0, 0, 0, 0, 0, 0, 0, 0, 0, 0, 0, 0, 0, 0, 0, 0, 0, 0, 0, 0, 0, 0, 0, 0, 0, 0, 0, 0, 0, 0, 0, 0, 0, 0, 0, 0, 0, 0, 0, 0, 0, 0, 0, 0, 0, 0, 0, 0, 0, 0, 0, 0, 0, 0, 0, 0, 0, 0, 0, 0, 0, 0, 0, 0, 0, 0, 0, 0, 0, 0, 0, 0, 0, 0, 0, 0, 0, 0, 0, 0, 0, 0, 0, 0, 0, 0, 0, 0, 0, 0, 0, 0, 0, 0, 0, 0, 0, 0, 0, 0, 0, 0, 0, 0, 0, 0, 0, 0, 0, 0, 0, 0, 0, 0, 0, 0, 0, 0, 0, 0, 0, 0, 0, 0, 0, 0, 0, 0, 0, 0, 0, 0, 0, 0, 0, 0, 0, 0, 0, 0, 0, 0, 0, 0, 0, 0, 0, 0, 0, 0, 0, 0, 0, 0, 0, 0, 0, 0, 0, 0, 0, 0, 0, 0, 0, 0, 0, 0, 0, 0, 0, 0, 0, 0, 0, 0, 0, 0, 0, 0, 0, 0, 0, 0, 0, 0, 0, 0, 0, 0, 0, 0, 0, 0, 0, 0, 0, 0, 0, 0, 0, 0, 0, 0, 0, 0, 0, 0, 0, 0, 0, 0, 0, 0, 0, 0, 0, 0, 0, 0, 0, 0, 0, 0, 0, 0, 0, 0, 0, 0, 0, 0, 0, 0, 0, 0, 0, 0, 0, 0, 0, 0, 0, 0, 0, 0, 0, 0, 0, 0, 0, 0, 0, 0, 0, 0, 0, 0, 0, 0, 0, 0, 0, 0, 0, 0, 0, 0, 0, 0, 0, 0, 0, 0, 0, 0, 0, 0, 0, 0, 0, 0, 0, 0, 0, 0, 0, 0, 0, 0, 0, 0, 0, 0, 0, 0, 0, 0, 0, 0, 0, 0, 0, 0, 0, 0, 0, 0, 0, 0, 0, 0, 0, 0, 0, 0, 0, 0, 0, 0, 0, 0, 0, 0, 0, 0, 0, 0, 0, 0, 0, 0, 0, 0, 0, 0, 0, 0, 0, 0, 0, 0, 0, 0, 0, 0, 0, 0, 0, 0, 0, 0, 0, 0, 0, 0, 0, 0, 0, 0, 0, 0, 0, 0, 0, 0, 0, 0, 0, 0, 0, 0, 0, 0, 0, 0, 0, 0, 0, 0, 0, 0, 0, 0, 0, 0, 0, 0, 0, 0, 0, 0, 0, 0, 0, 0, 0, 0, 0, 0, 0, 0, 0, 0, 0, 0, 0, 0, 0, 0, 0, 0, 0, 0, 0, 0, 0, 0, 0, 0, 0, 0, 0, 0, 0, 0, 0, 0, 0, 0, 0, 0, 0, 0, 0, 0, 0, 0, 0, 0, 0, 0, 0, 0, 0, 0, 0]}, {"id": 3, "name": "Walls", "type": "tilelayer", "opacity": 1, "visible": true, "x": 0, "y": 0, "width": 84, "height": 66, "data": [0, 0, 0, 0, 0, 0, 0, 0, 0, 0, 0, 0, 0, 0, 0, 0, 0, 0, 0, 0, 0, 0, 0, 0, 0, 0, 0, 0, 0, 0, 0, 0, 0, 0, 0, 0, 0, 0, 0, 0, 0, 0, 0, 0, 0, 0, 0, 0, 0, 0, 0, 0, 0, 0, 0, 0, 0, 0, 0, 0, 0, 0, 0, 0, 0, 0, 0, 0, 0, 0, 0, 0, 0, 0, 0, 0, 0, 0, 0, 0, 0, 0, 0, 0, 0, 0, 0, 0, 0, 0, 0, 1870, 1870, 1870, 1870, 1870, 1870, 1870, 1870, 1870, 1870, 1870, 1870, 1870, 1870, 1870, 1870, 1870, 1870, 1870, 1870, 1870, 1870, 1870, 1870, 1870, 1870, 1870, 1870, 1870, 1870, 1870, 1870, 1870, 1870, 1870, 1870, 1870, 1870, 1870, 1870, 1870, 1870, 1870, 1870, 1870, 1870, 1870, 1870, 1870, 1870, 1870, 1870, 1870, 1870, 1870, 1870, 1870, 1870, 1870, 1870, 1870, 1870, 1870, 1870, 1870, 1870, 1870, 1870, 1870, 1870, 1870, 1870, 1870, 1870, 1870, 1870, 0, 0, 0, 0, 0, 0, 0, 0, 1870, 0, 0, 0, 0, 0, 0, 0, 0, 0, 0, 0, 0, 0, 0, 0, 0, 0, 0, 1870, 0, 0, 0, 0, 0, 0, 0, 0, 0, 0, 0, 0, 0, 0, 0, 0, 0, 0, 1870, 0, 0, 0, 0, 0, 0, 0, 0, 0, 0, 0, 0, 0, 0, 0, 0, 0, 0, 1870, 0, 0, 0, 0, 0, 0, 0, 0, 0, 0, 0, 0, 0, 0, 0, 0, 0, 1870, 0, 0, 0, 0, 0, 0, 0, 0, 1870, 0, 0, 0, 0, 0, 0, 0, 0, 0, 0, 0, 0, 0, 0, 0, 0, 0, 0, 1870, 0, 0, 0, 0, 0, 0, 0, 0, 0, 0, 0, 0, 0, 0, 0, 0, 0, 0, 1870, 0, 0, 0, 0, 0, 0, 0, 0, 0, 0, 0, 0, 0, 0, 0, 0, 0, 0, 1870, 0, 0, 0, 0, 0, 0, 0, 0, 0, 0, 0, 0, 0, 0, 0, 0, 0, 1870, 0, 0, 0, 0, 0, 0, 0, 0, 1870, 0, 0, 0, 0, 0, 0, 0, 0, 0, 0, 0, 0, 0, 0, 0, 0, 0, 0, 1870, 0, 0, 0, 0, 0, 0, 0, 0, 0, 0, 0, 0, 0, 0, 0, 0, 0, 0, 1870, 0, 0, 0, 0, 0, 0, 0, 0, 0, 0, 0, 0, 0, 0, 0, 0, 0, 0, 1870, 0, 0, 0, 0, 0, 0, 0, 0, 0, 0, 0, 0, 0, 0, 0, 0, 0, 1870, 0, 0, 0, 0, 0, 0, 0, 0, 1870, 0, 0, 0, 0, 0, 0, 0, 0, 0, 0, 0, 0, 0, 0, 0, 0, 0, 0, 1870, 0, 0, 0, 0, 0, 0, 0, 0, 0, 0, 0, 0, 0, 0, 0, 0, 0, 0, 1870, 0, 0, 0, 0, 0, 0, 0, 0, 0, 0, 0, 0, 0, 0, 0, 0, 0, 0, 1870, 0, 0, 0, 0, 0, 0, 0, 0, 0, 0, 0, 0, 0, 0, 0, 0, 0, 1870, 0, 0, 0, 0, 0, 0, 0, 0, 1870, 0, 0, 0, 0, 0, 0, 0, 0, 0, 0, 0, 0, 0, 0, 0, 0, 0, 0, 1870, 0, 0, 0, 0, 0, 0, 0, 0, 0, 0, 0, 0, 0, 0, 0, 0, 0, 0, 1870, 0, 0, 0, 0, 0, 0, 0, 0, 0, 0, 0, 0, 0, 0, 0, 0, 0, 0, 1870, 0, 0, 0, 0, 0, 0, 0, 0, 0, 0, 0, 0, 0, 0, 0, 0, 0, 1870, 0, 0, 0, 0, 0, 0, 0, 0, 1870, 0, 0, 0, 0, 0, 0, 0, 0, 0, 0, 0, 0, 0, 0, 0, 0, 0, 0, 1870, 0, 0, 0, 0, 0, 0, 0, 0, 0, 0, 0, 0, 0, 0, 0, 0, 0, 0, 1870, 0, 0, 0, 0, 0, 0, 0, 0, 0, 0, 0, 0, 0, 0, 0, 0, 0, 0, 1870, 0, 0, 0, 0, 0, 0, 0, 0, 0, 0, 0, 0, 0, 0, 0, 0, 0, 1870, 0, 0, 0, 0, 0, 0, 0, 0, 0, 0, 0, 0, 0, 0, 0, 0, 0, 0, 0, 0, 0, 0, 0, 0, 0, 0, 0, 1870, 0, 0, 0, 0, 0, 0, 0, 0, 0, 0, 0, 0, 0, 0, 0, 0, 0, 0, 1870, 0, 0, 0, 0, 0, 0, 0, 0, 0, 0, 0, 0, 0, 0, 0, 0, 0, 0, 1870, 0, 0, 0, 0, 0, 0, 0, 0, 0, 0, 0, 0, 0, 0, 0, 0, 0, 1870, 0, 0, 0, 0, 0, 0, 0, 0, 0, 0, 0, 0, 0, 0, 0, 0, 0, 0, 0, 0, 0, 0, 0, 0, 0, 0, 0, 1870, 0, 0, 0, 0, 0, 0, 0, 0, 0, 0, 0, 0, 0, 0, 0, 0, 0, 0, 1870, 0, 0, 0, 0, 0, 0, 0, 0, 0, 0, 0, 0, 0, 0, 0, 0, 0, 0, 1870, 0, 0, 0, 0, 0, 0, 0, 0, 0, 0, 0, 0, 0, 0, 0, 0, 0, 1870, 0, 0, 0, 0, 0, 0, 0, 0, 0, 0, 0, 0, 0, 0, 0, 0, 0, 0, 0, 0, 0, 0, 0, 0, 0, 0, 0, 1870, 0, 0, 0, 0, 0, 0, 0, 0, 0, 0, 0, 0, 0, 0, 0, 0, 0, 0, 1870, 0, 0, 0, 0, 0, 0, 0, 0, 0, 0, 0, 0, 0, 0, 0, 0, 0, 0, 1870, 0, 0, 0, 0, 0, 0, 0, 0, 0, 0, 0, 0, 0, 0, 0, 0, 0, 1870, 0, 0, 0, 0, 0, 0, 0, 0, 0, 0, 0, 0, 0, 0, 0, 0, 0, 0, 0, 0, 0, 0, 0, 0, 0, 0, 0, 1870, 0, 0, 0, 0, 0, 0, 0, 0, 0, 0, 0, 0, 0, 0, 0, 0, 0, 0, 1870, 0, 0, 0, 0, 0, 0, 0, 0, 0, 0, 0, 0, 0, 0, 0, 0, 0, 0, 1870, 0, 0, 0, 0, 0, 0, 0, 0, 0, 0, 0, 0, 0, 0, 0, 0, 0, 1870, 0, 0, 0, 0, 0, 0, 0, 0, 1870, 0, 0, 0, 0, 0, 0, 0, 0, 0, 0, 0, 0, 0, 0, 0, 0, 0, 0, 1870, 0, 0, 0, 0, 0, 0, 0, 0, 0, 0, 0, 0, 0, 0, 0, 0, 0, 0, 1870, 0, 0, 0, 0, 0, 0, 0, 0, 0, 0, 0, 0, 0, 0, 0, 0, 0, 0, 1870, 0, 0, 0, 0, 0, 0, 0, 0, 0, 0, 0, 0, 0, 0, 0, 0, 0, 1870, 0, 0, 0, 0, 0, 0, 0, 0, 1870, 0, 0, 0, 0, 0, 0, 0, 0, 0, 0, 0, 0, 0, 0, 0, 0, 0, 0, 1870, 0, 0, 0, 0, 0, 0, 0, 0, 0, 0, 0, 0, 0, 0, 0, 0, 0, 0, 1870, 0, 0, 0, 0, 0, 0, 0, 0, 0, 0, 0, 0, 0, 0, 0, 0, 0, 0, 1870, 0, 0, 0, 0, 0, 0, 0, 0, 0, 0, 0, 0, 0, 0, 0, 0, 0, 1870, 0, 0, 0, 0, 0, 0, 0, 0, 1870, 0, 0, 0, 0, 0, 0, 0, 0, 0, 0, 0, 0, 0, 0, 0, 0, 0, 0, 1870, 0, 0, 0, 0, 0, 0, 0, 0, 0, 0, 0, 0, 0, 0, 0, 0, 0, 0, 1870, 0, 0, 0, 0, 0, 0, 0, 0, 0, 0, 0, 0, 0, 0, 0, 0, 0, 0, 1870, 0, 0, 0, 0, 0, 0, 0, 0, 0, 0, 0, 0, 0, 0, 0, 0, 0, 1870, 0, 0, 0, 0, 0, 0, 0, 0, 1870, 0, 0, 0, 0, 0, 0, 0, 0, 0, 0, 0, 0, 0, 0, 0, 0, 0, 0, 1870, 0, 0, 0, 0, 0, 0, 0, 0, 0, 0, 0, 0, 0, 0, 0, 0, 0, 0, 1870, 0, 0, 0, 0, 0, 0, 0, 0, 0, 0, 0, 0, 0, 0, 0, 0, 0, 0, 1870, 0, 0, 0, 0, 0, 0, 0, 0, 0, 0, 0, 0, 0, 0, 0, 0, 0, 1870, 0, 0, 0, 0, 0, 0, 0, 0, 1870, 0, 0, 0, 0, 0, 0, 0, 0, 0, 0, 0, 0, 0, 0, 0, 0, 0, 0, 1870, 0, 0, 0, 0, 0, 0, 0, 0, 0, 0, 0, 0, 0, 0, 0, 0, 0, 0, 1870, 0, 0, 0, 0, 0, 0, 0, 0, 0, 0, 0, 0, 0, 0, 0, 0, 0, 0, 1870, 0, 0, 0, 0, 0, 0, 0, 0, 0, 0, 0, 0, 0, 0, 0, 0, 0, 1870, 0, 0, 0, 0, 0, 0, 0, 0, 1870, 0, 0, 0, 0, 0, 0, 0, 0, 0, 0, 0, 0, 0, 0, 0, 0, 0, 0, 1870, 0, 0, 0, 0, 0, 0, 0, 0, 0, 0, 0, 0, 0, 0, 0, 0, 0, 0, 1870, 0, 0, 0, 0, 0, 0, 0, 0, 0, 0, 0, 0, 0, 0, 0, 0, 0, 0, 1870, 0, 0, 0, 0, 0, 0, 0, 0, 0, 0, 0, 0, 0, 0, 0, 0, 0, 1870, 0, 0, 0, 0, 0, 0, 0, 0, 1870, 1870, 1870, 1870, 1870, 1870, 1870, 1870, 1870, 1870, 1870, 1870, 1870, 0, 0, 0, 0, 1870, 1870, 1870, 1870, 1870, 1870, 1870, 1870, 1870, 1870, 0, 0, 0, 0, 1870, 1870, 1870, 1870, 1870, 1870, 1870, 1870, 1870, 1870, 1870, 1870, 1870, 1870, 1870, 0, 0, 0, 0, 1870, 1870, 1870, 1870, 1870, 1870, 1870, 1870, 1870, 1870, 1870, 1870, 1870, 1870, 0, 0, 0, 0, 1870, 1870, 1870, 1870, 1870, 1870, 1870, 1870, 0, 0, 0, 0, 0, 0, 0, 0, 1870, 0, 0, 0, 0, 0, 0, 0, 0, 0, 0, 0, 0, 0, 0, 0, 0, 0, 0, 0, 0, 0, 0, 0, 0, 0, 0, 0, 0, 0, 0, 0, 0, 0, 0, 0, 0, 0, 0, 0, 0, 0, 0, 0, 0, 0, 0, 0, 0, 0, 0, 0, 0, 0, 0, 0, 0, 0, 0, 0, 0, 0, 0, 0, 0, 0, 0, 0, 0, 0, 0, 0, 0, 0, 0, 1870, 0, 0, 0, 0, 0, 0, 0, 0, 1870, 0, 0, 0, 0, 0, 0, 0, 0, 0, 0, 0, 0, 0, 0, 0, 0, 0, 0, 0, 0, 0, 0, 0, 0, 0, 0, 0, 0, 0, 0, 0, 0, 0, 0, 0, 0, 0, 0, 0, 0, 0, 0, 0, 0, 0, 0, 0, 0, 0, 0, 0, 0, 0, 0, 0, 0, 0, 0, 0, 0, 0, 0, 0, 0, 0, 0, 0, 0, 0, 0, 0, 0, 0, 0, 1870, 0, 0, 0, 0, 0, 0, 0, 0, 1870, 0, 0, 0, 0, 0, 0, 0, 0, 0, 0, 0, 0, 0, 0, 0, 0, 0, 0, 0, 0, 0, 0, 0, 0, 0, 0, 0, 0, 0, 0, 0, 0, 0, 0, 0, 0, 0, 0, 0, 0, 0, 0, 0, 0, 0, 0, 0, 0, 0, 0, 0, 0, 0, 0, 0, 0, 0, 0, 0, 0, 0, 0, 0, 0, 0, 0, 0, 0, 0, 0, 0, 0, 0, 0, 1870, 0, 0, 0, 0, 0, 0, 0, 0, 1870, 0, 0, 0, 0, 0, 0, 0, 0, 0, 0, 0, 0, 0, 0, 0, 0, 0, 0, 0, 0, 0, 0, 0, 0, 0, 0, 0, 0, 0, 0, 0, 0, 0, 0, 0, 0, 0, 0, 0, 0, 0, 0, 0, 0, 0, 0, 0, 0, 0, 0, 0, 0, 0, 0, 0, 0, 0, 0, 0, 0, 0, 0, 0, 0, 0, 0, 0, 0, 0, 0, 0, 0, 0, 0, 1870, 0, 0, 0, 0, 0, 0, 0, 0, 1870, 0, 0, 0, 0, 0, 0, 0, 0, 0, 0, 0, 0, 0, 0, 0, 0, 0, 0, 0, 0, 0, 0, 0, 0, 0, 0, 0, 0, 0, 0, 0, 0, 0, 0, 0, 0, 0, 0, 0, 0, 0, 0, 0, 0, 0, 0, 0, 0, 0, 0, 0, 0, 0, 0, 0, 0, 0, 0, 0, 0, 0, 0, 0, 0, 0, 0, 0, 0, 0, 0, 0, 0, 0, 0, 1870, 0, 0, 0, 0, 0, 0, 0, 0, 1870, 1870, 1870, 1870, 1870, 1870, 1870, 1870, 0, 0, 0, 0, 1870, 1870, 1870, 1870, 1870, 1870, 1870, 1870, 1870, 1870, 1870, 1870, 1870, 1870, 1870, 1870, 1870, 1870, 1870, 0, 0, 0, 0, 0, 0, 0, 0, 0, 1870, 1870, 1870, 1870, 1870, 1870, 1870, 1870, 1870, 1870, 1870, 1870, 1870, 1870, 1870, 1870, 1870, 1870, 1870, 1870, 1870, 0, 0, 0, 0, 1870, 1870, 1870, 1870, 1870, 1870, 1870, 1870, 1870, 1870, 1870, 0, 0, 0, 0, 0, 0, 0, 0, 1870, 0, 0, 0, 0, 0, 0, 0, 0, 0, 0, 0, 0, 0, 0, 0, 0, 0, 0, 1870, 0, 0, 0, 0, 0, 0, 0, 0, 0, 0, 0, 0, 0, 0, 0, 0, 0, 0, 0, 0, 0, 0, 0, 0, 0, 0, 0, 0, 0, 0, 0, 1870, 0, 0, 0, 0, 0, 0, 0, 0, 0, 0, 0, 0, 0, 0, 0, 0, 0, 0, 0, 0, 0, 0, 0, 1870, 0, 0, 0, 0, 0, 0, 0, 0, 1870, 0, 0, 0, 0, 0, 0, 0, 0, 0, 0, 0, 0, 0, 0, 0, 0, 0, 0, 1870, 0, 0, 0, 0, 0, 0, 0, 0, 0, 0, 0, 0, 0, 0, 0, 0, 0, 0, 0, 0, 0, 0, 0, 0, 0, 0, 0, 0, 0, 0, 0, 1870, 0, 0, 0, 0, 0, 0, 0, 0, 0, 0, 0, 0, 0, 0, 0, 0, 0, 0, 0, 0, 0, 0, 0, 1870, 0, 0, 0, 0, 0, 0, 0, 0, 1870, 0, 0, 0, 0, 0, 0, 0, 0, 0, 0, 0, 0, 0, 0, 0, 0, 0, 0, 1870, 0, 0, 0, 0, 0, 0, 0, 0, 0, 0, 0, 0, 0, 0, 0, 0, 0, 0, 0, 0, 0, 0, 0, 0, 0, 0, 0, 0, 0, 0, 0, 1870, 0, 0, 0, 0, 0, 0, 0, 0, 0, 0, 0, 0, 0, 0, 0, 0, 0, 0, 0, 0, 0, 0, 0, 1870, 0, 0, 0, 0, 0, 0, 0, 0, 1870, 0, 0, 0, 0, 0, 0, 0, 0, 0, 0, 0, 0, 0, 0, 0, 0, 0, 0, 1870, 0, 0, 0, 0, 0, 0, 0, 0, 0, 0, 0, 0, 0, 0, 0, 0, 0, 0, 0, 0, 0, 0, 0, 0, 0, 0, 0, 0, 0, 0, 0, 1870, 0, 0, 0, 0, 0, 0, 0, 0, 0, 0, 0, 0, 0, 0, 0, 0, 0, 0, 0, 0, 0, 0, 0, 1870, 0, 0, 0, 0, 0, 0, 0, 0, 1870, 0, 0, 0, 0, 0, 0, 0, 0, 0, 0, 0, 0, 0, 0, 0, 0, 0, 0, 1870, 0, 0, 0, 0, 0, 0, 0, 0, 0, 0, 0, 0, 0, 0, 0, 0, 0, 0, 0, 0, 0, 0, 0, 0, 0, 0, 0, 0, 0, 0, 0, 1870, 0, 0, 0, 0, 0, 0, 0, 0, 0, 0, 0, 0, 0, 0, 0, 0, 0, 0, 0, 0, 0, 0, 0, 1870, 0, 0, 0, 0, 0, 0, 0, 0, 1870, 0, 0, 0, 0, 0, 0, 0, 0, 0, 0, 0, 0, 0, 0, 0, 0, 0, 0, 0, 0, 0, 0, 0, 0, 0, 0, 0, 0, 0, 0, 0, 0, 0, 0, 0, 0, 0, 0, 0, 0, 0, 0, 0, 0, 0, 0, 0, 0, 0, 0, 0, 0, 0, 0, 0, 0, 0, 0, 0, 0, 0, 0, 0, 0, 0, 0, 0, 0, 0, 0, 0, 0, 0, 0, 1870, 0, 0, 0, 0, 0, 0, 0, 0, 1870, 0, 0, 0, 0, 0, 0, 0, 0, 0, 0, 0, 0, 0, 0, 0, 0, 0, 0, 0, 0, 0, 0, 0, 0, 0, 0, 0, 0, 0, 0, 0, 0, 0, 0, 0, 0, 0, 0, 0, 0, 0, 0, 0, 0, 0, 0, 0, 0, 0, 0, 0, 0, 0, 0, 0, 0, 0, 0, 0, 0, 0, 0, 0, 0, 0, 0, 0, 0, 0, 0, 0, 0, 0, 0, 1870, 0, 0, 0, 0, 0, 0, 0, 0, 1870, 0, 0, 0, 0, 0, 0, 0, 0, 0, 0, 0, 0, 0, 0, 0, 0, 0, 0, 0, 0, 0, 0, 0, 0, 0, 0, 0, 0, 0, 0, 0, 0, 0, 0, 0, 0, 0, 0, 0, 0, 0, 0, 0, 0, 0, 0, 0, 0, 0, 0, 0, 0, 0, 0, 0, 0, 0, 0, 0, 0, 0, 0, 0, 0, 0, 0, 0, 0, 0, 0, 0, 0, 0, 0, 1870, 0, 0, 0, 0, 0, 0, 0, 0, 1870, 0, 0, 0, 0, 0, 0, 0, 0, 0, 0, 0, 0, 0, 0, 0, 0, 0, 0, 0, 0, 0, 0, 0, 0, 0, 0, 0, 0, 0, 0, 0, 0, 0, 0, 0, 0, 0, 0, 0, 0, 0, 0, 0, 0, 0, 0, 0, 0, 0, 0, 0, 0, 0, 0, 0, 0, 0, 0, 0, 0, 0, 0, 0, 0, 0, 0, 0, 0, 0, 0, 0, 0, 0, 0, 1870, 0, 0, 0, 0, 0, 0, 0, 0, 1870, 0, 0, 0, 0, 0, 0, 0, 0, 0, 0, 0, 0, 0, 0, 0, 0, 0, 0, 0, 0, 0, 0, 0, 0, 0, 0, 0, 0, 0, 0, 0, 0, 0, 0, 0, 0, 0, 0, 0, 0, 0, 0, 0, 0, 0, 0, 0, 0, 0, 0, 0, 0, 0, 0, 0, 0, 0, 0, 0, 0, 0, 0, 0, 0, 0, 0, 0, 0, 0, 0, 0, 0, 0, 0, 1870, 0, 0, 0, 0, 0, 0, 0, 0, 1870, 0, 0, 0, 0, 0, 0, 0, 0, 0, 0, 0, 0, 0, 0, 0, 0, 0, 0, 1870, 0, 0, 0, 0, 0, 0, 0, 0, 0, 0, 0, 0, 0, 0, 0, 0, 0, 0, 0, 0, 0, 0, 0, 0, 0, 0, 0, 0, 0, 0, 0, 1870, 0, 0, 0, 0, 0, 0, 0, 0, 0, 0, 0, 0, 0, 0, 0, 0, 0, 0, 0, 0, 0, 0, 0, 1870, 0, 0, 0, 0, 0, 0, 0, 0, 1870, 0, 0, 0, 0, 0, 0, 0, 0, 0, 0, 0, 0, 0, 0, 0, 0, 0, 0, 1870, 0, 0, 0, 0, 0, 0, 0, 0, 0, 0, 0, 0, 0, 0, 0, 0, 0, 0, 0, 0, 0, 0, 0, 0, 0, 0, 0, 0, 0, 0, 0, 1870, 0, 0, 0, 0, 0, 0, 0, 0, 0, 0, 0, 0, 0, 0, 0, 0, 0, 0, 0, 0, 0, 0, 0, 1870, 0, 0, 0, 0, 0, 0, 0, 0, 1870, 0, 0, 0, 0, 0, 0, 0, 0, 0, 0, 0, 0, 0, 0, 0, 0, 0, 0, 1870, 0, 0, 0, 0, 0, 0, 0, 0, 0, 0, 0, 0, 0, 0, 0, 0, 0, 0, 0, 0, 0, 0, 0, 0, 0, 0, 0, 0, 0, 0, 0, 1870, 0, 0, 0, 0, 0, 0, 0, 0, 0, 0, 0, 0, 0, 0, 0, 0, 0, 0, 0, 0, 0, 0, 0, 1870, 0, 0, 0, 0, 0, 0, 0, 0, 1870, 0, 0, 0, 0, 0, 0, 0, 0, 0, 0, 0, 0, 0, 0, 0, 0, 0, 0, 1870, 0, 0, 0, 0, 0, 0, 0, 0, 0, 0, 0, 0, 0, 0, 0, 0, 0, 0, 0, 0, 0, 0, 0, 0, 0, 0, 0, 0, 0, 0, 0, 1870, 0, 0, 0, 0, 0, 0, 0, 0, 0, 0, 0, 0, 0, 0, 0, 0, 0, 0, 0, 0, 0, 0, 0, 1870, 0, 0, 0, 0, 0, 0, 0, 0, 1870, 0, 0, 0, 0, 0, 0, 0, 0, 0, 0, 0, 0, 0, 0, 0, 0, 0, 0, 1870, 0, 0, 0, 0, 0, 0, 0, 0, 0, 0, 0, 0, 0, 0, 0, 0, 0, 0, 0, 0, 0, 0, 0, 0, 0, 0, 0, 0, 0, 0, 0, 1870, 0, 0, 0, 0, 0, 0, 0, 0, 0, 0, 0, 0, 0, 0, 0, 0, 0, 0, 0, 0, 0, 0, 0, 1870, 0, 0, 0, 0, 0, 0, 0, 0, 1870, 0, 0, 0, 0, 0, 0, 0, 0, 0, 0, 0, 0, 0, 0, 0, 0, 0, 0, 1870, 0, 0, 0, 0, 0, 0, 0, 0, 0, 0, 0, 0, 0, 0, 0, 0, 0, 0, 0, 0, 0, 0, 0, 0, 0, 0, 0, 0, 0, 0, 0, 1870, 0, 0, 0, 0, 0, 0, 0, 0, 0, 0, 0, 0, 0, 0, 0, 0, 0, 0, 0, 0, 0, 0, 0, 1870, 0, 0, 0, 0, 0, 0, 0, 0, 1870, 1870, 1870, 1870, 1870, 1870, 1870, 1870, 0, 0, 0, 0, 1870, 1870, 1870, 1870, 1870, 1870, 1870, 1870, 1870, 1870, 1870, 1870, 1870, 1870, 1870, 1870, 1870, 1870, 1870, 0, 0, 0, 0, 0, 0, 0, 0, 0, 1870, 1870, 1870, 1870, 1870, 1870, 1870, 1870, 1870, 1870, 1870, 1870, 1870, 1870, 1870, 1870, 1870, 1870, 1870, 1870, 1870, 0, 0, 0, 0, 1870, 1870, 1870, 1870, 1870, 1870, 1870, 1870, 1870, 1870, 1870, 0, 0, 0, 0, 0, 0, 0, 0, 1870, 0, 0, 0, 0, 0, 0, 0, 0, 0, 0, 0, 0, 0, 0, 0, 0, 0, 0, 0, 0, 0, 0, 0, 0, 0, 0, 0, 0, 0, 0, 0, 0, 0, 0, 0, 0, 0, 0, 0, 0, 0, 0, 0, 0, 0, 0, 0, 0, 0, 0, 0, 0, 0, 0, 0, 0, 0, 0, 0, 0, 0, 0, 0, 0, 0, 0, 0, 0, 0, 0, 0, 0, 0, 0, 1870, 0, 0, 0, 0, 0, 0, 0, 0, 1870, 0, 0, 0, 0, 0, 0, 0, 0, 0, 0, 0, 0, 0, 0, 0, 0, 0, 0, 0, 0, 0, 0, 0, 0, 0, 0, 0, 0, 0, 0, 0, 0, 0, 0, 0, 0, 0, 0, 0, 0, 0, 0, 0, 0, 0, 0, 0, 0, 0, 0, 0, 0, 0, 0, 0, 0, 0, 0, 0, 0, 0, 0, 0, 0, 0, 0, 0, 0, 0, 0, 0, 0, 0, 0, 1870, 0, 0, 0, 0, 0, 0, 0, 0, 1870, 0, 0, 0, 0, 0, 0, 0, 0, 0, 0, 0, 0, 0, 0, 0, 0, 0, 0, 0, 0, 0, 0, 0, 0, 0, 0, 0, 0, 0, 0, 0, 0, 0, 0, 0, 0, 0, 0, 0, 0, 0, 0, 0, 0, 0, 0, 0, 0, 0, 0, 0, 0, 0, 0, 0, 0, 0, 0, 0, 0, 0, 0, 0, 0, 0, 0, 0, 0, 0, 0, 0, 0, 0, 0, 1870, 0, 0, 0, 0, 0, 0, 0, 0, 1870, 0, 0, 0, 0, 0, 0, 0, 0, 0, 0, 0, 0, 0, 0, 0, 0, 0, 0, 0, 0, 0, 0, 0, 0, 0, 0, 0, 0, 0, 0, 0, 0, 0, 0, 0, 0, 0, 0, 0, 0, 0, 0, 0, 0, 0, 0, 0, 0, 0, 0, 0, 0, 0, 0, 0, 0, 0, 0, 0, 0, 0, 0, 0, 0, 0, 0, 0, 0, 0, 0, 0, 0, 0, 0, 1870, 0, 0, 0, 0, 0, 0, 0, 0, 1870, 0, 0, 0, 0, 0, 0, 0, 0, 0, 0, 0, 0, 0, 0, 0, 0, 0, 0, 0, 0, 0, 0, 0, 0, 0, 0, 0, 0, 0, 0, 0, 0, 0, 0, 0, 0, 0, 0, 0, 0, 0, 0, 0, 0, 0, 0, 0, 0, 0, 0, 0, 0, 0, 0, 0, 0, 0, 0, 0, 0, 0, 0, 0, 0, 0, 0, 0, 0, 0, 0, 0, 0, 0, 0, 1870, 0, 0, 0, 0, 0, 0, 0, 0, 1870, 1870, 1870, 1870, 1870, 1870, 1870, 1870, 0, 0, 0, 0, 1870, 1870, 1870, 1870, 1870, 1870, 1870, 1870, 1870, 1870, 1870, 1870, 1870, 1870, 1870, 0, 0, 0, 0, 1870, 1870, 1870, 1870, 1870, 1870, 1870, 1870, 1870, 1870, 1870, 1870, 1870, 1870, 1870, 0, 0, 0, 0, 1870, 1870, 1870, 1870, 1870, 1870, 1870, 1870, 1870, 1870, 1870, 1870, 1870, 1870, 0, 0, 0, 0, 1870, 1870, 1870, 1870, 1870, 1870, 1870, 1870, 0, 0, 0, 0, 0, 0, 0, 0, 1870, 0, 0, 0, 0, 0, 0, 0, 0, 0, 0, 0, 0, 0, 0, 0, 0, 0, 0, 1870, 0, 0, 0, 0, 0, 0, 0, 0, 0, 0, 0, 0, 0, 0, 0, 0, 0, 0, 1870, 0, 0, 0, 0, 0, 0, 0, 0, 0, 0, 0, 0, 0, 0, 0, 0, 0, 0, 1870, 0, 0, 0, 0, 0, 0, 0, 0, 0, 0, 0, 0, 0, 0, 0, 0, 0, 1870, 0, 0, 0, 0, 0, 0, 0, 0, 1870, 0, 0, 0, 0, 0, 0, 0, 0, 0, 0, 0, 0, 0, 0, 0, 0, 0, 0, 1870, 0, 0, 0, 0, 0, 0, 0, 0, 0, 0, 0, 0, 0, 0, 0, 0, 0, 0, 1870, 0, 0, 0, 0, 0, 0, 0, 0, 0, 0, 0, 0, 0, 0, 0, 0, 0, 0, 1870, 0, 0, 0, 0, 0, 0, 0, 0, 0, 0, 0, 0, 0, 0, 0, 0, 0, 1870, 0, 0, 0, 0, 0, 0, 0, 0, 1870, 0, 0, 0, 0, 0, 0, 0, 0, 0, 0, 0, 0, 0, 0, 0, 0, 0, 0, 1870, 0, 0, 0, 0, 0, 0, 0, 0, 0, 0, 0, 0, 0, 0, 0, 0, 0, 0, 1870, 0, 0, 0, 0, 0, 0, 0, 0, 0, 0, 0, 0, 0, 0, 0, 0, 0, 0, 1870, 0, 0, 0, 0, 0, 0, 0, 0, 0, 0, 0, 0, 0, 0, 0, 0, 0, 1870, 0, 0, 0, 0, 0, 0, 0, 0, 1870, 0, 0, 0, 0, 0, 0, 0, 0, 0, 0, 0, 0, 0, 0, 0, 0, 0, 0, 1870, 0, 0, 0, 0, 0, 0, 0, 0, 0, 0, 0, 0, 0, 0, 0, 0, 0, 0, 1870, 0, 0, 0, 0, 0, 0, 0, 0, 0, 0, 0, 0, 0, 0, 0, 0, 0, 0, 1870, 0, 0, 0, 0, 0, 0, 0, 0, 0, 0, 0, 0, 0, 0, 0, 0, 0, 1870, 0, 0, 0, 0, 0, 0, 0, 0, 1870, 0, 0, 0, 0, 0, 0, 0, 0, 0, 0, 0, 0, 0, 0, 0, 0, 0, 0, 1870, 0, 0, 0, 0, 0, 0, 0, 0, 0, 0, 0, 0, 0, 0, 0, 0, 0, 0, 1870, 0, 0, 0, 0, 0, 0, 0, 0, 0, 0, 0, 0, 0, 0, 0, 0, 0, 0, 1870, 0, 0, 0, 0, 0, 0, 0, 0, 0, 0, 0, 0, 0, 0, 0, 0, 0, 1870, 0, 0, 0, 0, 0, 0, 0, 0, 1870, 0, 0, 0, 0, 0, 0, 0, 0, 0, 0, 0, 0, 0, 0, 0, 0, 0, 0, 1870, 0, 0, 0, 0, 0, 0, 0, 0, 0, 0, 0, 0, 0, 0, 0, 0, 0, 0, 1870, 0, 0, 0, 0, 0, 0, 0, 0, 0, 0, 0, 0, 0, 0, 0, 0, 0, 0, 1870, 0, 0, 0, 0, 0, 0, 0, 0, 0, 0, 0, 0, 0, 0, 0, 0, 0, 1870, 0, 0, 0, 0, 0, 0, 0, 0, 1870, 0, 0, 0, 0, 0, 0, 0, 0, 0, 0, 0, 0, 0, 0, 0, 0, 0, 0, 1870, 0, 0, 0, 0, 0, 0, 0, 0, 0, 0, 0, 0, 0, 0, 0, 0, 0, 0, 1870, 0, 0, 0, 0, 0, 0, 0, 0, 0, 0, 0, 0, 0, 0, 0, 0, 0, 0, 1870, 0, 0, 0, 0, 0, 0, 0, 0, 0, 0, 0, 0, 0, 0, 0, 0, 0, 1870, 0, 0, 0, 0, 0, 0, 0, 0, 1870, 0, 0, 0, 0, 0, 0, 0, 0, 0, 0, 0, 0, 0, 0, 0, 0, 0, 0, 1870, 0, 0, 0, 0, 0, 0, 0, 0, 0, 0, 0, 0, 0, 0, 0, 0, 0, 0, 1870, 0, 0, 0, 0, 0, 0, 0, 0, 0, 0, 0, 0, 0, 0, 0, 0, 0, 0, 1870, 0, 0, 0, 0, 0, 0, 0, 0, 0, 0, 0, 0, 0, 0, 0, 0, 0, 1870, 0, 0, 0, 0, 0, 0, 0, 0, 1870, 0, 0, 0, 0, 0, 0, 0, 0, 0, 0, 0, 0, 0, 0, 0, 0, 0, 0, 1870, 0, 0, 0, 0, 0, 0, 0, 0, 0, 0, 0, 0, 0, 0, 0, 0, 0, 0, 1870, 0, 0, 0, 0, 0, 0, 0, 0, 0, 0, 0, 0, 0, 0, 0, 0, 0, 0, 1870, 0, 0, 0, 0, 0, 0, 0, 0, 0, 0, 0, 0, 0, 0, 0, 0, 0, 1870, 0, 0, 0, 0, 0, 0, 0, 0, 1870, 0, 0, 0, 0, 0, 0, 0, 0, 0, 0, 0, 0, 0, 0, 0, 0, 0, 0, 1870, 0, 0, 0, 0, 0, 0, 0, 0, 0, 0, 0, 0, 0, 0, 0, 0, 0, 0, 1870, 0, 0, 0, 0, 0, 0, 0, 0, 0, 0, 0, 0, 0, 0, 0, 0, 0, 0, 1870, 0, 0, 0, 0, 0, 0, 0, 0, 0, 0, 0, 0, 0, 0, 0, 0, 0, 1870, 0, 0, 0, 0, 0, 0, 0, 0, 1870, 0, 0, 0, 0, 0, 0, 0, 0, 0, 0, 0, 0, 0, 0, 0, 0, 0, 0, 1870, 0, 0, 0, 0, 0, 0, 0, 0, 0, 0, 0, 0, 0, 0, 0, 0, 0, 0, 1870, 0, 0, 0, 0, 0, 0, 0, 0, 0, 0, 0, 0, 0, 0, 0, 0, 0, 0, 1870, 0, 0, 0, 0, 0, 0, 0, 0, 0, 0, 0, 0, 0, 0, 0, 0, 0, 1870, 0, 0, 0, 0, 0, 0, 0, 0, 1870, 0, 0, 0, 0, 0, 0, 0, 0, 0, 0, 0, 0, 0, 0, 0, 0, 0, 0, 1870, 0, 0, 0, 0, 0, 0, 0, 0, 0, 0, 0, 0, 0, 0, 0, 0, 0, 0, 1870, 0, 0, 0, 0, 0, 0, 0, 0, 0, 0, 0, 0, 0, 0, 0, 0, 0, 0, 1870, 0, 0, 0, 0, 0, 0, 0, 0, 0, 0, 0, 0, 0, 0, 0, 0, 0, 1870, 0, 0, 0, 0, 0, 0, 0, 0, 1870, 0, 0, 0, 0, 0, 0, 0, 0, 0, 0, 0, 0, 0, 0, 0, 0, 0, 0, 1870, 0, 0, 0, 0, 0, 0, 0, 0, 0, 0, 0, 0, 0, 0, 0, 0, 0, 0, 1870, 0, 0, 0, 0, 0, 0, 0, 0, 0, 0, 0, 0, 0, 0, 0, 0, 0, 0, 1870, 0, 0, 0, 0, 0, 0, 0, 0, 0, 0, 0, 0, 0, 0, 0, 0, 0, 1870, 0, 0, 0, 0, 0, 0, 0, 0, 1870, 0, 0, 0, 0, 0, 0, 0, 0, 0, 0, 0, 0, 0, 0, 0, 0, 0, 0, 1870, 0, 0, 0, 0, 0, 0, 0, 0, 0, 0, 0, 0, 0, 0, 0, 0, 0, 0, 1870, 0, 0, 0, 0, 0, 0, 0, 0, 0, 0, 0, 0, 0, 0, 0, 0, 0, 0, 1870, 0, 0, 0, 0, 0, 0, 0, 0, 0, 0, 0, 0, 0, 0, 0, 0, 0, 1870, 0, 0, 0, 0, 0, 0, 0, 0, 1870, 0, 0, 0, 0, 0, 0, 0, 0, 0, 0, 0, 0, 0, 0, 0, 0, 0, 0, 1870, 0, 0, 0, 0, 0, 0, 0, 0, 0, 0, 0, 0, 0, 0, 0, 0, 0, 0, 1870, 0, 0, 0, 0, 0, 0, 0, 0, 0, 0, 0, 0, 0, 0, 0, 0, 0, 0, 1870, 0, 0, 0, 0, 0, 0, 0, 0, 0, 0, 0, 0, 0, 0, 0, 0, 0, 1870, 0, 0, 0, 0, 0, 0, 0, 0, 1870, 0, 0, 0, 0, 0, 0, 0, 0, 0, 0, 0, 0, 0, 0, 0, 0, 0, 0, 1870, 0, 0, 0, 0, 0, 0, 0, 0, 0, 0, 0, 0, 0, 0, 0, 0, 0, 0, 1870, 0, 0, 0, 0, 0, 0, 0, 0, 0, 0, 0, 0, 0, 0, 0, 0, 0, 0, 1870, 0, 0, 0, 0, 0, 0, 0, 0, 0, 0, 0, 0, 0, 0, 0, 0, 0, 1870, 0, 0, 0, 0, 0, 0, 0, 0, 1870, 1870, 1870, 1870, 1870, 1870, 1870, 1870, 1870, 1870, 1870, 1870, 1870, 1870, 1870, 1870, 1870, 1870, 1870, 1870, 1870, 1870, 1870, 1870, 1870, 1870, 1870, 1870, 1870, 1870, 1870, 1870, 1870, 1870, 1870, 1870, 1870, 1870, 1870, 1870, 1870, 1870, 1870, 1870, 1870, 1870, 1870, 1870, 1870, 1870, 1870, 1870, 1870, 1870, 1870, 1870, 1870, 1870, 1870, 1870, 1870, 1870, 1870, 1870, 1870, 1870, 1870, 1870, 1870, 1870, 1870, 1870, 1870, 1870, 1870, 1870, 0, 0, 0, 0, 0, 0, 0, 0, 0, 0, 0, 0, 0, 0, 0, 0, 0, 0, 0, 0, 0, 0, 0, 0, 0, 0, 0, 0, 0, 0, 0, 0, 0, 0, 0, 0, 0, 0, 0, 0, 0, 0, 0, 0, 0, 0, 0, 0, 0, 0, 0, 0, 0, 0, 0, 0, 0, 0, 0, 0, 0, 0, 0, 0, 0, 0, 0, 0, 0, 0, 0, 0, 0, 0, 0, 0, 0, 0, 0, 0, 0, 0, 0, 0, 0]}, {"id": 4, "name": "Furniture", "type": "objectgroup", "opacity": 1, "visible": true, "x": 0, "y": 0, "draworder": "topdown", "objects": [{"id": 70, "rotation": 0, "visible": true, "x": 1168, "y": 64, "width": 48, "height": 16, "name": "Pantry Shelf", "gid": 590}, {"id": 71, "rotation": 0, "visible": true, "x": 1232, "y": 64, "width": 48, "height": 16, "name": "Pantry Shelf", "gid": 590}, {"id": 41, "rotation": 0, "visible": true, "x": 672, "y": 80, "width": 32, "height": 32, "name": "Filing Cabinet", "gid": 2603}, {"id": 17, "rotation": 0, "visible": true, "x": 464, "y": 96, "width": 32, "height": 32, "name": "Desk", "gid": 2365}, {"id": 20, "rotation": 0, "visible": true, "x": 528, "y": 96, "width": 32, "height": 32, "name": "Desk", "gid": 2366}, {"id": 23, "rotation": 0, "visible": true, "x": 592, "y": 96, "width": 32, "height": 32, "name": "Desk", "gid": 2367}, {"id": 26, "rotation": 0, "visible": true, "x": 656, "y": 96, "width": 32, "height": 32, "name": "Desk", "gid": 2365}, {"id": 68, "rotation": 0, "visible": true, "x": 1056, "y": 96, "width": 32, "height": 48, "name": "Coffee Machine", "gid": 2361}, {"id": 69, "rotation": 0, "visible": true, "x": 1104, "y": 96, "width": 32, "height": 48, "name": "Vending Machine", "gid": 2381}, {"id": 2, "rotation": 0, "visible": true, "x": 240, "y": 112, "width": 32, "height": 32, "name": "Reception Desk", "gid": 2366}, {"id": 3, "rotation": 0, "visible": true, "x": 272, "y": 112, "width": 32, "height": 32, "name": "Reception Desk", "gid": 2367}, {"id": 4, "rotation": 0, "visible": true, "x": 304, "y": 112, "width": 32, "height": 32, "name": "Reception Desk", "gid": 2366}, {"id": 18, "rotation": 0, "visible": true, "x": 464, "y": 128, "width": 16, "height": 32, "name": "Office Chair", "gid": 2313}, {"id": 21, "rotation": 0, "visible": true, "x": 528, "y": 128, "width": 16, "height": 32, "name": "Office Chair", "gid": 2313}, {"id": 24, "rotation": 0, "visible": true, "x": 592, "y": 128, "width": 16, "height": 32, "name": "Office Chair", "gid": 2313}, {"id": 27, "rotation": 0, "visible": true, "x": 656, "y": 128, "width": 16, "height": 32, "name": "Office Chair", "gid": 2313}, {"id": 42, "rotation": 0, "visible": true, "x": 672, "y": 128, "width": 32, "height": 32, "name": "Filing Cabinet", "gid": 2603}, {"id": 5, "rotation": 0, "visible": true, "x": 272, "y": 144, "width": 16, "height": 32, "name": "Receptionist Chair", "gid": 2313}, {"id": 53, "rotation": 0, "visible": true, "x": 832, "y": 160, "width": 16, "height": 32, "name": "Meeting Chair", "gid": 2313}, {"id": 55, "rotation": 0, "visible": true, "x": 944, "y": 160, "width": 16, "height": 32, "name": "Meeting Chair", "gid": 2313}, {"id": 72, "rotation": 0, "visible": true, "x": 1072, "y": 160, "width": 32, "height": 32, "name": "Cafe Table", "gid": 2492}, {"id": 75, "rotation": 0, "visible": true, "x": 1152, "y": 160, "width": 32, "height": 32, "name": "Cafe Table", "gid": 2492}, {"id": 78, "rotation": 0, "visible": true, "x": 1232, "y": 160, "width": 32, "height": 32, "name": "Cafe Table", "gid": 2492}, {"id": 49, "rotation": 0, "visible": true, "x": 848, "y": 176, "width": 32, "height": 64, "name": "Conference Table", "gid": 2216}, {"id": 50, "rotation": 0, "visible": true, "x": 880, "y": 176, "width": 32, "height": 64, "name": "Conference Table", "gid": 2216}, {"id": 51, "rotation": 0, "visible": true, "x": 912, "y": 176, "width": 32, "height": 64, "name": "Conference Table", "gid": 2216}, {"id": 1, "rotation": 0, "visible": true, "x": 144, "y": 192, "width": 32, "height": 64, "name": "Entry Turnstile", "gid": 2754}, {"id": 29, "rotation": 0, "visible": true, "x": 464, "y": 192, "width": 32, "height": 32, "name": "Desk", "gid": 2368}, {"id": 32, "rotation": 0, "visible": true, "x": 528, "y": 192, "width": 32, "height": 32, "name": "Desk", "gid": 2365}, {"id": 35, "rotation": 0, "visible": true, "x": 592, "y": 192, "width": 32, "height": 32, "name": "Desk", "gid": 2365}, {"id": 38, "rotation": 0, "visible": true, "x": 656, "y": 192, "width": 32, "height": 32, "name": "Desk", "gid": 2366}, {"id": 57, "rotation": 0, "visible": true, "x": 832, "y": 192, "width": 16, "height": 32, "name": "Meeting Chair", "gid": 2313}, {"id": 59, "rotation": 0, "visible": true, "x": 944, "y": 192, "width": 16, "height": 32, "name": "Meeting Chair", "gid": 2313}, {"id": 73, "rotation": 0, "visible": true, "x": 1072, "y": 192, "width": 32, "height": 32, "name": "Cafe Seating", "gid": 2554}, {"id": 76, "rotation": 0, "visible": true, "x": 1152, "y": 192, "width": 32, "height": 32, "name": "Cafe Seating", "gid": 2554}, {"id": 79, "rotation": 0, "visible": true, "x": 1232, "y": 192, "width": 32, "height": 32, "name": "Cafe Seating", "gid": 2554}, {"id": 7, "rotation": 0, "visible": true, "x": 192, "y": 224, "width": 48, "height": 32, "name": "Lobby Seating", "gid": 2785}, {"id": 8, "rotation": 0, "visible": true, "x": 320, "y": 224, "width": 48, "height": 32, "name": "Lobby Seating", "gid": 2785}, {"id": 30, "rotation": 0, "visible": true, "x": 464, "y": 224, "width": 16, "height": 32, "name": "Office Chair", "gid": 2313}, {"id": 33, "rotation": 0, "visible": true, "x": 528, "y": 224, "width": 16, "height": 32, "name": "Office Chair", "gid": 2313}, {"id": 36, "rotation": 0, "visible": true, "x": 592, "y": 224, "width": 16, "height": 32, "name": "Office Chair", "gid": 2313}, {"id": 39, "rotation": 0, "visible": true, "x": 656, "y": 224, "width": 16, "height": 32, "name": "Office Chair", "gid": 2313}, {"id": 61, "rotation": 0, "visible": true, "x": 832, "y": 224, "width": 16, "height": 32, "name": "Meeting Chair", "gid": 2313}, {"id": 63, "rotation": 0, "visible": true, "x": 944, "y": 224, "width": 16, "height": 32, "name": "Meeting Chair", "gid": 2313}, {"id": 43, "rotation": 0, "visible": true, "x": 672, "y": 240, "width": 32, "height": 48, "name": "Water Cooler", "gid": 2381}, {"id": 81, "rotation": 0, "visible": true, "x": 1072, "y": 240, "width": 32, "height": 32, "name": "Cafe Table", "gid": 2492}, {"id": 84, "rotation": 0, "visible": true, "x": 1152, "y": 240, "width": 32, "height": 32, "name": "Cafe Table", "gid": 2492}, {"id": 87, "rotation": 0, "visible": true, "x": 1232, "y": 240, "width": 32, "height": 32, "name": "Cafe Table", "gid": 2492}, {"id": 9, "rotation": 0, "visible": true, "x": 256, "y": 272, "width": 32, "height": 32, "name": "Lobby Seating", "gid": 2770}, {"id": 82, "rotation": 0, "visible": true, "x": 1072, "y": 272, "width": 32, "height": 32, "name": "Cafe Seating", "gid": 2554}, {"id": 85, "rotation": 0, "visible": true, "x": 1152, "y": 272, "width": 32, "height": 32, "name": "Cafe Seating", "gid": 2554}, {"id": 88, "rotation": 0, "visible": true, "x": 1232, "y": 272, "width": 32, "height": 32, "name": "Cafe Seating", "gid": 2554}, {"id": 91, "rotation": 0, "visible": true, "x": 144, "y": 448, "width": 48, "height": 16, "name": "Bookshelf", "gid": 590}, {"id": 92, "rotation": 0, "visible": true, "x": 208, "y": 448, "width": 48, "height": 16, "name": "Bookshelf", "gid": 590}, {"id": 144, "rotation": 0, "visible": true, "x": 1248, "y": 464, "width": 32, "height": 32, "name": "Archive", "gid": 2603}, {"id": 93, "rotation": 0, "visible": true, "x": 144, "y": 496, "width": 48, "height": 16, "name": "Bookshelf", "gid": 590}, {"id": 94, "rotation": 0, "visible": true, "x": 208, "y": 496, "width": 48, "height": 16, "name": "Bookshelf", "gid": 590}, {"id": 105, "rotation": 0, "visible": true, "x": 528, "y": 496, "width": 48, "height": 16, "name": "Lounge Sofa", "gid": 2626}, {"id": 126, "rotation": 0, "visible": true, "x": 976, "y": 512, "width": 32, "height": 32, "name": "Desk", "gid": 2366}, {"id": 129, "rotation": 0, "visible": true, "x": 1040, "y": 512, "width": 32, "height": 32, "name": "Desk", "gid": 2365}, {"id": 132, "rotation": 0, "visible": true, "x": 1104, "y": 512, "width": 32, "height": 32, "name": "Desk", "gid": 2365}, {"id": 95, "rotation": 0, "visible": true, "x": 144, "y": 544, "width": 48, "height": 16, "name": "Bookshelf", "gid": 590}, {"id": 96, "rotation": 0, "visible": true, "x": 208, "y": 544, "width": 48, "height": 16, "name": "Bookshelf", "gid": 590}, {"id": 99, "rotation": 0, "visible": true, "x": 304, "y": 544, "width": 32, "height": 64, "name": "Study Table", "gid": 2216}, {"id": 100, "rotation": 0, "visible": true, "x": 336, "y": 544, "width": 32, "height": 64, "name": "Study Table", "gid": 2216}, {"id": 108, "rotation": 0, "visible": true, "x": 496, "y": 544, "width": 16, "height": 32, "name": "Lounge Sofa", "gid": 2766}, {"id": 109, "rotation": 0, "visible": true, "x": 608, "y": 544, "width": 16, "height": 32, "name": "Lounge Sofa", "gid": 2766}, {"id": 127, "rotation": 0, "visible": true, "x": 976, "y": 544, "width": 16, "height": 32, "name": "Office Chair", "gid": 2313}, {"id": 130, "rotation": 0, "visible": true, "x": 1040, "y": 544, "width": 16, "height": 32, "name": "Office Chair", "gid": 2313}, {"id": 133, "rotation": 0, "visible": true, "x": 1104, "y": 544, "width": 16, "height": 32, "name": "Office Chair", "gid": 2313}, {"id": 101, "rotation": 0, "visible": true, "x": 304, "y": 560, "width": 48, "height": 16, "name": "Study Bench", "gid": 2630}, {"id": 107, "rotation": 0, "visible": true, "x": 544, "y": 560, "width": 32, "height": 32, "name": "Coffee Table", "gid": 2492}, {"id": 110, "rotation": 0, "visible": true, "x": 704, "y": 560, "width": 32, "height": 64, "name": "Game Table", "gid": 2216}, {"id": 111, "rotation": 0, "visible": true, "x": 736, "y": 560, "width": 32, "height": 64, "name": "Game Table", "gid": 2216}, {"id": 112, "rotation": 0, "visible": true, "x": 768, "y": 560, "width": 32, "height": 64, "name": "Game Table", "gid": 2216}, {"id": 97, "rotation": 0, "visible": true, "x": 144, "y": 592, "width": 48, "height": 16, "name": "Bookshelf", "gid": 590}, {"id": 98, "rotation": 0, "visible": true, "x": 208, "y": 592, "width": 48, "height": 16, "name": "Bookshelf", "gid": 590}, {"id": 106, "rotation": 0, "visible": true, "x": 528, "y": 592, "width": 48, "height": 16, "name": "Lounge Sofa", "gid": 2626}, {"id": 135, "rotation": 0, "visible": true, "x": 976, "y": 592, "width": 32, "height": 32, "name": "Desk", "gid": 2365}, {"id": 138, "rotation": 0, "visible": true, "x": 1040, "y": 592, "width": 32, "height": 32, "name": "Desk", "gid": 2367}, {"id": 141, "rotation": 0, "visible": true, "x": 1104, "y": 592, "width": 32, "height": 32, "name": "Desk", "gid": 2365}, {"id": 113, "rotation": 0, "visible": true, "x": 704, "y": 608, "width": 48, "height": 32, "name": "Game Seating", "gid": 2558}, {"id": 114, "rotation": 0, "visible": true, "x": 784, "y": 608, "width": 48, "height": 32, "name": "Game Seating", "gid": 2315}, {"id": 136, "rotation": 0, "visible": true, "x": 976, "y": 624, "width": 16, "height": 32, "name": "Office Chair", "gid": 2313}, {"id": 139, "rotation": 0, "visible": true, "x": 1040, "y": 624, "width": 16, "height": 32, "name": "Office Chair", "gid": 2313}, {"id": 142, "rotation": 0, "visible": true, "x": 1104, "y": 624, "width": 16, "height": 32, "name": "Office Chair", "gid": 2313}, {"id": 192, "rotation": 0, "visible": true, "x": 752, "y": 816, "width": 48, "height": 16, "name": "HR Files", "gid": 590}, {"id": 180, "rotation": 0, "visible": true, "x": 672, "y": 832, "width": 32, "height": 32, "name": "Server Rack", "gid": 2603}, {"id": 193, "rotation": 0, "visible": true, "x": 976, "y": 832, "width": 32, "height": 32, "name": "Personnel Files", "gid": 2603}, {"id": 150, "rotation": 0, "visible": true, "x": 320, "y": 848, "width": 32, "height": 32, "name": "Lounge Chairs", "gid": 2770}, {"id": 156, "rotation": 0, "visible": true, "x": 464, "y": 848, "width": 32, "height": 32, "name": "Desk", "gid": 2368}, {"id": 159, "rotation": 0, "visible": true, "x": 528, "y": 848, "width": 32, "height": 32, "name": "Desk", "gid": 2365}, {"id": 162, "rotation": 0, "visible": true, "x": 592, "y": 848, "width": 32, "height": 32, "name": "Desk", "gid": 2368}, {"id": 165, "rotation": 0, "visible": true, "x": 656, "y": 848, "width": 32, "height": 32, "name": "Desk", "gid": 2365}, {"id": 184, "rotation": 0, "visible": true, "x": 832, "y": 848, "width": 32, "height": 32, "name": "HR Desk", "gid": 2366}, {"id": 185, "rotation": 0, "visible": true, "x": 864, "y": 848, "width": 32, "height": 32, "name": "HR Desk", "gid": 2367}, {"id": 186, "rotation": 0, "visible": true, "x": 896, "y": 848, "width": 32, "height": 32, "name": "HR Desk", "gid": 2366}, {"id": 198, "rotation": 0, "visible": true, "x": 1104, "y": 864, "width": 32, "height": 32, "name": "Terrace Bench", "gid": 1113}, {"id": 199, "rotation": 0, "visible": true, "x": 1216, "y": 864, "width": 32, "height": 32, "name": "Terrace Bench", "gid": 1113}, {"id": 147, "rotation": 0, "visible": true, "x": 176, "y": 880, "width": 48, "height": 16, "name": "Lounge Sofa", "gid": 2622}, {"id": 148, "rotation": 0, "visible": true, "x": 256, "y": 880, "width": 16, "height": 32, "name": "Lounge Sofa", "gid": 2758}, {"id": 157, "rotation": 0, "visible": true, "x": 464, "y": 880, "width": 16, "height": 32, "name": "Office Chair", "gid": 2313}, {"id": 160, "rotation": 0, "visible": true, "x": 528, "y": 880, "width": 16, "height": 32, "name": "Office Chair", "gid": 2313}, {"id": 163, "rotation": 0, "visible": true, "x": 592, "y": 880, "width": 16, "height": 32, "name": "Office Chair", "gid": 2313}, {"id": 166, "rotation": 0, "visible": true, "x": 656, "y": 880, "width": 16, "height": 32, "name": "Office Chair", "gid": 2313}, {"id": 181, "rotation": 0, "visible": true, "x": 672, "y": 880, "width": 32, "height": 32, "name": "Server Rack", "gid": 2603}, {"id": 187, "rotation": 0, "visible": true, "x": 864, "y": 880, "width": 16, "height": 32, "name": "HR Chair", "gid": 2313}, {"id": 151, "rotation": 0, "visible": true, "x": 320, "y": 928, "width": 32, "height": 32, "name": "Lounge Chairs", "gid": 2554}, {"id": 205, "rotation": 0, "visible": true, "x": 1056, "y": 928, "width": 48, "height": 48, "name": "Flower Bench", "gid": 672}, {"id": 149, "rotation": 0, "visible": true, "x": 192, "y": 944, "width": 32, "height": 32, "name": "Coffee Table", "gid": 2492}, {"id": 168, "rotation": 0, "visible": true, "x": 464, "y": 944, "width": 32, "height": 32, "name": "Desk", "gid": 2368}, {"id": 171, "rotation": 0, "visible": true, "x": 528, "y": 944, "width": 32, "height": 32, "name": "Desk", "gid": 2365}, {"id": 174, "rotation": 0, "visible": true, "x": 592, "y": 944, "width": 32, "height": 32, "name": "Desk", "gid": 2366}, {"id": 177, "rotation": 0, "visible": true, "x": 656, "y": 944, "width": 32, "height": 32, "name": "Desk", "gid": 2368}, {"id": 189, "rotation": 0, "visible": true, "x": 832, "y": 944, "width": 32, "height": 32, "name": "Visitor Seating", "gid": 2770}, {"id": 191, "rotation": 0, "visible": true, "x": 880, "y": 944, "width": 32, "height": 32, "name": "Side Table", "gid": 2492}, {"id": 190, "rotation": 0, "visible": true, "x": 912, "y": 944, "width": 32, "height": 32, "name": "Visitor Seating", "gid": 2770}, {"id": 169, "rotation": 0, "visible": true, "x": 464, "y": 976, "width": 16, "height": 32, "name": "Office Chair", "gid": 2313}, {"id": 172, "rotation": 0, "visible": true, "x": 528, "y": 976, "width": 16, "height": 32, "name": "Office Chair", "gid": 2313}, {"id": 175, "rotation": 0, "visible": true, "x": 592, "y": 976, "width": 16, "height": 32, "name": "Office Chair", "gid": 2313}, {"id": 178, "rotation": 0, "visible": true, "x": 656, "y": 976, "width": 16, "height": 32, "name": "Office Chair", "gid": 2313}, {"id": 200, "rotation": 0, "visible": true, "x": 1088, "y": 976, "width": 48, "height": 16, "name": "Terrace Bench", "gid": 582}, {"id": 201, "rotation": 0, "visible": true, "x": 1216, "y": 976, "width": 48, "height": 16, "name": "Terrace Bench", "gid": 582}, {"id": 152, "rotation": 0, "visible": true, "x": 144, "y": 1024, "width": 32, "height": 64, "name": "Games Table", "gid": 2216}, {"id": 153, "rotation": 0, "visible": true, "x": 176, "y": 1024, "width": 32, "height": 64, "name": "Games Table", "gid": 2216}]}, {"id": 5, "name": "Decorations", "type": "objectgroup", "opacity": 1, "visible": true, "x": 0, "y": 0, "draworder": "topdown", "objects": [{"id": 303, "rotation": 0, "visible": true, "x": 80, "y": 32, "width": 16, "height": 16, "name": "Shrub", "gid": 1470}, {"id": 298, "rotation": 0, "visible": true, "x": 80, "y": 48, "width": 16, "height": 16, "name": "Shrub", "gid": 1471}, {"id": 281, "rotation": 0, "visible": true, "x": 80, "y": 64, "width": 16, "height": 16, "name": "Shrub", "gid": 1467}, {"id": 306, "rotation": 0, "visible": true, "x": 96, "y": 64, "width": 16, "height": 16, "name": "Shrub", "gid": 1470}, {"id": 12, "rotation": 0, "visible": true, "x": 160, "y": 64, "width": 48, "height": 16, "name": "Lobby Posters", "gid": 2621}, {"id": 44, "rotation": 0, "visible": true, "x": 544, "y": 64, "width": 32, "height": 32, "name": "Team Board", "gid": 2547}, {"id": 227, "rotation": 0, "visible": true, "x": 16, "y": 80, "width": 48, "height": 64, "name": "Tree", "gid": 1842}, {"id": 291, "rotation": 0, "visible": true, "x": 80, "y": 80, "width": 16, "height": 16, "name": "Shrub", "gid": 1469}, {"id": 305, "rotation": 0, "visible": true, "x": 96, "y": 80, "width": 16, "height": 16, "name": "Shrub", "gid": 1468}, {"id": 11, "rotation": 0, "visible": true, "x": 336, "y": 80, "width": 32, "height": 32, "name": "Elevator", "gid": 2386}, {"id": 10, "rotation": 0, "visible": true, "x": 368, "y": 80, "width": 32, "height": 32, "name": "Elevator", "gid": 2390}, {"id": 47, "rotation": 0, "visible": true, "x": 864, "y": 80, "width": 32, "height": 32, "name": "Presentation Screen", "gid": 2551}, {"id": 48, "rotation": 0, "visible": true, "x": 928, "y": 80, "width": 32, "height": 32, "name": "Whiteboard", "gid": 2547}, {"id": 334, "rotation": 0, "visible": true, "x": 80, "y": 96, "width": 16, "height": 16, "name": "Shrub", "gid": 1470}, {"id": 15, "rotation": 0, "visible": true, "x": 144, "y": 96, "width": 16, "height": 32, "name": "Plant", "gid": 2571}, {"id": 64, "rotation": 0, "visible": true, "x": 752, "y": 96, "width": 16, "height": 32, "name": "Plant", "gid": 2571}, {"id": 65, "rotation": 0, "visible": true, "x": 992, "y": 96, "width": 16, "height": 32, "name": "Plant", "gid": 2571}, {"id": 293, "rotation": 0, "visible": true, "x": 0, "y": 112, "width": 16, "height": 16, "name": "Shrub", "gid": 1468}, {"id": 268, "rotation": 0, "visible": true, "x": 16, "y": 112, "width": 16, "height": 16, "name": "Shrub", "gid": 1469}, {"id": 244, "rotation": 0, "visible": true, "x": 32, "y": 112, "width": 16, "height": 16, "name": "Shrub", "gid": 1470}, {"id": 231, "rotation": 0, "visible": true, "x": 48, "y": 112, "width": 16, "height": 16, "name": "Shrub", "gid": 1469}, {"id": 258, "rotation": 0, "visible": true, "x": 64, "y": 112, "width": 16, "height": 16, "name": "Shrub", "gid": 1466}, {"id": 269, "rotation": 0, "visible": true, "x": 0, "y": 128, "width": 16, "height": 16, "name": "Shrub", "gid": 1466}, {"id": 318, "rotation": 0, "visible": true, "x": 32, "y": 128, "width": 16, "height": 16, "name": "Shrub", "gid": 1462}, {"id": 265, "rotation": 0, "visible": true, "x": 80, "y": 128, "width": 16, "height": 16, "name": "Shrub", "gid": 1467}, {"id": 90, "rotation": 0, "visible": true, "x": 1280, "y": 128, "width": 32, "height": 48, "name": "Hanging Plants", "gid": 962}, {"id": 409, "rotation": 0, "visible": true, "x": 112, "y": 144, "width": 32, "height": 32, "name": "Main Entrance", "gid": 2307}, {"id": 16, "rotation": 0, "visible": true, "x": 384, "y": 192, "width": 16, "height": 32, "name": "Plant", "gid": 2571}, {"id": 254, "rotation": 0, "visible": true, "x": 0, "y": 208, "width": 16, "height": 16, "name": "Shrub", "gid": 1469}, {"id": 326, "rotation": 0, "visible": true, "x": 16, "y": 208, "width": 16, "height": 16, "name": "Shrub", "gid": 1465}, {"id": 312, "rotation": 0, "visible": true, "x": 32, "y": 208, "width": 16, "height": 16, "name": "Shrub", "gid": 1468}, {"id": 274, "rotation": 0, "visible": true, "x": 48, "y": 208, "width": 16, "height": 16, "name": "Shrub", "gid": 1467}, {"id": 247, "rotation": 0, "visible": true, "x": 64, "y": 208, "width": 16, "height": 16, "name": "Shrub", "gid": 1465}, {"id": 315, "rotation": 0, "visible": true, "x": 80, "y": 208, "width": 16, "height": 16, "name": "Shrub", "gid": 1468}, {"id": 288, "rotation": 0, "visible": true, "x": 0, "y": 224, "width": 16, "height": 16, "name": "Shrub", "gid": 1469}, {"id": 250, "rotation": 0, "visible": true, "x": 16, "y": 224, "width": 16, "height": 16, "name": "Shrub", "gid": 1466}, {"id": 320, "rotation": 0, "visible": true, "x": 32, "y": 224, "width": 16, "height": 16, "name": "Shrub", "gid": 1467}, {"id": 327, "rotation": 0, "visible": true, "x": 48, "y": 224, "width": 16, "height": 16, "name": "Shrub", "gid": 1465}, {"id": 356, "rotation": 0, "visible": true, "x": 64, "y": 224, "width": 16, "height": 16, "name": "Shrub", "gid": 1468}, {"id": 342, "rotation": 0, "visible": true, "x": 80, "y": 224, "width": 16, "height": 16, "name": "Shrub", "gid": 1462}, {"id": 275, "rotation": 0, "visible": true, "x": 16, "y": 240, "width": 16, "height": 16, "name": "Shrub", "gid": 1467}, {"id": 331, "rotation": 0, "visible": true, "x": 32, "y": 240, "width": 16, "height": 16, "name": "Shrub", "gid": 1470}, {"id": 283, "rotation": 0, "visible": true, "x": 48, "y": 240, "width": 16, "height": 16, "name": "Shrub", "gid": 1467}, {"id": 240, "rotation": 0, "visible": true, "x": 96, "y": 240, "width": 16, "height": 16, "name": "Shrub", "gid": 1465}, {"id": 272, "rotation": 0, "visible": true, "x": 96, "y": 256, "width": 16, "height": 16, "name": "Shrub", "gid": 1470}, {"id": 13, "rotation": 0, "visible": true, "x": 144, "y": 256, "width": 16, "height": 32, "name": "Plant", "gid": 2571}, {"id": 14, "rotation": 0, "visible": true, "x": 384, "y": 256, "width": 16, "height": 32, "name": "Plant", "gid": 2571}, {"id": 253, "rotation": 0, "visible": true, "x": 0, "y": 272, "width": 16, "height": 16, "name": "Shrub", "gid": 1468}, {"id": 276, "rotation": 0, "visible": true, "x": 16, "y": 272, "width": 16, "height": 16, "name": "Shrub", "gid": 1469}, {"id": 273, "rotation": 0, "visible": true, "x": 96, "y": 272, "width": 16, "height": 16, "name": "Shrub", "gid": 1462}, {"id": 45, "rotation": 0, "visible": true, "x": 448, "y": 272, "width": 16, "height": 32, "name": "Plant", "gid": 2572}, {"id": 66, "rotation": 0, "visible": true, "x": 752, "y": 272, "width": 16, "height": 32, "name": "Plant", "gid": 2571}, {"id": 67, "rotation": 0, "visible": true, "x": 992, "y": 272, "width": 16, "height": 32, "name": "Plant", "gid": 2571}, {"id": 229, "rotation": 0, "visible": true, "x": 16, "y": 288, "width": 16, "height": 16, "name": "Shrub", "gid": 1465}, {"id": 233, "rotation": 0, "visible": true, "x": 96, "y": 288, "width": 16, "height": 16, "name": "Shrub", "gid": 1467}, {"id": 46, "rotation": 0, "visible": true, "x": 688, "y": 288, "width": 16, "height": 32, "name": "Plant", "gid": 2572}, {"id": 304, "rotation": 0, "visible": true, "x": 0, "y": 304, "width": 16, "height": 16, "name": "Shrub", "gid": 1466}, {"id": 255, "rotation": 0, "visible": true, "x": 96, "y": 304, "width": 16, "height": 16, "name": "Shrub", "gid": 1468}, {"id": 381, "rotation": 0, "visible": true, "x": 320, "y": 304, "width": 32, "height": 32, "name": "Reception Door", "gid": 2307}, {"id": 383, "rotation": 0, "visible": true, "x": 544, "y": 304, "width": 32, "height": 32, "name": "Workstation Door", "gid": 2307}, {"id": 385, "rotation": 0, "visible": true, "x": 848, "y": 304, "width": 32, "height": 32, "name": "Meeting Room Door", "gid": 2307}, {"id": 387, "rotation": 0, "visible": true, "x": 1136, "y": 304, "width": 32, "height": 32, "name": "Break Room Door", "gid": 2307}, {"id": 316, "rotation": 0, "visible": true, "x": 0, "y": 320, "width": 16, "height": 16, "name": "Shrub", "gid": 1462}, {"id": 308, "rotation": 0, "visible": true, "x": 16, "y": 320, "width": 16, "height": 16, "name": "Shrub", "gid": 1471}, {"id": 224, "rotation": 0, "visible": true, "x": 48, "y": 320, "width": 32, "height": 64, "name": "Tree", "gid": 1853}, {"id": 279, "rotation": 0, "visible": true, "x": 0, "y": 336, "width": 16, "height": 16, "name": "Shrub", "gid": 1467}, {"id": 278, "rotation": 0, "visible": true, "x": 16, "y": 336, "width": 16, "height": 16, "name": "Shrub", "gid": 1462}, {"id": 249, "rotation": 0, "visible": true, "x": 96, "y": 336, "width": 16, "height": 16, "name": "Shrub", "gid": 1469}, {"id": 239, "rotation": 0, "visible": true, "x": 48, "y": 352, "width": 16, "height": 16, "name": "Shrub", "gid": 1465}, {"id": 251, "rotation": 0, "visible": true, "x": 80, "y": 352, "width": 16, "height": 16, "name": "Shrub", "gid": 1469}, {"id": 357, "rotation": 0, "visible": true, "x": 192, "y": 352, "width": 32, "height": 16, "name": "Ceiling Light", "gid": 2530}, {"id": 359, "rotation": 0, "visible": true, "x": 320, "y": 352, "width": 32, "height": 16, "name": "Ceiling Light", "gid": 2530}, {"id": 361, "rotation": 0, "visible": true, "x": 448, "y": 352, "width": 32, "height": 16, "name": "Ceiling Light", "gid": 2530}, {"id": 363, "rotation": 0, "visible": true, "x": 576, "y": 352, "width": 32, "height": 16, "name": "Ceiling Light", "gid": 2530}, {"id": 365, "rotation": 0, "visible": true, "x": 704, "y": 352, "width": 32, "height": 16, "name": "Ceiling Light", "gid": 2530}, {"id": 367, "rotation": 0, "visible": true, "x": 832, "y": 352, "width": 32, "height": 16, "name": "Ceiling Light", "gid": 2530}, {"id": 369, "rotation": 0, "visible": true, "x": 960, "y": 352, "width": 32, "height": 16, "name": "Ceiling Light", "gid": 2530}, {"id": 371, "rotation": 0, "visible": true, "x": 1088, "y": 352, "width": 32, "height": 16, "name": "Ceiling Light", "gid": 2530}, {"id": 373, "rotation": 0, "visible": true, "x": 1216, "y": 352, "width": 32, "height": 16, "name": "Ceiling Light", "gid": 2530}, {"id": 237, "rotation": 0, "visible": true, "x": 48, "y": 368, "width": 16, "height": 16, "name": "Shrub", "gid": 1471}, {"id": 344, "rotation": 0, "visible": true, "x": 96, "y": 368, "width": 16, "height": 16, "name": "Shrub", "gid": 1468}, {"id": 307, "rotation": 0, "visible": true, "x": 48, "y": 384, "width": 16, "height": 16, "name": "Shrub", "gid": 1465}, {"id": 353, "rotation": 0, "visible": true, "x": 64, "y": 384, "width": 16, "height": 16, "name": "Shrub", "gid": 1462}, {"id": 375, "rotation": 0, "visible": true, "x": 480, "y": 384, "width": 16, "height": 32, "name": "Hall Plant", "gid": 2571}, {"id": 377, "rotation": 0, "visible": true, "x": 800, "y": 384, "width": 16, "height": 32, "name": "Hall Plant", "gid": 2571}, {"id": 379, "rotation": 0, "visible": true, "x": 1120, "y": 384, "width": 16, "height": 32, "name": "Hall Plant", "gid": 2571}, {"id": 350, "rotation": 0, "visible": true, "x": 48, "y": 400, "width": 16, "height": 16, "name": "Shrub", "gid": 1467}, {"id": 341, "rotation": 0, "visible": true, "x": 64, "y": 400, "width": 16, "height": 16, "name": "Shrub", "gid": 1462}, {"id": 338, "rotation": 0, "visible": true, "x": 80, "y": 400, "width": 16, "height": 16, "name": "Shrub", "gid": 1469}, {"id": 260, "rotation": 0, "visible": true, "x": 96, "y": 400, "width": 16, "height": 16, "name": "Shrub", "gid": 1470}, {"id": 389, "rotation": 0, "visible": true, "x": 240, "y": 400, "width": 32, "height": 32, "name": "Library Door", "gid": 2307}, {"id": 392, "rotation": 0, "visible": true, "x": 1088, "y": 400, "width": 32, "height": 32, "name": "Project Room Door", "gid": 2307}, {"id": 223, "rotation": 0, "visible": true, "x": 0, "y": 416, "width": 32, "height": 64, "name": "Tree", "gid": 1851}, {"id": 333, "rotation": 0, "visible": true, "x": 80, "y": 416, "width": 16, "height": 16, "name": "Shrub", "gid": 1471}, {"id": 256, "rotation": 0, "visible": true, "x": 96, "y": 416, "width": 16, "height": 16, "name": "Shrub", "gid": 1466}, {"id": 329, "rotation": 0, "visible": true, "x": 80, "y": 432, "width": 16, "height": 16, "name": "Shrub", "gid": 1470}, {"id": 314, "rotation": 0, "visible": true, "x": 96, "y": 432, "width": 16, "height": 16, "name": "Shrub", "gid": 1470}, {"id": 270, "rotation": 0, "visible": true, "x": 0, "y": 448, "width": 16, "height": 16, "name": "Shrub", "gid": 1468}, {"id": 323, "rotation": 0, "visible": true, "x": 16, "y": 448, "width": 16, "height": 16, "name": "Shrub", "gid": 1470}, {"id": 103, "rotation": 0, "visible": true, "x": 352, "y": 448, "width": 32, "height": 32, "name": "Resource Board", "gid": 2547}, {"id": 124, "rotation": 0, "visible": true, "x": 1056, "y": 448, "width": 32, "height": 32, "name": "Project Board", "gid": 2547}, {"id": 125, "rotation": 0, "visible": true, "x": 1120, "y": 448, "width": 32, "height": 32, "name": "Roadmap Screen", "gid": 2551}, {"id": 324, "rotation": 0, "visible": true, "x": 0, "y": 464, "width": 16, "height": 16, "name": "Shrub", "gid": 1465}, {"id": 321, "rotation": 0, "visible": true, "x": 16, "y": 464, "width": 16, "height": 16, "name": "Shrub", "gid": 1469}, {"id": 119, "rotation": 0, "visible": true, "x": 512, "y": 464, "width": 16, "height": 32, "name": "Plant", "gid": 2572}, {"id": 123, "rotation": 0, "visible": true, "x": 672, "y": 464, "width": 16, "height": 32, "name": "Plant", "gid": 2572}, {"id": 120, "rotation": 0, "visible": true, "x": 832, "y": 464, "width": 16, "height": 32, "name": "Plant", "gid": 2572}, {"id": 346, "rotation": 0, "visible": true, "x": 0, "y": 480, "width": 16, "height": 16, "name": "Shrub", "gid": 1469}, {"id": 330, "rotation": 0, "visible": true, "x": 16, "y": 480, "width": 16, "height": 16, "name": "Shrub", "gid": 1470}, {"id": 355, "rotation": 0, "visible": true, "x": 0, "y": 496, "width": 16, "height": 16, "name": "Shrub", "gid": 1469}, {"id": 226, "rotation": 0, "visible": true, "x": 48, "y": 512, "width": 48, "height": 64, "name": "Tree", "gid": 1842}, {"id": 115, "rotation": 0, "visible": true, "x": 464, "y": 512, "width": 16, "height": 80, "name": "Pillar", "gid": 2241}, {"id": 116, "rotation": 0, "visible": true, "x": 880, "y": 512, "width": 16, "height": 80, "name": "Pillar", "gid": 2241}, {"id": 285, "rotation": 0, "visible": true, "x": 0, "y": 528, "width": 16, "height": 16, "name": "Shrub", "gid": 1462}, {"id": 266, "rotation": 0, "visible": true, "x": 16, "y": 528, "width": 16, "height": 16, "name": "Shrub", "gid": 1470}, {"id": 261, "rotation": 0, "visible": true, "x": 80, "y": 544, "width": 16, "height": 16, "name": "Shrub", "gid": 1467}, {"id": 221, "rotation": 0, "visible": true, "x": 16, "y": 608, "width": 48, "height": 64, "name": "Tree", "gid": 1841}, {"id": 295, "rotation": 0, "visible": true, "x": 80, "y": 608, "width": 16, "height": 16, "name": "Shrub", "gid": 1469}, {"id": 343, "rotation": 0, "visible": true, "x": 80, "y": 624, "width": 16, "height": 16, "name": "Shrub", "gid": 1462}, {"id": 242, "rotation": 0, "visible": true, "x": 96, "y": 624, "width": 16, "height": 16, "name": "Shrub", "gid": 1466}, {"id": 335, "rotation": 0, "visible": true, "x": 16, "y": 640, "width": 16, "height": 16, "name": "Shrub", "gid": 1468}, {"id": 296, "rotation": 0, "visible": true, "x": 32, "y": 640, "width": 16, "height": 16, "name": "Shrub", "gid": 1471}, {"id": 271, "rotation": 0, "visible": true, "x": 80, "y": 640, "width": 16, "height": 16, "name": "Shrub", "gid": 1466}, {"id": 104, "rotation": 0, "visible": true, "x": 384, "y": 640, "width": 16, "height": 32, "name": "Plant", "gid": 2571}, {"id": 145, "rotation": 0, "visible": true, "x": 1280, "y": 640, "width": 16, "height": 32, "name": "Plant", "gid": 2571}, {"id": 234, "rotation": 0, "visible": true, "x": 48, "y": 656, "width": 16, "height": 16, "name": "Shrub", "gid": 1462}, {"id": 347, "rotation": 0, "visible": true, "x": 64, "y": 656, "width": 16, "height": 16, "name": "Shrub", "gid": 1467}, {"id": 313, "rotation": 0, "visible": true, "x": 80, "y": 656, "width": 16, "height": 16, "name": "Shrub", "gid": 1468}, {"id": 121, "rotation": 0, "visible": true, "x": 512, "y": 656, "width": 16, "height": 32, "name": "Plant", "gid": 2572}, {"id": 122, "rotation": 0, "visible": true, "x": 832, "y": 656, "width": 16, "height": 32, "name": "Plant", "gid": 2572}, {"id": 325, "rotation": 0, "visible": true, "x": 96, "y": 672, "width": 16, "height": 16, "name": "Shrub", "gid": 1470}, {"id": 394, "rotation": 0, "visible": true, "x": 240, "y": 672, "width": 32, "height": 32, "name": "Library South Door", "gid": 2307}, {"id": 397, "rotation": 0, "visible": true, "x": 1088, "y": 672, "width": 32, "height": 32, "name": "Project South Door", "gid": 2307}, {"id": 300, "rotation": 0, "visible": true, "x": 64, "y": 688, "width": 16, "height": 16, "name": "Shrub", "gid": 1471}, {"id": 311, "rotation": 0, "visible": true, "x": 64, "y": 704, "width": 16, "height": 16, "name": "Shrub", "gid": 1462}, {"id": 309, "rotation": 0, "visible": true, "x": 96, "y": 704, "width": 16, "height": 16, "name": "Shrub", "gid": 1469}, {"id": 117, "rotation": 0, "visible": true, "x": 464, "y": 704, "width": 16, "height": 80, "name": "Pillar", "gid": 2241}, {"id": 118, "rotation": 0, "visible": true, "x": 880, "y": 704, "width": 16, "height": 80, "name": "Pillar", "gid": 2241}, {"id": 232, "rotation": 0, "visible": true, "x": 64, "y": 720, "width": 16, "height": 16, "name": "Shrub", "gid": 1468}, {"id": 302, "rotation": 0, "visible": true, "x": 80, "y": 720, "width": 16, "height": 16, "name": "Shrub", "gid": 1465}, {"id": 358, "rotation": 0, "visible": true, "x": 192, "y": 720, "width": 32, "height": 16, "name": "Ceiling Light", "gid": 2530}, {"id": 360, "rotation": 0, "visible": true, "x": 320, "y": 720, "width": 32, "height": 16, "name": "Ceiling Light", "gid": 2530}, {"id": 362, "rotation": 0, "visible": true, "x": 448, "y": 720, "width": 32, "height": 16, "name": "Ceiling Light", "gid": 2530}, {"id": 364, "rotation": 0, "visible": true, "x": 576, "y": 720, "width": 32, "height": 16, "name": "Ceiling Light", "gid": 2530}, {"id": 366, "rotation": 0, "visible": true, "x": 704, "y": 720, "width": 32, "height": 16, "name": "Ceiling Light", "gid": 2530}, {"id": 368, "rotation": 0, "visible": true, "x": 832, "y": 720, "width": 32, "height": 16, "name": "Ceiling Light", "gid": 2530}, {"id": 370, "rotation": 0, "visible": true, "x": 960, "y": 720, "width": 32, "height": 16, "name": "Ceiling Light", "gid": 2530}, {"id": 372, "rotation": 0, "visible": true, "x": 1088, "y": 720, "width": 32, "height": 16, "name": "Ceiling Light", "gid": 2530}, {"id": 374, "rotation": 0, "visible": true, "x": 1216, "y": 720, "width": 32, "height": 16, "name": "Ceiling Light", "gid": 2530}, {"id": 222, "rotation": 0, "visible": true, "x": 0, "y": 736, "width": 48, "height": 64, "name": "Tree", "gid": 1843}, {"id": 340, "rotation": 0, "visible": true, "x": 64, "y": 736, "width": 16, "height": 16, "name": "Shrub", "gid": 1468}, {"id": 351, "rotation": 0, "visible": true, "x": 96, "y": 736, "width": 16, "height": 16, "name": "Shrub", "gid": 1462}, {"id": 336, "rotation": 0, "visible": true, "x": 64, "y": 752, "width": 16, "height": 16, "name": "Shrub", "gid": 1469}, {"id": 235, "rotation": 0, "visible": true, "x": 80, "y": 752, "width": 16, "height": 16, "name": "Shrub", "gid": 1469}, {"id": 319, "rotation": 0, "visible": true, "x": 96, "y": 752, "width": 16, "height": 16, "name": "Shrub", "gid": 1465}, {"id": 376, "rotation": 0, "visible": true, "x": 544, "y": 752, "width": 16, "height": 32, "name": "Hall Plant", "gid": 2572}, {"id": 378, "rotation": 0, "visible": true, "x": 864, "y": 752, "width": 16, "height": 32, "name": "Hall Plant", "gid": 2572}, {"id": 380, "rotation": 0, "visible": true, "x": 1184, "y": 752, "width": 16, "height": 32, "name": "Hall Plant", "gid": 2572}, {"id": 290, "rotation": 0, "visible": true, "x": 16, "y": 768, "width": 16, "height": 16, "name": "Shrub", "gid": 1465}, {"id": 245, "rotation": 0, "visible": true, "x": 32, "y": 768, "width": 16, "height": 16, "name": "Shrub", "gid": 1468}, {"id": 262, "rotation": 0, "visible": true, "x": 64, "y": 768, "width": 16, "height": 16, "name": "Shrub", "gid": 1468}, {"id": 280, "rotation": 0, "visible": true, "x": 80, "y": 768, "width": 16, "height": 16, "name": "Shrub", "gid": 1469}, {"id": 289, "rotation": 0, "visible": true, "x": 96, "y": 768, "width": 16, "height": 16, "name": "Shrub", "gid": 1467}, {"id": 399, "rotation": 0, "visible": true, "x": 240, "y": 768, "width": 32, "height": 32, "name": "Lounge Door", "gid": 2307}, {"id": 401, "rotation": 0, "visible": true, "x": 544, "y": 768, "width": 32, "height": 32, "name": "Developer Door", "gid": 2307}, {"id": 403, "rotation": 0, "visible": true, "x": 848, "y": 768, "width": 32, "height": 32, "name": "HR Cabin Door", "gid": 2307}, {"id": 405, "rotation": 0, "visible": true, "x": 1136, "y": 768, "width": 32, "height": 32, "name": "Terrace Door", "gid": 2307}, {"id": 328, "rotation": 0, "visible": true, "x": 0, "y": 784, "width": 16, "height": 16, "name": "Shrub", "gid": 1470}, {"id": 299, "rotation": 0, "visible": true, "x": 48, "y": 784, "width": 16, "height": 16, "name": "Shrub", "gid": 1466}, {"id": 301, "rotation": 0, "visible": true, "x": 64, "y": 784, "width": 16, "height": 16, "name": "Shrub", "gid": 1468}, {"id": 236, "rotation": 0, "visible": true, "x": 96, "y": 784, "width": 16, "height": 16, "name": "Shrub", "gid": 1462}, {"id": 248, "rotation": 0, "visible": true, "x": 16, "y": 800, "width": 16, "height": 16, "name": "Shrub", "gid": 1467}, {"id": 339, "rotation": 0, "visible": true, "x": 32, "y": 800, "width": 16, "height": 16, "name": "Shrub", "gid": 1462}, {"id": 238, "rotation": 0, "visible": true, "x": 48, "y": 800, "width": 16, "height": 16, "name": "Shrub", "gid": 1466}, {"id": 259, "rotation": 0, "visible": true, "x": 64, "y": 800, "width": 16, "height": 16, "name": "Shrub", "gid": 1466}, {"id": 282, "rotation": 0, "visible": true, "x": 80, "y": 800, "width": 16, "height": 16, "name": "Shrub", "gid": 1465}, {"id": 194, "rotation": 0, "visible": true, "x": 784, "y": 800, "width": 48, "height": 16, "name": "Notices", "gid": 2621}, {"id": 206, "rotation": 0, "visible": true, "x": 1056, "y": 800, "width": 16, "height": 16, "name": "Shrub", "gid": 658}, {"id": 208, "rotation": 0, "visible": true, "x": 1120, "y": 800, "width": 16, "height": 16, "name": "Shrub", "gid": 640}, {"id": 210, "rotation": 0, "visible": true, "x": 1184, "y": 800, "width": 16, "height": 16, "name": "Shrub", "gid": 656}, {"id": 212, "rotation": 0, "visible": true, "x": 1248, "y": 800, "width": 16, "height": 16, "name": "Shrub", "gid": 656}, {"id": 214, "rotation": 0, "visible": true, "x": 1312, "y": 800, "width": 16, "height": 16, "name": "Shrub", "gid": 658}, {"id": 348, "rotation": 0, "visible": true, "x": 16, "y": 816, "width": 16, "height": 16, "name": "Shrub", "gid": 1469}, {"id": 243, "rotation": 0, "visible": true, "x": 32, "y": 816, "width": 16, "height": 16, "name": "Shrub", "gid": 1471}, {"id": 317, "rotation": 0, "visible": true, "x": 48, "y": 816, "width": 16, "height": 16, "name": "Shrub", "gid": 1468}, {"id": 241, "rotation": 0, "visible": true, "x": 64, "y": 816, "width": 16, "height": 16, "name": "Shrub", "gid": 1470}, {"id": 146, "rotation": 0, "visible": true, "x": 192, "y": 816, "width": 32, "height": 32, "name": "Lounge TV", "gid": 2551}, {"id": 182, "rotation": 0, "visible": true, "x": 544, "y": 816, "width": 32, "height": 32, "name": "Sprint Board", "gid": 2547}, {"id": 354, "rotation": 0, "visible": true, "x": 0, "y": 832, "width": 16, "height": 16, "name": "Shrub", "gid": 1470}, {"id": 230, "rotation": 0, "visible": true, "x": 96, "y": 832, "width": 16, "height": 16, "name": "Shrub", "gid": 1468}, {"id": 155, "rotation": 0, "visible": true, "x": 144, "y": 832, "width": 16, "height": 32, "name": "Plant", "gid": 2572}, {"id": 246, "rotation": 0, "visible": true, "x": 0, "y": 848, "width": 16, "height": 16, "name": "Shrub", "gid": 1468}, {"id": 292, "rotation": 0, "visible": true, "x": 96, "y": 848, "width": 16, "height": 16, "name": "Shrub", "gid": 1471}, {"id": 154, "rotation": 0, "visible": true, "x": 384, "y": 848, "width": 32, "height": 48, "name": "Hanging Plants", "gid": 962}, {"id": 310, "rotation": 0, "visible": true, "x": 0, "y": 864, "width": 16, "height": 16, "name": "Shrub", "gid": 1466}, {"id": 216, "rotation": 0, "visible": true, "x": 1056, "y": 864, "width": 32, "height": 48, "name": "Terrace Tree", "gid": 1846}, {"id": 217, "rotation": 0, "visible": true, "x": 1280, "y": 864, "width": 32, "height": 48, "name": "Terrace Tree", "gid": 1846}, {"id": 337, "rotation": 0, "visible": true, "x": 0, "y": 880, "width": 16, "height": 16, "name": "Shrub", "gid": 1470}, {"id": 352, "rotation": 0, "visible": true, "x": 96, "y": 880, "width": 16, "height": 16, "name": "Shrub", "gid": 1465}, {"id": 228, "rotation": 0, "visible": true, "x": 0, "y": 896, "width": 16, "height": 16, "name": "Shrub", "gid": 1469}, {"id": 220, "rotation": 0, "visible": true, "x": 32, "y": 896, "width": 48, "height": 64, "name": "Tree", "gid": 1842}, {"id": 349, "rotation": 0, "visible": true, "x": 96, "y": 896, "width": 16, "height": 16, "name": "Shrub", "gid": 1469}, {"id": 197, "rotation": 0, "visible": true, "x": 1136, "y": 896, "width": 64, "height": 48, "name": "Terrace Pergola Roof", "gid": 1018}, {"id": 257, "rotation": 0, "visible": true, "x": 96, "y": 912, "width": 16, "height": 16, "name": "Shrub", "gid": 1466}, {"id": 286, "rotation": 0, "visible": true, "x": 16, "y": 928, "width": 16, "height": 16, "name": "Shrub", "gid": 1467}, {"id": 277, "rotation": 0, "visible": true, "x": 64, "y": 928, "width": 16, "height": 16, "name": "Shrub", "gid": 1468}, {"id": 332, "rotation": 0, "visible": true, "x": 80, "y": 928, "width": 16, "height": 16, "name": "Shrub", "gid": 1471}, {"id": 345, "rotation": 0, "visible": true, "x": 96, "y": 928, "width": 16, "height": 16, "name": "Shrub", "gid": 1469}, {"id": 267, "rotation": 0, "visible": true, "x": 16, "y": 944, "width": 16, "height": 16, "name": "Shrub", "gid": 1465}, {"id": 263, "rotation": 0, "visible": true, "x": 32, "y": 944, "width": 16, "height": 16, "name": "Shrub", "gid": 1465}, {"id": 196, "rotation": 0, "visible": true, "x": 1136, "y": 944, "width": 64, "height": 64, "name": "Terrace Pergola", "gid": 1020}, {"id": 204, "rotation": 0, "visible": true, "x": 1264, "y": 944, "width": 32, "height": 48, "name": "Terrace Fountain", "gid": 676}, {"id": 284, "rotation": 0, "visible": true, "x": 0, "y": 960, "width": 16, "height": 16, "name": "Shrub", "gid": 1469}, {"id": 264, "rotation": 0, "visible": true, "x": 0, "y": 976, "width": 16, "height": 16, "name": "Shrub", "gid": 1462}, {"id": 287, "rotation": 0, "visible": true, "x": 16, "y": 976, "width": 16, "height": 16, "name": "Shrub", "gid": 1471}, {"id": 252, "rotation": 0, "visible": true, "x": 0, "y": 992, "width": 16, "height": 16, "name": "Shrub", "gid": 1469}, {"id": 297, "rotation": 0, "visible": true, "x": 16, "y": 992, "width": 16, "height": 16, "name": "Shrub", "gid": 1467}, {"id": 322, "rotation": 0, "visible": true, "x": 0, "y": 1008, "width": 16, "height": 16, "name": "Shrub", "gid": 1469}, {"id": 294, "rotation": 0, "visible": true, "x": 16, "y": 1008, "width": 16, "height": 16, "name": "Shrub", "gid": 1466}, {"id": 218, "rotation": 0, "visible": true, "x": 1056, "y": 1008, "width": 32, "height": 48, "name": "Terrace Tree", "gid": 1846}, {"id": 207, "rotation": 0, "visible": true, "x": 1088, "y": 1008, "width": 16, "height": 16, "name": "Shrub", "gid": 651}, {"id": 209, "rotation": 0, "visible": true, "x": 1136, "y": 1008, "width": 16, "height": 16, "name": "Shrub", "gid": 656}, {"id": 211, "rotation": 0, "visible": true, "x": 1184, "y": 1008, "width": 16, "height": 16, "name": "Shrub", "gid": 640}, {"id": 213, "rotation": 0, "visible": true, "x": 1232, "y": 1008, "width": 16, "height": 16, "name": "Shrub", "gid": 657}, {"id": 215, "rotation": 0, "visible": true, "x": 1280, "y": 1008, "width": 16, "height": 16, "name": "Shrub", "gid": 657}, {"id": 225, "rotation": 0, "visible": true, "x": 48, "y": 1024, "width": 48, "height": 64, "name": "Tree", "gid": 1841}, {"id": 183, "rotation": 0, "visible": true, "x": 688, "y": 1024, "width": 16, "height": 32, "name": "Plant", "gid": 2571}, {"id": 195, "rotation": 0, "visible": true, "x": 992, "y": 1024, "width": 16, "height": 32, "name": "Plant", "gid": 2572}, {"id": 219, "rotation": 0, "visible": true, "x": 1280, "y": 1040, "width": 32, "height": 48, "name": "Terrace Tree", "gid": 1846}]}, {"id": 6, "name": "Collision", "type": "tilelayer", "opacity": 1, "visible": true, "x": 0, "y": 0, "width": 84, "height": 66, "data": [0, 0, 0, 0, 0, 0, 0, 0, 0, 0, 0, 0, 0, 0, 0, 0, 0, 0, 0, 0, 0, 0, 0, 0, 0, 0, 0, 0, 0, 0, 0, 0, 0, 0, 0, 0, 0, 0, 0, 0, 0, 0, 0, 0, 0, 0, 0, 0, 0, 0, 0, 0, 0, 0, 0, 0, 0, 0, 0, 0, 0, 0, 0, 0, 0, 0, 0, 0, 0, 0, 0, 0, 0, 0, 0, 0, 0, 0, 0, 0, 0, 0, 0, 0, 0, 0, 0, 0, 0, 0, 0, 1, 1, 1, 1, 1, 1, 1, 1, 1, 1, 1, 1, 1, 1, 1, 1, 1, 1, 1, 1, 1, 1, 1, 1, 1, 1, 1, 1, 1, 1, 1, 1, 1, 1, 1, 1, 1, 1, 1, 1, 1, 1, 1, 1, 1, 1, 1, 1, 1, 1, 1, 1, 1, 1, 1, 1, 1, 1, 1, 1, 1, 1, 1, 1, 1, 1, 1, 1, 1, 1, 1, 1, 1, 1, 1, 1, 0, 0, 0, 0, 0, 0, 0, 0, 1, 0, 0, 0, 0, 0, 0, 0, 0, 0, 0, 0, 0, 0, 0, 0, 0, 0, 0, 1, 0, 0, 0, 0, 0, 0, 0, 0, 0, 0, 0, 0, 0, 0, 0, 0, 0, 0, 1, 0, 0, 0, 0, 0, 0, 0, 0, 0, 0, 0, 0, 0, 0, 0, 0, 0, 0, 1, 0, 0, 0, 0, 0, 0, 0, 0, 0, 0, 0, 0, 0, 0, 0, 0, 0, 1, 0, 0, 0, 0, 0, 0, 0, 0, 1, 0, 0, 0, 0, 0, 0, 0, 0, 0, 0, 0, 0, 0, 0, 0, 0, 0, 0, 1, 0, 0, 0, 0, 0, 0, 0, 0, 0, 0, 0, 0, 0, 0, 0, 1, 1, 0, 1, 0, 0, 0, 0, 0, 0, 0, 0, 0, 0, 0, 0, 0, 0, 0, 0, 0, 0, 1, 0, 0, 0, 0, 0, 0, 0, 0, 1, 1, 1, 0, 1, 1, 1, 0, 0, 1, 0, 0, 1, 1, 1, 0, 0, 0, 1, 0, 1, 0, 0, 0, 0, 0, 0, 0, 0, 0, 0, 0, 0, 0, 0, 0, 0, 1, 0, 0, 0, 0, 0, 0, 1, 1, 0, 0, 0, 0, 0, 0, 0, 1, 1, 0, 1, 0, 1, 0, 0, 0, 0, 0, 0, 0, 0, 0, 0, 0, 0, 0, 0, 1, 0, 1, 0, 0, 0, 0, 0, 0, 0, 0, 0, 0, 0, 0, 0, 0, 0, 0, 0, 1, 0, 0, 0, 0, 0, 0, 0, 0, 1, 0, 1, 0, 0, 0, 0, 0, 1, 1, 0, 0, 1, 1, 0, 0, 0, 0, 0, 1, 0, 0, 0, 0, 0, 0, 1, 1, 0, 0, 0, 0, 0, 0, 0, 0, 0, 0, 1, 0, 1, 0, 0, 0, 0, 0, 0, 0, 0, 0, 0, 0, 0, 0, 0, 1, 0, 1, 0, 0, 0, 0, 0, 0, 0, 0, 0, 0, 0, 0, 0, 0, 0, 0, 0, 1, 0, 0, 0, 0, 0, 0, 0, 0, 1, 0, 0, 0, 0, 0, 0, 0, 1, 1, 0, 0, 1, 1, 0, 0, 0, 0, 0, 1, 0, 0, 0, 0, 0, 0, 0, 0, 0, 0, 0, 0, 0, 0, 0, 1, 1, 0, 1, 0, 0, 0, 0, 0, 0, 0, 0, 0, 0, 0, 0, 0, 0, 0, 0, 0, 0, 1, 0, 0, 0, 0, 0, 0, 0, 0, 0, 0, 0, 0, 0, 0, 0, 0, 0, 1, 0, 0, 0, 0, 0, 0, 0, 0, 1, 0, 0, 0, 0, 0, 0, 0, 0, 0, 0, 0, 0, 0, 0, 0, 0, 0, 0, 1, 0, 0, 0, 0, 0, 0, 0, 0, 0, 0, 0, 0, 0, 0, 0, 1, 1, 0, 1, 0, 0, 0, 0, 0, 0, 0, 0, 0, 0, 0, 0, 0, 0, 0, 0, 0, 0, 1, 0, 0, 0, 0, 0, 0, 0, 0, 0, 0, 0, 0, 0, 0, 0, 1, 1, 1, 0, 0, 0, 0, 0, 0, 0, 0, 0, 0, 0, 0, 0, 0, 0, 0, 0, 0, 0, 0, 0, 0, 0, 0, 0, 0, 0, 1, 0, 0, 0, 0, 0, 0, 0, 0, 0, 0, 0, 0, 0, 0, 0, 0, 0, 0, 1, 0, 0, 0, 0, 0, 0, 0, 0, 0, 0, 0, 0, 0, 0, 0, 0, 0, 0, 1, 0, 0, 0, 0, 0, 0, 0, 0, 0, 0, 0, 0, 0, 0, 0, 0, 0, 1, 0, 0, 0, 0, 0, 0, 0, 0, 0, 0, 0, 0, 0, 0, 0, 0, 0, 0, 0, 0, 0, 0, 0, 0, 0, 0, 0, 1, 0, 0, 0, 0, 0, 0, 0, 0, 0, 0, 0, 0, 0, 0, 0, 0, 0, 0, 1, 0, 0, 0, 0, 0, 0, 0, 0, 0, 0, 0, 0, 0, 0, 0, 0, 0, 0, 1, 0, 0, 0, 0, 0, 0, 0, 0, 0, 0, 0, 0, 0, 0, 0, 0, 0, 1, 0, 0, 0, 0, 0, 0, 0, 0, 0, 0, 0, 0, 0, 0, 0, 0, 0, 0, 0, 0, 0, 0, 0, 0, 0, 1, 0, 1, 0, 0, 0, 0, 0, 0, 0, 0, 0, 0, 0, 0, 0, 0, 1, 1, 0, 0, 1, 0, 0, 0, 0, 0, 0, 0, 0, 0, 0, 0, 0, 0, 0, 0, 0, 0, 0, 1, 0, 0, 0, 0, 0, 0, 0, 0, 0, 0, 0, 0, 0, 0, 0, 0, 0, 1, 0, 0, 0, 0, 0, 0, 0, 0, 0, 0, 0, 0, 0, 0, 0, 0, 0, 0, 0, 0, 0, 0, 0, 0, 0, 1, 0, 1, 0, 0, 0, 0, 0, 0, 0, 0, 0, 0, 0, 0, 0, 0, 1, 1, 0, 0, 1, 0, 0, 0, 0, 0, 0, 0, 0, 0, 0, 0, 0, 0, 0, 0, 0, 0, 0, 1, 0, 0, 0, 0, 0, 0, 0, 0, 0, 0, 0, 0, 0, 0, 0, 0, 0, 1, 0, 0, 0, 0, 0, 0, 0, 0, 1, 0, 0, 0, 0, 0, 0, 0, 0, 0, 0, 0, 0, 0, 0, 0, 0, 0, 0, 1, 0, 0, 0, 0, 0, 0, 0, 0, 0, 0, 0, 0, 0, 0, 0, 0, 0, 0, 1, 0, 0, 0, 0, 0, 0, 0, 0, 0, 0, 0, 0, 0, 0, 0, 0, 0, 0, 1, 0, 0, 0, 0, 0, 0, 0, 0, 0, 0, 0, 0, 0, 0, 0, 0, 0, 1, 0, 0, 0, 0, 0, 0, 0, 0, 1, 0, 0, 0, 0, 0, 0, 0, 0, 0, 0, 0, 0, 0, 0, 0, 0, 0, 0, 1, 0, 0, 0, 0, 0, 0, 0, 0, 0, 0, 0, 0, 0, 0, 0, 0, 0, 0, 1, 0, 0, 0, 0, 0, 0, 0, 0, 0, 0, 0, 0, 0, 0, 0, 0, 0, 0, 1, 0, 0, 0, 0, 0, 0, 0, 0, 0, 0, 0, 0, 0, 0, 0, 0, 0, 1, 0, 0, 0, 0, 0, 0, 0, 0, 1, 0, 1, 0, 0, 0, 0, 0, 0, 0, 0, 0, 0, 0, 0, 0, 0, 1, 0, 1, 0, 0, 0, 0, 0, 0, 0, 0, 0, 0, 0, 0, 0, 0, 0, 0, 0, 0, 1, 0, 0, 0, 0, 0, 0, 0, 0, 0, 0, 0, 0, 0, 0, 0, 0, 0, 0, 1, 0, 0, 0, 0, 0, 0, 0, 0, 0, 0, 0, 0, 0, 0, 0, 0, 0, 1, 0, 0, 0, 0, 0, 0, 0, 0, 1, 0, 1, 0, 0, 0, 0, 0, 0, 0, 0, 0, 0, 0, 0, 0, 0, 1, 0, 1, 0, 1, 0, 0, 0, 0, 0, 0, 0, 0, 0, 0, 0, 0, 0, 0, 0, 0, 1, 0, 1, 0, 0, 0, 0, 0, 0, 0, 0, 0, 0, 0, 0, 0, 0, 1, 0, 1, 0, 0, 0, 0, 0, 0, 0, 0, 0, 0, 0, 0, 0, 0, 0, 0, 0, 1, 0, 0, 0, 0, 0, 0, 0, 0, 1, 0, 0, 0, 0, 0, 0, 0, 0, 0, 0, 0, 0, 0, 0, 0, 0, 0, 0, 1, 0, 1, 0, 0, 0, 0, 0, 0, 0, 0, 0, 0, 0, 0, 0, 0, 1, 0, 1, 0, 1, 0, 0, 0, 0, 0, 0, 0, 0, 0, 0, 0, 0, 0, 0, 1, 0, 1, 0, 0, 0, 0, 0, 0, 0, 0, 0, 0, 0, 0, 0, 0, 0, 0, 0, 1, 0, 0, 0, 0, 0, 0, 0, 0, 1, 0, 0, 0, 0, 0, 0, 0, 0, 0, 0, 0, 0, 0, 0, 0, 0, 0, 0, 1, 0, 0, 0, 0, 0, 0, 0, 0, 0, 0, 0, 0, 0, 0, 0, 0, 1, 0, 1, 0, 0, 0, 0, 0, 0, 0, 0, 0, 0, 0, 0, 0, 0, 0, 0, 0, 0, 1, 0, 0, 0, 0, 0, 0, 0, 0, 0, 0, 0, 0, 0, 0, 0, 0, 0, 1, 0, 0, 0, 0, 0, 0, 0, 0, 1, 1, 1, 1, 1, 1, 1, 1, 1, 1, 1, 1, 1, 0, 0, 0, 0, 1, 1, 1, 1, 1, 1, 1, 1, 1, 1, 0, 0, 0, 0, 1, 1, 1, 1, 1, 1, 1, 1, 1, 1, 1, 1, 1, 1, 1, 0, 0, 0, 0, 1, 1, 1, 1, 1, 1, 1, 1, 1, 1, 1, 1, 1, 1, 0, 0, 0, 0, 1, 1, 1, 1, 1, 1, 1, 1, 0, 0, 0, 0, 1, 1, 0, 0, 1, 0, 0, 0, 0, 0, 0, 0, 0, 0, 0, 0, 0, 0, 0, 0, 0, 0, 0, 0, 0, 0, 0, 0, 0, 0, 0, 0, 0, 0, 0, 0, 0, 0, 0, 0, 0, 0, 0, 0, 0, 0, 0, 0, 0, 0, 0, 0, 0, 0, 0, 0, 0, 0, 0, 0, 0, 0, 0, 0, 0, 0, 0, 0, 0, 0, 0, 0, 0, 0, 0, 0, 0, 0, 0, 1, 0, 0, 0, 0, 0, 0, 0, 0, 1, 0, 0, 0, 0, 0, 0, 0, 0, 0, 0, 0, 0, 0, 0, 0, 0, 0, 0, 0, 0, 0, 0, 0, 0, 0, 0, 0, 0, 0, 0, 0, 0, 0, 0, 0, 0, 0, 0, 0, 0, 0, 0, 0, 0, 0, 0, 0, 0, 0, 0, 0, 0, 0, 0, 0, 0, 0, 0, 0, 0, 0, 0, 0, 0, 0, 0, 0, 0, 0, 0, 0, 0, 0, 0, 1, 0, 0, 0, 0, 0, 0, 0, 0, 1, 0, 0, 0, 0, 0, 0, 0, 0, 0, 0, 0, 0, 0, 0, 0, 0, 0, 0, 0, 0, 0, 0, 0, 0, 0, 0, 0, 0, 0, 0, 0, 0, 0, 0, 0, 0, 0, 0, 0, 0, 0, 0, 0, 0, 0, 0, 0, 0, 0, 0, 0, 0, 0, 0, 0, 0, 0, 0, 0, 0, 0, 0, 0, 0, 0, 0, 0, 0, 0, 0, 0, 0, 0, 0, 1, 0, 0, 0, 0, 0, 0, 0, 0, 1, 0, 0, 0, 0, 0, 0, 0, 0, 0, 0, 0, 0, 0, 0, 0, 0, 0, 0, 0, 0, 0, 0, 1, 0, 0, 0, 0, 0, 0, 0, 0, 0, 0, 0, 0, 0, 0, 0, 0, 0, 0, 0, 1, 0, 0, 0, 0, 0, 0, 0, 0, 0, 0, 0, 0, 0, 0, 0, 0, 0, 0, 0, 1, 0, 0, 0, 0, 0, 0, 0, 0, 0, 0, 0, 1, 0, 0, 0, 0, 0, 0, 0, 0, 1, 0, 0, 0, 0, 0, 0, 0, 0, 0, 0, 0, 0, 0, 0, 0, 0, 0, 0, 0, 0, 0, 0, 1, 0, 0, 0, 0, 0, 0, 0, 0, 0, 0, 0, 0, 0, 0, 0, 0, 0, 0, 0, 1, 0, 0, 0, 0, 0, 0, 0, 0, 0, 0, 0, 0, 0, 0, 0, 0, 0, 0, 0, 1, 0, 0, 0, 0, 0, 0, 0, 0, 0, 0, 0, 1, 0, 0, 0, 0, 0, 0, 0, 0, 1, 1, 1, 1, 1, 1, 1, 1, 0, 0, 0, 0, 1, 1, 1, 1, 1, 1, 1, 1, 1, 1, 1, 1, 1, 1, 1, 1, 1, 1, 1, 0, 0, 0, 0, 0, 0, 0, 0, 0, 1, 1, 1, 1, 1, 1, 1, 1, 1, 1, 1, 1, 1, 1, 1, 1, 1, 1, 1, 1, 1, 0, 0, 0, 0, 1, 1, 1, 1, 1, 1, 1, 1, 1, 1, 1, 0, 1, 1, 0, 0, 0, 0, 0, 1, 0, 0, 0, 0, 0, 0, 0, 0, 0, 0, 0, 0, 0, 0, 0, 0, 0, 0, 1, 0, 0, 0, 0, 0, 0, 0, 0, 0, 0, 0, 0, 0, 0, 0, 0, 0, 0, 0, 0, 0, 0, 0, 0, 0, 0, 0, 0, 0, 0, 0, 1, 0, 0, 0, 0, 0, 0, 0, 0, 0, 0, 0, 0, 0, 0, 0, 0, 0, 0, 0, 0, 0, 0, 0, 1, 0, 0, 0, 0, 0, 0, 0, 0, 1, 0, 0, 0, 0, 0, 0, 0, 0, 0, 0, 0, 0, 0, 0, 0, 0, 0, 0, 1, 0, 0, 0, 0, 0, 0, 0, 0, 0, 0, 0, 0, 0, 0, 0, 0, 0, 0, 0, 0, 0, 0, 0, 0, 0, 0, 0, 0, 0, 0, 0, 1, 0, 0, 0, 0, 0, 0, 0, 0, 0, 0, 0, 0, 0, 0, 0, 0, 0, 0, 0, 0, 0, 0, 0, 1, 0, 0, 0, 0, 0, 0, 0, 0, 1, 0, 1, 1, 1, 0, 1, 1, 1, 0, 0, 0, 0, 0, 0, 0, 0, 0, 0, 1, 0, 0, 0, 0, 0, 1, 0, 0, 0, 0, 0, 0, 0, 0, 0, 1, 0, 0, 0, 0, 0, 0, 0, 0, 0, 1, 0, 0, 0, 0, 0, 1, 0, 0, 0, 0, 0, 0, 0, 0, 0, 0, 0, 0, 0, 0, 0, 0, 0, 0, 0, 1, 1, 0, 0, 1, 0, 0, 0, 0, 0, 0, 0, 0, 1, 0, 0, 0, 0, 0, 0, 0, 0, 0, 0, 0, 0, 0, 0, 0, 0, 0, 0, 1, 0, 0, 0, 0, 0, 1, 0, 0, 0, 0, 0, 0, 0, 0, 0, 1, 0, 0, 0, 0, 0, 0, 0, 0, 0, 1, 0, 0, 0, 0, 0, 1, 0, 0, 0, 0, 0, 0, 0, 0, 0, 0, 0, 0, 0, 0, 0, 0, 0, 0, 0, 1, 1, 0, 0, 1, 0, 0, 0, 0, 0, 0, 0, 0, 1, 0, 0, 0, 0, 0, 0, 0, 0, 0, 0, 0, 0, 0, 0, 0, 0, 0, 0, 1, 0, 0, 0, 0, 0, 0, 0, 0, 0, 0, 0, 0, 0, 0, 0, 0, 0, 0, 0, 0, 0, 0, 0, 0, 0, 0, 0, 0, 0, 0, 0, 1, 0, 0, 0, 0, 0, 0, 0, 0, 0, 0, 0, 0, 0, 0, 0, 0, 0, 0, 0, 0, 0, 0, 0, 1, 0, 0, 0, 0, 0, 0, 0, 0, 1, 0, 1, 1, 1, 0, 1, 1, 1, 0, 0, 0, 0, 0, 0, 0, 0, 0, 0, 0, 0, 0, 0, 0, 0, 0, 1, 1, 1, 0, 0, 0, 0, 0, 0, 0, 0, 0, 0, 0, 0, 0, 0, 0, 0, 0, 0, 0, 0, 0, 0, 0, 0, 0, 1, 1, 0, 0, 0, 0, 0, 0, 0, 0, 0, 0, 0, 0, 0, 0, 0, 0, 0, 0, 0, 1, 0, 0, 0, 0, 1, 1, 1, 0, 1, 0, 0, 0, 0, 0, 0, 0, 0, 0, 0, 0, 0, 0, 0, 0, 0, 0, 0, 0, 0, 0, 1, 0, 0, 0, 0, 0, 0, 0, 0, 0, 0, 0, 0, 0, 0, 0, 0, 0, 0, 0, 0, 0, 0, 0, 0, 0, 1, 0, 0, 0, 0, 0, 1, 1, 0, 0, 0, 0, 0, 0, 0, 0, 0, 0, 0, 0, 0, 0, 0, 0, 0, 0, 0, 1, 0, 0, 0, 0, 0, 0, 0, 0, 1, 0, 0, 0, 0, 0, 0, 0, 0, 0, 0, 0, 0, 0, 0, 0, 0, 0, 0, 0, 0, 0, 0, 0, 1, 0, 0, 0, 0, 0, 0, 1, 0, 0, 0, 0, 0, 0, 0, 0, 0, 0, 0, 0, 0, 0, 0, 0, 0, 0, 0, 0, 0, 0, 0, 0, 0, 0, 0, 0, 0, 0, 0, 0, 0, 0, 0, 0, 0, 0, 0, 0, 0, 0, 0, 1, 0, 0, 0, 0, 0, 0, 0, 0, 1, 0, 1, 1, 1, 0, 1, 1, 1, 0, 0, 0, 0, 0, 0, 0, 0, 0, 0, 0, 0, 0, 0, 0, 1, 0, 0, 0, 0, 0, 0, 1, 0, 0, 0, 0, 0, 0, 0, 0, 0, 0, 0, 0, 0, 0, 0, 0, 0, 0, 0, 0, 0, 0, 0, 0, 0, 0, 0, 0, 0, 0, 0, 0, 0, 0, 0, 0, 0, 0, 0, 0, 0, 0, 0, 1, 0, 0, 0, 0, 0, 0, 0, 0, 1, 0, 0, 0, 0, 0, 0, 0, 0, 0, 0, 0, 1, 1, 1, 0, 0, 0, 0, 0, 0, 0, 0, 0, 0, 0, 0, 0, 0, 0, 0, 0, 0, 0, 0, 0, 0, 0, 0, 0, 0, 0, 0, 0, 0, 0, 0, 0, 0, 0, 0, 0, 0, 0, 0, 0, 0, 0, 0, 0, 0, 0, 0, 0, 0, 0, 0, 0, 0, 0, 0, 0, 0, 0, 0, 1, 0, 0, 0, 0, 0, 0, 0, 0, 1, 0, 0, 0, 0, 0, 0, 0, 0, 0, 0, 0, 0, 0, 0, 0, 0, 0, 0, 1, 0, 0, 0, 0, 0, 0, 0, 0, 0, 0, 0, 0, 0, 0, 0, 0, 0, 0, 0, 0, 0, 0, 0, 0, 0, 0, 0, 0, 0, 0, 0, 1, 0, 0, 0, 0, 0, 0, 0, 0, 0, 0, 0, 0, 0, 0, 0, 0, 0, 0, 0, 0, 0, 0, 0, 1, 0, 0, 0, 0, 0, 0, 0, 0, 1, 0, 1, 1, 1, 0, 1, 1, 1, 0, 0, 0, 0, 0, 0, 0, 0, 0, 0, 1, 0, 0, 0, 0, 0, 0, 1, 1, 1, 0, 0, 0, 0, 0, 0, 0, 0, 0, 0, 0, 0, 0, 0, 0, 0, 0, 0, 0, 0, 0, 0, 1, 0, 0, 0, 0, 0, 0, 0, 0, 0, 0, 0, 0, 0, 0, 0, 0, 0, 0, 0, 0, 0, 0, 0, 1, 0, 0, 1, 1, 1, 0, 0, 0, 1, 0, 0, 0, 0, 0, 0, 0, 0, 0, 0, 0, 0, 0, 0, 0, 0, 0, 0, 1, 0, 0, 0, 0, 0, 0, 0, 0, 0, 0, 0, 0, 0, 0, 0, 0, 0, 0, 0, 0, 0, 0, 0, 0, 0, 0, 0, 0, 0, 0, 0, 1, 0, 0, 0, 0, 0, 0, 0, 0, 0, 0, 0, 0, 0, 0, 0, 0, 0, 0, 0, 0, 0, 0, 0, 1, 0, 0, 0, 0, 0, 0, 0, 0, 1, 0, 0, 0, 0, 0, 0, 0, 0, 0, 0, 0, 0, 0, 0, 0, 0, 1, 0, 1, 0, 0, 0, 0, 0, 0, 0, 0, 0, 0, 0, 0, 0, 0, 0, 0, 0, 0, 0, 0, 0, 0, 0, 0, 0, 0, 0, 0, 0, 0, 0, 1, 0, 0, 0, 0, 0, 0, 0, 0, 0, 0, 0, 0, 0, 0, 0, 0, 0, 0, 0, 0, 0, 1, 0, 1, 0, 0, 0, 0, 0, 0, 0, 0, 1, 0, 0, 0, 0, 0, 0, 0, 0, 0, 0, 0, 0, 0, 0, 0, 0, 1, 0, 1, 0, 0, 0, 0, 0, 1, 0, 0, 0, 0, 0, 0, 0, 0, 0, 0, 0, 0, 0, 0, 0, 0, 0, 0, 0, 1, 0, 0, 0, 0, 0, 1, 0, 0, 0, 0, 0, 0, 0, 0, 0, 0, 0, 0, 0, 0, 0, 0, 0, 0, 0, 0, 0, 1, 0, 1, 0, 0, 0, 0, 0, 0, 0, 0, 1, 0, 0, 0, 0, 0, 0, 0, 0, 0, 0, 0, 0, 0, 0, 0, 0, 0, 0, 1, 0, 0, 0, 0, 0, 1, 0, 0, 0, 0, 0, 0, 0, 0, 0, 0, 0, 0, 0, 0, 0, 0, 0, 0, 0, 1, 0, 0, 0, 0, 0, 1, 0, 0, 0, 0, 0, 0, 0, 0, 0, 0, 0, 0, 0, 0, 0, 0, 0, 0, 0, 0, 0, 0, 0, 1, 0, 0, 0, 0, 0, 0, 0, 0, 1, 1, 1, 1, 1, 1, 1, 1, 0, 0, 0, 0, 1, 1, 1, 1, 1, 1, 1, 1, 1, 1, 1, 1, 1, 1, 1, 1, 1, 1, 1, 0, 0, 0, 0, 0, 0, 0, 0, 0, 1, 1, 1, 1, 1, 1, 1, 1, 1, 1, 1, 1, 1, 1, 1, 1, 1, 1, 1, 1, 1, 0, 0, 0, 0, 1, 1, 1, 1, 1, 1, 1, 1, 1, 1, 1, 0, 0, 0, 0, 0, 0, 0, 0, 1, 0, 0, 0, 0, 0, 0, 0, 0, 0, 0, 0, 0, 0, 0, 0, 0, 0, 0, 0, 0, 0, 0, 0, 0, 0, 0, 0, 0, 0, 0, 0, 0, 0, 0, 0, 0, 0, 0, 0, 0, 0, 0, 0, 0, 0, 0, 0, 0, 0, 0, 0, 0, 0, 0, 0, 0, 0, 0, 0, 0, 0, 0, 0, 0, 0, 0, 0, 0, 0, 0, 0, 0, 0, 0, 1, 0, 0, 0, 0, 0, 0, 0, 0, 1, 0, 0, 0, 0, 0, 0, 0, 0, 0, 0, 0, 0, 0, 0, 0, 0, 0, 0, 0, 0, 0, 1, 0, 0, 0, 0, 0, 0, 0, 0, 0, 0, 0, 0, 0, 0, 0, 0, 0, 0, 0, 0, 0, 0, 0, 0, 0, 1, 0, 0, 0, 0, 0, 0, 0, 0, 0, 0, 0, 0, 0, 0, 0, 0, 0, 0, 0, 0, 0, 0, 0, 0, 0, 0, 1, 0, 0, 0, 0, 0, 0, 0, 0, 1, 0, 0, 0, 0, 0, 0, 0, 0, 0, 0, 0, 0, 0, 0, 0, 0, 0, 0, 0, 0, 0, 0, 0, 0, 0, 0, 0, 0, 0, 0, 0, 0, 0, 0, 0, 0, 0, 0, 0, 0, 0, 0, 0, 0, 0, 0, 0, 0, 0, 0, 0, 0, 0, 0, 0, 0, 0, 0, 0, 0, 0, 0, 0, 0, 0, 0, 0, 0, 0, 0, 0, 0, 0, 0, 1, 0, 1, 1, 1, 0, 0, 0, 0, 1, 0, 0, 0, 0, 0, 0, 0, 0, 0, 0, 0, 0, 0, 0, 0, 0, 0, 0, 0, 0, 0, 0, 0, 0, 0, 0, 1, 0, 0, 0, 0, 0, 0, 0, 0, 0, 0, 0, 0, 0, 0, 0, 0, 0, 0, 0, 1, 0, 0, 0, 0, 0, 0, 0, 0, 0, 0, 0, 0, 0, 0, 0, 0, 0, 0, 0, 1, 0, 0, 0, 0, 0, 0, 0, 1, 0, 0, 0, 0, 0, 0, 0, 0, 1, 0, 0, 0, 0, 0, 0, 0, 0, 0, 0, 0, 0, 0, 0, 0, 0, 0, 0, 0, 0, 0, 0, 0, 0, 0, 0, 1, 0, 0, 0, 0, 0, 0, 0, 0, 0, 0, 0, 0, 0, 0, 0, 0, 0, 0, 0, 1, 0, 0, 0, 0, 0, 0, 0, 0, 0, 0, 0, 0, 0, 0, 0, 0, 0, 0, 0, 1, 0, 0, 0, 0, 0, 0, 0, 1, 0, 0, 0, 0, 0, 0, 0, 0, 1, 1, 1, 1, 1, 1, 1, 1, 0, 0, 0, 0, 1, 1, 1, 1, 1, 1, 1, 1, 1, 1, 1, 1, 1, 1, 1, 0, 0, 0, 0, 1, 1, 1, 1, 1, 1, 1, 1, 1, 1, 1, 1, 1, 1, 1, 0, 0, 0, 0, 1, 1, 1, 1, 1, 1, 1, 1, 1, 1, 1, 1, 1, 1, 0, 0, 0, 0, 1, 1, 1, 1, 1, 1, 1, 1, 0, 0, 0, 0, 0, 0, 0, 0, 1, 0, 0, 0, 0, 0, 0, 0, 0, 0, 0, 0, 0, 0, 0, 0, 0, 0, 0, 1, 0, 0, 0, 0, 0, 0, 0, 0, 0, 0, 0, 0, 0, 0, 0, 0, 0, 0, 1, 0, 0, 0, 0, 0, 0, 0, 0, 0, 0, 0, 0, 0, 0, 0, 0, 0, 0, 1, 0, 0, 0, 0, 0, 0, 0, 0, 0, 0, 0, 0, 0, 0, 0, 0, 0, 1, 0, 0, 0, 0, 0, 0, 0, 0, 1, 0, 0, 0, 0, 0, 0, 0, 0, 0, 0, 0, 0, 0, 0, 0, 0, 0, 0, 1, 0, 0, 0, 0, 0, 0, 0, 0, 0, 0, 0, 0, 0, 0, 0, 0, 0, 0, 1, 0, 0, 0, 0, 0, 0, 0, 0, 0, 0, 0, 0, 0, 0, 0, 0, 0, 0, 1, 0, 0, 0, 0, 0, 0, 0, 0, 0, 0, 0, 0, 0, 0, 0, 0, 0, 1, 0, 0, 0, 0, 0, 0, 0, 0, 1, 0, 1, 0, 0, 0, 0, 0, 0, 0, 0, 0, 0, 0, 0, 0, 0, 0, 0, 1, 0, 0, 0, 0, 0, 0, 0, 0, 0, 0, 0, 0, 0, 0, 0, 1, 1, 0, 1, 0, 1, 1, 1, 0, 0, 0, 0, 0, 0, 0, 0, 0, 0, 0, 1, 1, 0, 1, 0, 0, 0, 0, 0, 0, 0, 0, 0, 0, 0, 0, 0, 0, 0, 0, 0, 1, 0, 0, 0, 0, 0, 0, 0, 0, 1, 0, 1, 0, 0, 0, 0, 0, 0, 0, 0, 0, 0, 0, 0, 0, 0, 0, 0, 1, 0, 0, 0, 0, 0, 0, 0, 0, 0, 0, 0, 0, 0, 0, 0, 1, 1, 0, 1, 0, 0, 0, 0, 0, 0, 1, 1, 0, 0, 1, 1, 0, 0, 0, 1, 1, 0, 1, 0, 0, 0, 0, 0, 0, 0, 0, 0, 0, 0, 0, 0, 0, 0, 0, 0, 1, 0, 0, 0, 0, 0, 0, 0, 0, 1, 0, 0, 0, 0, 0, 0, 0, 0, 0, 0, 0, 0, 0, 0, 0, 0, 1, 1, 1, 0, 0, 0, 0, 0, 0, 0, 0, 0, 0, 0, 0, 0, 0, 0, 0, 0, 0, 1, 0, 0, 0, 0, 0, 0, 1, 1, 0, 0, 1, 1, 0, 0, 0, 0, 0, 0, 1, 0, 0, 0, 0, 1, 1, 0, 0, 0, 0, 0, 1, 1, 0, 0, 0, 0, 1, 0, 0, 0, 0, 0, 0, 0, 0, 1, 0, 0, 0, 0, 0, 0, 0, 0, 1, 0, 0, 0, 0, 0, 0, 0, 0, 0, 1, 0, 0, 0, 0, 0, 0, 0, 0, 0, 0, 0, 0, 0, 0, 0, 1, 1, 0, 1, 0, 0, 0, 0, 0, 0, 0, 0, 0, 0, 0, 0, 0, 0, 0, 0, 0, 0, 1, 0, 1, 1, 0, 1, 1, 0, 0, 0, 0, 0, 1, 1, 0, 0, 1, 1, 1, 0, 0, 0, 0, 0, 0, 0, 0, 1, 0, 0, 0, 1, 1, 1, 0, 0, 1, 0, 0, 0, 0, 0, 0, 0, 0, 0, 1, 0, 0, 0, 0, 0, 0, 0, 0, 0, 0, 0, 0, 0, 0, 0, 1, 1, 0, 1, 0, 0, 0, 0, 0, 0, 0, 0, 0, 0, 0, 0, 0, 0, 0, 0, 0, 0, 1, 0, 0, 0, 0, 0, 0, 0, 0, 0, 0, 0, 0, 0, 0, 0, 0, 0, 1, 0, 0, 0, 1, 1, 1, 0, 0, 1, 0, 0, 0, 0, 0, 0, 0, 0, 0, 0, 0, 0, 0, 0, 0, 0, 0, 0, 1, 0, 0, 0, 0, 0, 0, 0, 0, 0, 0, 0, 0, 0, 0, 0, 0, 0, 0, 1, 0, 0, 0, 0, 0, 0, 0, 0, 0, 0, 0, 0, 0, 0, 0, 0, 0, 0, 1, 0, 0, 0, 0, 0, 0, 0, 0, 0, 0, 0, 0, 0, 0, 0, 0, 0, 1, 0, 0, 0, 0, 0, 0, 0, 0, 1, 0, 0, 0, 0, 0, 0, 0, 0, 0, 0, 0, 0, 0, 0, 0, 0, 0, 0, 1, 0, 0, 0, 0, 0, 0, 0, 0, 0, 0, 0, 0, 0, 0, 0, 0, 0, 0, 1, 0, 0, 0, 0, 0, 0, 0, 0, 0, 0, 0, 0, 0, 0, 0, 0, 0, 0, 1, 0, 0, 0, 0, 0, 0, 0, 0, 0, 0, 0, 0, 0, 0, 0, 0, 0, 1, 0, 0, 0, 0, 0, 0, 0, 0, 1, 0, 0, 0, 0, 0, 0, 0, 0, 0, 0, 0, 0, 0, 0, 0, 0, 0, 0, 1, 0, 0, 0, 0, 0, 0, 0, 0, 0, 0, 1, 1, 0, 0, 0, 0, 0, 0, 1, 0, 0, 0, 0, 0, 0, 0, 0, 0, 0, 0, 0, 0, 0, 0, 0, 0, 0, 1, 0, 1, 1, 1, 0, 0, 0, 0, 0, 0, 0, 0, 0, 0, 0, 0, 0, 1, 0, 0, 0, 0, 0, 0, 0, 0, 1, 0, 0, 0, 0, 0, 0, 0, 0, 0, 0, 0, 0, 0, 0, 0, 0, 0, 0, 1, 0, 0, 0, 0, 0, 0, 0, 0, 0, 0, 1, 1, 0, 0, 0, 0, 0, 0, 1, 0, 0, 0, 0, 0, 0, 0, 0, 0, 0, 0, 0, 0, 0, 0, 0, 0, 0, 1, 0, 0, 0, 0, 0, 0, 0, 0, 0, 0, 0, 0, 0, 0, 1, 1, 0, 1, 0, 0, 0, 0, 0, 0, 0, 0, 1, 0, 0, 0, 0, 0, 0, 0, 0, 0, 0, 0, 0, 0, 0, 0, 0, 0, 0, 1, 0, 0, 0, 0, 0, 0, 0, 0, 0, 0, 0, 0, 0, 0, 0, 0, 0, 0, 1, 0, 0, 0, 0, 0, 0, 0, 0, 0, 0, 0, 0, 0, 0, 0, 0, 0, 0, 1, 0, 0, 0, 0, 0, 0, 0, 0, 0, 0, 0, 0, 0, 0, 0, 0, 0, 1, 0, 0, 0, 0, 0, 0, 0, 0, 1, 0, 0, 0, 0, 0, 0, 0, 0, 0, 0, 0, 0, 0, 0, 0, 0, 0, 0, 1, 0, 0, 0, 0, 0, 0, 0, 0, 0, 0, 0, 0, 0, 0, 0, 0, 0, 0, 1, 0, 0, 0, 0, 0, 0, 0, 0, 0, 0, 0, 0, 0, 0, 0, 0, 0, 0, 1, 0, 0, 0, 1, 1, 1, 0, 0, 0, 0, 0, 1, 1, 1, 0, 0, 0, 1, 0, 0, 0, 0, 0, 0, 0, 0, 1, 0, 0, 0, 0, 0, 0, 0, 0, 0, 0, 0, 0, 0, 0, 0, 0, 0, 0, 1, 0, 0, 0, 0, 0, 0, 0, 0, 0, 0, 0, 0, 0, 0, 0, 0, 0, 0, 1, 0, 0, 0, 0, 0, 0, 0, 0, 0, 0, 0, 0, 0, 0, 0, 0, 0, 0, 1, 0, 0, 0, 0, 0, 0, 0, 0, 0, 0, 0, 0, 0, 0, 0, 0, 0, 1, 0, 0, 0, 0, 0, 0, 0, 0, 1, 0, 0, 0, 0, 0, 0, 0, 0, 0, 0, 0, 0, 0, 0, 0, 0, 0, 0, 1, 0, 0, 0, 0, 0, 0, 0, 0, 0, 0, 0, 0, 0, 0, 0, 0, 1, 0, 1, 0, 0, 0, 0, 0, 0, 0, 0, 0, 0, 0, 0, 0, 0, 0, 0, 1, 0, 1, 0, 1, 1, 0, 0, 0, 0, 0, 0, 0, 0, 0, 0, 0, 0, 0, 0, 1, 0, 0, 0, 0, 1, 1, 1, 0, 1, 0, 0, 0, 0, 0, 0, 0, 0, 0, 0, 0, 0, 0, 0, 0, 0, 0, 0, 1, 0, 0, 0, 0, 0, 0, 0, 0, 0, 0, 0, 0, 0, 0, 0, 0, 1, 0, 1, 0, 0, 0, 0, 0, 0, 0, 0, 0, 0, 0, 0, 0, 0, 0, 0, 1, 0, 1, 0, 0, 0, 0, 0, 0, 0, 0, 0, 0, 0, 0, 0, 0, 0, 0, 0, 1, 0, 0, 0, 0, 0, 0, 0, 0, 1, 1, 1, 1, 1, 1, 1, 1, 1, 1, 1, 1, 1, 1, 1, 1, 1, 1, 1, 1, 1, 1, 1, 1, 1, 1, 1, 1, 1, 1, 1, 1, 1, 1, 1, 1, 1, 1, 1, 1, 1, 1, 1, 1, 1, 1, 1, 1, 1, 1, 1, 1, 1, 1, 1, 1, 1, 1, 1, 1, 1, 1, 1, 1, 1, 1, 1, 1, 1, 1, 1, 1, 1, 1, 1, 1, 0, 0, 0, 0, 0, 0, 0, 0, 0, 0, 0, 0, 0, 0, 0, 0, 0, 0, 0, 0, 0, 0, 0, 0, 0, 0, 0, 0, 0, 0, 0, 0, 0, 0, 0, 0, 0, 0, 0, 0, 0, 0, 0, 0, 0, 0, 0, 0, 0, 0, 0, 0, 0, 0, 0, 0, 0, 0, 0, 0, 0, 0, 0, 0, 0, 0, 0, 0, 0, 0, 0, 0, 0, 0, 0, 0, 0, 0, 0, 0, 0, 0, 0, 0, 0]}, {"id": 7, "name": "Objects", "type": "objectgroup", "opacity": 1, "visible": true, "x": 0, "y": 0, "draworder": "topdown", "objects": [{"id": 6, "rotation": 0, "visible": true, "x": 272, "y": 112, "width": 16, "height": 32, "name": "Reception Seat", "class": "seat", "properties": [{"name": "facing", "type": "string", "value": "up"}, {"name": "seatType", "type": "string", "value": "deskchair"}]}, {"id": 19, "rotation": 0, "visible": true, "x": 464, "y": 96, "width": 16, "height": 32, "name": "Desk Seat", "class": "seat", "properties": [{"name": "facing", "type": "string", "value": "up"}, {"name": "seatType", "type": "string", "value": "deskchair"}]}, {"id": 22, "rotation": 0, "visible": true, "x": 528, "y": 96, "width": 16, "height": 32, "name": "Desk Seat", "class": "seat", "properties": [{"name": "facing", "type": "string", "value": "up"}, {"name": "seatType", "type": "string", "value": "deskchair"}]}, {"id": 25, "rotation": 0, "visible": true, "x": 592, "y": 96, "width": 16, "height": 32, "name": "Desk Seat", "class": "seat", "properties": [{"name": "facing", "type": "string", "value": "up"}, {"name": "seatType", "type": "string", "value": "deskchair"}]}, {"id": 28, "rotation": 0, "visible": true, "x": 656, "y": 96, "width": 16, "height": 32, "name": "Desk Seat", "class": "seat", "properties": [{"name": "facing", "type": "string", "value": "up"}, {"name": "seatType", "type": "string", "value": "deskchair"}]}, {"id": 31, "rotation": 0, "visible": true, "x": 464, "y": 192, "width": 16, "height": 32, "name": "Desk Seat", "class": "seat", "properties": [{"name": "facing", "type": "string", "value": "up"}, {"name": "seatType", "type": "string", "value": "deskchair"}]}, {"id": 34, "rotation": 0, "visible": true, "x": 528, "y": 192, "width": 16, "height": 32, "name": "Desk Seat", "class": "seat", "properties": [{"name": "facing", "type": "string", "value": "up"}, {"name": "seatType", "type": "string", "value": "deskchair"}]}, {"id": 37, "rotation": 0, "visible": true, "x": 592, "y": 192, "width": 16, "height": 32, "name": "Desk Seat", "class": "seat", "properties": [{"name": "facing", "type": "string", "value": "up"}, {"name": "seatType", "type": "string", "value": "deskchair"}]}, {"id": 40, "rotation": 0, "visible": true, "x": 656, "y": 192, "width": 16, "height": 32, "name": "Desk Seat", "class": "seat", "properties": [{"name": "facing", "type": "string", "value": "up"}, {"name": "seatType", "type": "string", "value": "deskchair"}]}, {"id": 52, "rotation": 0, "visible": true, "x": 832, "y": 128, "width": 16, "height": 32, "name": "Meeting Seat", "class": "seat", "properties": [{"name": "facing", "type": "string", "value": "right"}, {"name": "seatType", "type": "string", "value": "chair"}]}, {"id": 54, "rotation": 0, "visible": true, "x": 944, "y": 128, "width": 16, "height": 32, "name": "Meeting Seat", "class": "seat", "properties": [{"name": "facing", "type": "string", "value": "left"}, {"name": "seatType", "type": "string", "value": "chair"}]}, {"id": 56, "rotation": 0, "visible": true, "x": 832, "y": 160, "width": 16, "height": 32, "name": "Meeting Seat", "class": "seat", "properties": [{"name": "facing", "type": "string", "value": "right"}, {"name": "seatType", "type": "string", "value": "chair"}]}, {"id": 58, "rotation": 0, "visible": true, "x": 944, "y": 160, "width": 16, "height": 32, "name": "Meeting Seat", "class": "seat", "properties": [{"name": "facing", "type": "string", "value": "left"}, {"name": "seatType", "type": "string", "value": "chair"}]}, {"id": 60, "rotation": 0, "visible": true, "x": 832, "y": 192, "width": 16, "height": 32, "name": "Meeting Seat", "class": "seat", "properties": [{"name": "facing", "type": "string", "value": "right"}, {"name": "seatType", "type": "string", "value": "chair"}]}, {"id": 62, "rotation": 0, "visible": true, "x": 944, "y": 192, "width": 16, "height": 32, "name": "Meeting Seat", "class": "seat", "properties": [{"name": "facing", "type": "string", "value": "left"}, {"name": "seatType", "type": "string", "value": "chair"}]}, {"id": 74, "rotation": 0, "visible": true, "x": 1072, "y": 160, "width": 32, "height": 32, "name": "Cafe Seat", "class": "seat", "properties": [{"name": "facing", "type": "string", "value": "up"}, {"name": "seatType", "type": "string", "value": "stool"}]}, {"id": 77, "rotation": 0, "visible": true, "x": 1152, "y": 160, "width": 32, "height": 32, "name": "Cafe Seat", "class": "seat", "properties": [{"name": "facing", "type": "string", "value": "up"}, {"name": "seatType", "type": "string", "value": "stool"}]}, {"id": 80, "rotation": 0, "visible": true, "x": 1232, "y": 160, "width": 32, "height": 32, "name": "Cafe Seat", "class": "seat", "properties": [{"name": "facing", "type": "string", "value": "up"}, {"name": "seatType", "type": "string", "value": "stool"}]}, {"id": 83, "rotation": 0, "visible": true, "x": 1072, "y": 240, "width": 32, "height": 32, "name": "Cafe Seat", "class": "seat", "properties": [{"name": "facing", "type": "string", "value": "up"}, {"name": "seatType", "type": "string", "value": "stool"}]}, {"id": 86, "rotation": 0, "visible": true, "x": 1152, "y": 240, "width": 32, "height": 32, "name": "Cafe Seat", "class": "seat", "properties": [{"name": "facing", "type": "string", "value": "up"}, {"name": "seatType", "type": "string", "value": "stool"}]}, {"id": 89, "rotation": 0, "visible": true, "x": 1232, "y": 240, "width": 32, "height": 32, "name": "Cafe Seat", "class": "seat", "properties": [{"name": "facing", "type": "string", "value": "up"}, {"name": "seatType", "type": "string", "value": "stool"}]}, {"id": 102, "rotation": 0, "visible": true, "x": 304, "y": 544, "width": 48, "height": 16, "name": "Study Seat", "class": "seat", "properties": [{"name": "facing", "type": "string", "value": "up"}, {"name": "seatType", "type": "string", "value": "chair"}]}, {"id": 128, "rotation": 0, "visible": true, "x": 976, "y": 512, "width": 16, "height": 32, "name": "Desk Seat", "class": "seat", "properties": [{"name": "facing", "type": "string", "value": "up"}, {"name": "seatType", "type": "string", "value": "deskchair"}]}, {"id": 131, "rotation": 0, "visible": true, "x": 1040, "y": 512, "width": 16, "height": 32, "name": "Desk Seat", "class": "seat", "properties": [{"name": "facing", "type": "string", "value": "up"}, {"name": "seatType", "type": "string", "value": "deskchair"}]}, {"id": 134, "rotation": 0, "visible": true, "x": 1104, "y": 512, "width": 16, "height": 32, "name": "Desk Seat", "class": "seat", "properties": [{"name": "facing", "type": "string", "value": "up"}, {"name": "seatType", "type": "string", "value": "deskchair"}]}, {"id": 137, "rotation": 0, "visible": true, "x": 976, "y": 592, "width": 16, "height": 32, "name": "Desk Seat", "class": "seat", "properties": [{"name": "facing", "type": "string", "value": "up"}, {"name": "seatType", "type": "string", "value": "deskchair"}]}, {"id": 140, "rotation": 0, "visible": true, "x": 1040, "y": 592, "width": 16, "height": 32, "name": "Desk Seat", "class": "seat", "properties": [{"name": "facing", "type": "string", "value": "up"}, {"name": "seatType", "type": "string", "value": "deskchair"}]}, {"id": 143, "rotation": 0, "visible": true, "x": 1104, "y": 592, "width": 16, "height": 32, "name": "Desk Seat", "class": "seat", "properties": [{"name": "facing", "type": "string", "value": "up"}, {"name": "seatType", "type": "string", "value": "deskchair"}]}, {"id": 158, "rotation": 0, "visible": true, "x": 464, "y": 848, "width": 16, "height": 32, "name": "Desk Seat", "class": "seat", "properties": [{"name": "facing", "type": "string", "value": "up"}, {"name": "seatType", "type": "string", "value": "deskchair"}]}, {"id": 161, "rotation": 0, "visible": true, "x": 528, "y": 848, "width": 16, "height": 32, "name": "Desk Seat", "class": "seat", "properties": [{"name": "facing", "type": "string", "value": "up"}, {"name": "seatType", "type": "string", "value": "deskchair"}]}, {"id": 164, "rotation": 0, "visible": true, "x": 592, "y": 848, "width": 16, "height": 32, "name": "Desk Seat", "class": "seat", "properties": [{"name": "facing", "type": "string", "value": "up"}, {"name": "seatType", "type": "string", "value": "deskchair"}]}, {"id": 167, "rotation": 0, "visible": true, "x": 656, "y": 848, "width": 16, "height": 32, "name": "Desk Seat", "class": "seat", "properties": [{"name": "facing", "type": "string", "value": "up"}, {"name": "seatType", "type": "string", "value": "deskchair"}]}, {"id": 170, "rotation": 0, "visible": true, "x": 464, "y": 944, "width": 16, "height": 32, "name": "Desk Seat", "class": "seat", "properties": [{"name": "facing", "type": "string", "value": "up"}, {"name": "seatType", "type": "string", "value": "deskchair"}]}, {"id": 173, "rotation": 0, "visible": true, "x": 528, "y": 944, "width": 16, "height": 32, "name": "Desk Seat", "class": "seat", "properties": [{"name": "facing", "type": "string", "value": "up"}, {"name": "seatType", "type": "string", "value": "deskchair"}]}, {"id": 176, "rotation": 0, "visible": true, "x": 592, "y": 944, "width": 16, "height": 32, "name": "Desk Seat", "class": "seat", "properties": [{"name": "facing", "type": "string", "value": "up"}, {"name": "seatType", "type": "string", "value": "deskchair"}]}, {"id": 179, "rotation": 0, "visible": true, "x": 656, "y": 944, "width": 16, "height": 32, "name": "Desk Seat", "class": "seat", "properties": [{"name": "facing", "type": "string", "value": "up"}, {"name": "seatType", "type": "string", "value": "deskchair"}]}, {"id": 188, "rotation": 0, "visible": true, "x": 864, "y": 848, "width": 16, "height": 32, "name": "HR Seat", "class": "seat", "properties": [{"name": "facing", "type": "string", "value": "up"}, {"name": "seatType", "type": "string", "value": "deskchair"}]}, {"id": 202, "rotation": 0, "visible": true, "x": 1104, "y": 832, "width": 32, "height": 32, "name": "Terrace Seat", "class": "seat", "properties": [{"name": "facing", "type": "string", "value": "down"}, {"name": "seatType", "type": "string", "value": "sofa"}]}, {"id": 203, "rotation": 0, "visible": true, "x": 1216, "y": 832, "width": 32, "height": 32, "name": "Terrace Seat", "class": "seat", "properties": [{"name": "facing", "type": "string", "value": "down"}, {"name": "seatType", "type": "string", "value": "sofa"}]}, {"id": 382, "rotation": 0, "visible": true, "x": 320, "y": 288, "width": 64, "height": 16, "name": "Reception Door", "class": "door", "properties": [{"name": "locked", "type": "bool", "value": false}]}, {"id": 384, "rotation": 0, "visible": true, "x": 544, "y": 288, "width": 64, "height": 16, "name": "Workstation Door", "class": "door", "properties": [{"name": "locked", "type": "bool", "value": false}]}, {"id": 386, "rotation": 0, "visible": true, "x": 848, "y": 288, "width": 64, "height": 16, "name": "Meeting Room Door", "class": "door", "properties": [{"name": "locked", "type": "bool", "value": false}]}, {"id": 388, "rotation": 0, "visible": true, "x": 1136, "y": 288, "width": 64, "height": 16, "name": "Break Room Door", "class": "door", "properties": [{"name": "locked", "type": "bool", "value": false}]}, {"id": 390, "rotation": 0, "visible": true, "x": 240, "y": 384, "width": 64, "height": 16, "name": "Library Door", "class": "door", "properties": [{"name": "locked", "type": "bool", "value": false}]}, {"id": 391, "rotation": 0, "visible": true, "x": 608, "y": 384, "width": 144, "height": 16, "name": "Recreation North Arch", "class": "door", "properties": [{"name": "locked", "type": "bool", "value": false}]}, {"id": 393, "rotation": 0, "visible": true, "x": 1088, "y": 384, "width": 64, "height": 16, "name": "Project Room Door", "class": "door", "properties": [{"name": "locked", "type": "bool", "value": false}]}, {"id": 395, "rotation": 0, "visible": true, "x": 240, "y": 656, "width": 64, "height": 16, "name": "Library South Door", "class": "door", "properties": [{"name": "locked", "type": "bool", "value": false}]}, {"id": 396, "rotation": 0, "visible": true, "x": 608, "y": 656, "width": 144, "height": 16, "name": "Recreation South Arch", "class": "door", "properties": [{"name": "locked", "type": "bool", "value": false}]}, {"id": 398, "rotation": 0, "visible": true, "x": 1088, "y": 656, "width": 64, "height": 16, "name": "Project South Door", "class": "door", "properties": [{"name": "locked", "type": "bool", "value": false}]}, {"id": 400, "rotation": 0, "visible": true, "x": 240, "y": 752, "width": 64, "height": 16, "name": "Lounge Door", "class": "door", "properties": [{"name": "locked", "type": "bool", "value": false}]}, {"id": 402, "rotation": 0, "visible": true, "x": 544, "y": 752, "width": 64, "height": 16, "name": "Developer Door", "class": "door", "properties": [{"name": "locked", "type": "bool", "value": false}]}, {"id": 404, "rotation": 0, "visible": true, "x": 848, "y": 752, "width": 64, "height": 16, "name": "HR Cabin Door", "class": "door", "properties": [{"name": "locked", "type": "bool", "value": false}]}, {"id": 406, "rotation": 0, "visible": true, "x": 1136, "y": 752, "width": 64, "height": 16, "name": "Terrace Door", "class": "door", "properties": [{"name": "locked", "type": "bool", "value": false}]}, {"id": 407, "rotation": 0, "visible": true, "x": 416, "y": 480, "width": 16, "height": 80, "name": "Recreation West Arch", "class": "door", "properties": [{"name": "locked", "type": "bool", "value": false}]}, {"id": 408, "rotation": 0, "visible": true, "x": 928, "y": 480, "width": 16, "height": 80, "name": "Recreation East Arch", "class": "door", "properties": [{"name": "locked", "type": "bool", "value": false}]}, {"id": 410, "rotation": 0, "visible": true, "x": 112, "y": 128, "width": 16, "height": 64, "name": "Main Entrance", "class": "door", "properties": [{"name": "locked", "type": "bool", "value": false}]}, {"id": 414, "rotation": 0, "visible": true, "x": 128, "y": 32, "width": 288, "height": 256, "name": "Reception Lobby", "class": "meeting-room", "properties": [{"name": "name", "type": "string", "value": "Reception Lobby"}, {"name": "capacity", "type": "int", "value": 12}, {"name": "private", "type": "bool", "value": false}]}, {"id": 417, "rotation": 0, "visible": true, "x": 432, "y": 32, "width": 288, "height": 256, "name": "Workstation Area", "class": "meeting-room", "properties": [{"name": "name", "type": "string", "value": "Workstation Area"}, {"name": "capacity", "type": "int", "value": 16}, {"name": "private", "type": "bool", "value": false}]}, {"id": 420, "rotation": 0, "visible": true, "x": 736, "y": 32, "width": 288, "height": 256, "name": "Meeting Room", "class": "meeting-room", "properties": [{"name": "name", "type": "string", "value": "Meeting Room"}, {"name": "capacity", "type": "int", "value": 8}, {"name": "private", "type": "bool", "value": true}]}, {"id": 423, "rotation": 0, "visible": true, "x": 1040, "y": 32, "width": 272, "height": 256, "name": "Break Room", "class": "meeting-room", "properties": [{"name": "name", "type": "string", "value": "Break Room"}, {"name": "capacity", "type": "int", "value": 12}, {"name": "private", "type": "bool", "value": false}]}, {"id": 426, "rotation": 0, "visible": true, "x": 128, "y": 400, "width": 288, "height": 256, "name": "Library / Resource Room", "class": "meeting-room", "properties": [{"name": "name", "type": "string", "value": "Library / Resource Room"}, {"name": "capacity", "type": "int", "value": 10}, {"name": "private", "type": "bool", "value": true}]}, {"id": 429, "rotation": 0, "visible": true, "x": 432, "y": 400, "width": 496, "height": 256, "name": "Recreation Area", "class": "meeting-room", "properties": [{"name": "name", "type": "string", "value": "Recreation Area"}, {"name": "capacity", "type": "int", "value": 20}, {"name": "private", "type": "bool", "value": false}]}, {"id": 431, "rotation": 0, "visible": true, "x": 944, "y": 400, "width": 368, "height": 256, "name": "Project Room", "class": "meeting-room", "properties": [{"name": "name", "type": "string", "value": "Project Room"}, {"name": "capacity", "type": "int", "value": 10}, {"name": "private", "type": "bool", "value": true}]}, {"id": 434, "rotation": 0, "visible": true, "x": 128, "y": 768, "width": 288, "height": 256, "name": "Lounge Area", "class": "meeting-room", "properties": [{"name": "name", "type": "string", "value": "Lounge Area"}, {"name": "capacity", "type": "int", "value": 12}, {"name": "private", "type": "bool", "value": false}]}, {"id": 437, "rotation": 0, "visible": true, "x": 432, "y": 768, "width": 288, "height": 256, "name": "Developer Zone", "class": "meeting-room", "properties": [{"name": "name", "type": "string", "value": "Developer Zone"}, {"name": "capacity", "type": "int", "value": 16}, {"name": "private", "type": "bool", "value": false}]}, {"id": 440, "rotation": 0, "visible": true, "x": 736, "y": 768, "width": 288, "height": 256, "name": "HR Cabin", "class": "meeting-room", "properties": [{"name": "name", "type": "string", "value": "HR Cabin"}, {"name": "capacity", "type": "int", "value": 4}, {"name": "private", "type": "bool", "value": true}]}, {"id": 443, "rotation": 0, "visible": true, "x": 1040, "y": 768, "width": 272, "height": 256, "name": "Garden Terrace", "class": "meeting-room", "properties": [{"name": "name", "type": "string", "value": "Garden Terrace"}, {"name": "capacity", "type": "int", "value": 12}, {"name": "private", "type": "bool", "value": false}]}, {"id": 446, "rotation": 0, "visible": true, "x": 464, "y": 64, "width": 256, "height": 128, "name": "Workstation Pods", "class": "workstation", "properties": [{"name": "capacity", "type": "int", "value": 8}]}, {"id": 447, "rotation": 0, "visible": true, "x": 464, "y": 816, "width": 256, "height": 128, "name": "Developer Pods", "class": "workstation", "properties": [{"name": "capacity", "type": "int", "value": 8}]}, {"id": 448, "rotation": 0, "visible": true, "x": 976, "y": 480, "width": 192, "height": 112, "name": "Project Pods", "class": "workstation", "properties": [{"name": "capacity", "type": "int", "value": 6}]}, {"id": 449, "rotation": 0, "visible": true, "x": 304, "y": 128, "width": 16, "height": 16, "name": "Receptionist", "class": "npc", "properties": [{"name": "id", "type": "string", "value": "receptionist"}, {"name": "dialog", "type": "string", "value": "hq.welcome"}]}]}, {"id": 8, "name": "SpawnPoints", "type": "objectgroup", "opacity": 1, "visible": true, "x": 0, "y": 0, "draworder": "topdown", "objects": [{"id": 411, "rotation": 0, "visible": true, "x": 48, "y": 144, "width": 16, "height": 16, "name": "Main Entrance Spawn", "class": "spawn", "properties": [{"name": "id", "type": "string", "value": "entrance"}, {"name": "default", "type": "bool", "value": true}]}, {"id": 412, "rotation": 0, "visible": true, "x": 256, "y": 208, "width": 16, "height": 16, "name": "Lobby Spawn", "class": "spawn", "properties": [{"name": "id", "type": "string", "value": "lobby"}, {"name": "default", "type": "bool", "value": false}]}, {"id": 413, "rotation": 0, "visible": true, "x": 672, "y": 528, "width": 16, "height": 16, "name": "Recreation Spawn", "class": "spawn", "properties": [{"name": "id", "type": "string", "value": "recreation"}, {"name": "default", "type": "bool", "value": false}]}]}, {"id": 9, "name": "InteractionZones", "type": "objectgroup", "opacity": 1, "visible": true, "x": 0, "y": 0, "draworder": "topdown", "objects": [{"id": 415, "rotation": 0, "visible": true, "x": 128, "y": 32, "width": 288, "height": 256, "name": "Reception Lobby Zone", "class": "interaction-zone", "properties": [{"name": "kind", "type": "string", "value": "trigger"}, {"name": "id", "type": "string", "value": "reception"}]}, {"id": 418, "rotation": 0, "visible": true, "x": 432, "y": 32, "width": 288, "height": 256, "name": "Workstation Area Zone", "class": "interaction-zone", "properties": [{"name": "kind", "type": "string", "value": "trigger"}, {"name": "id", "type": "string", "value": "workstation"}]}, {"id": 421, "rotation": 0, "visible": true, "x": 736, "y": 32, "width": 288, "height": 256, "name": "Meeting Room Zone", "class": "interaction-zone", "properties": [{"name": "kind", "type": "string", "value": "audio-private"}, {"name": "id", "type": "string", "value": "meeting"}]}, {"id": 424, "rotation": 0, "visible": true, "x": 1040, "y": 32, "width": 272, "height": 256, "name": "Break Room Zone", "class": "interaction-zone", "properties": [{"name": "kind", "type": "string", "value": "trigger"}, {"name": "id", "type": "string", "value": "break"}]}, {"id": 427, "rotation": 0, "visible": true, "x": 128, "y": 400, "width": 288, "height": 256, "name": "Library / Resource Room Zone", "class": "interaction-zone", "properties": [{"name": "kind", "type": "string", "value": "audio-private"}, {"name": "id", "type": "string", "value": "library"}]}, {"id": 430, "rotation": 0, "visible": true, "x": 432, "y": 400, "width": 496, "height": 256, "name": "Recreation Area Zone", "class": "interaction-zone", "properties": [{"name": "kind", "type": "string", "value": "screen-share"}, {"name": "id", "type": "string", "value": "recreation"}]}, {"id": 432, "rotation": 0, "visible": true, "x": 944, "y": 400, "width": 368, "height": 256, "name": "Project Room Zone", "class": "interaction-zone", "properties": [{"name": "kind", "type": "string", "value": "audio-private"}, {"name": "id", "type": "string", "value": "project"}]}, {"id": 435, "rotation": 0, "visible": true, "x": 128, "y": 768, "width": 288, "height": 256, "name": "Lounge Area Zone", "class": "interaction-zone", "properties": [{"name": "kind", "type": "string", "value": "trigger"}, {"name": "id", "type": "string", "value": "lounge"}]}, {"id": 438, "rotation": 0, "visible": true, "x": 432, "y": 768, "width": 288, "height": 256, "name": "Developer Zone Zone", "class": "interaction-zone", "properties": [{"name": "kind", "type": "string", "value": "trigger"}, {"name": "id", "type": "string", "value": "developer"}]}, {"id": 441, "rotation": 0, "visible": true, "x": 736, "y": 768, "width": 288, "height": 256, "name": "HR Cabin Zone", "class": "interaction-zone", "properties": [{"name": "kind", "type": "string", "value": "audio-private"}, {"name": "id", "type": "string", "value": "hr"}]}, {"id": 444, "rotation": 0, "visible": true, "x": 1040, "y": 768, "width": 272, "height": 256, "name": "Garden Terrace Zone", "class": "interaction-zone", "properties": [{"name": "kind", "type": "string", "value": "trigger"}, {"name": "id", "type": "string", "value": "terrace"}]}]}, {"id": 10, "name": "AbovePlayer", "type": "tilelayer", "opacity": 1, "visible": true, "x": 0, "y": 0, "width": 84, "height": 66, "data": [0, 0, 0, 0, 0, 0, 0, 0, 0, 0, 0, 0, 0, 0, 0, 0, 0, 0, 0, 0, 0, 0, 0, 0, 0, 0, 0, 0, 0, 0, 0, 0, 0, 0, 0, 0, 0, 0, 0, 0, 0, 0, 0, 0, 0, 0, 0, 0, 0, 0, 0, 0, 0, 0, 0, 0, 0, 0, 0, 0, 0, 0, 0, 0, 0, 0, 0, 0, 0, 0, 0, 0, 0, 0, 0, 0, 0, 0, 0, 0, 0, 0, 0, 0, 0, 0, 0, 0, 0, 0, 0, 0, 0, 0, 0, 0, 0, 0, 0, 0, 0, 0, 0, 0, 0, 0, 0, 0, 0, 0, 0, 0, 0, 0, 0, 0, 0, 0, 0, 0, 0, 0, 0, 0, 0, 0, 0, 0, 0, 0, 0, 0, 0, 0, 0, 0, 0, 0, 0, 0, 0, 0, 0, 0, 0, 0, 0, 0, 0, 0, 0, 0, 0, 0, 0, 0, 0, 0, 0, 0, 0, 0, 0, 0, 0, 0, 0, 0, 0, 0, 0, 0, 0, 0, 0, 0, 0, 0, 0, 0, 0, 0, 0, 0, 0, 0, 0, 0, 0, 0, 0, 0, 0, 0, 0, 0, 0, 0, 0, 0, 0, 0, 0, 0, 0, 0, 0, 0, 0, 0, 0, 0, 0, 0, 0, 0, 0, 0, 0, 0, 0, 0, 0, 0, 0, 0, 0, 0, 0, 0, 0, 0, 0, 0, 0, 0, 0, 0, 0, 0, 0, 0, 0, 0, 0, 0, 0, 0, 0, 0, 0, 0, 0, 0, 0, 0, 0, 0, 0, 0, 0, 0, 0, 0, 0, 0, 0, 0, 0, 0, 0, 0, 0, 0, 0, 0, 0, 0, 0, 0, 0, 0, 0, 0, 0, 0, 0, 0, 0, 0, 0, 0, 0, 0, 0, 0, 0, 0, 0, 0, 0, 0, 0, 0, 0, 0, 0, 0, 0, 0, 0, 0, 0, 0, 0, 0, 0, 0, 0, 0, 0, 0, 0, 0, 0, 0, 0, 0, 0, 0, 0, 0, 0, 0, 0, 0, 0, 0, 0, 0, 0, 0, 0, 0, 0, 0, 0, 0, 0, 0, 0, 0, 0, 0, 0, 0, 0, 0, 0, 0, 0, 0, 0, 0, 0, 0, 0, 0, 0, 0, 0, 0, 0, 0, 0, 0, 0, 0, 0, 0, 0, 0, 0, 0, 0, 0, 0, 0, 0, 0, 0, 0, 0, 0, 0, 0, 0, 0, 0, 0, 0, 0, 0, 0, 0, 0, 0, 0, 0, 0, 0, 0, 0, 0, 0, 0, 0, 0, 0, 0, 0, 0, 0, 0, 0, 0, 0, 0, 0, 0, 0, 0, 0, 0, 0, 0, 0, 0, 0, 0, 0, 0, 0, 0, 0, 0, 0, 0, 0, 0, 0, 0, 0, 0, 0, 0, 0, 0, 0, 0, 0, 0, 0, 0, 0, 0, 0, 0, 0, 0, 0, 0, 0, 0, 0, 0, 0, 0, 0, 0, 0, 0, 0, 0, 0, 0, 0, 0, 0, 0, 0, 0, 0, 0, 0, 0, 0, 0, 0, 0, 0, 0, 0, 0, 0, 0, 0, 0, 0, 0, 0, 0, 0, 0, 0, 0, 0, 0, 0, 0, 0, 0, 0, 0, 0, 0, 0, 0, 0, 0, 0, 0, 0, 0, 0, 0, 0, 0, 0, 0, 0, 0, 0, 0, 0, 0, 0, 0, 0, 0, 0, 0, 0, 0, 0, 0, 0, 0, 0, 0, 0, 0, 0, 0, 0, 0, 0, 0, 0, 0, 0, 0, 0, 0, 0, 0, 0, 0, 0, 0, 0, 0, 0, 0, 0, 0, 0, 0, 0, 0, 0, 0, 0, 0, 0, 0, 0, 0, 0, 0, 0, 0, 0, 0, 0, 0, 0, 0, 0, 0, 0, 0, 0, 0, 0, 0, 0, 0, 0, 0, 0, 0, 0, 0, 0, 0, 0, 0, 0, 0, 0, 0, 0, 0, 0, 0, 0, 0, 0, 0, 0, 0, 0, 0, 0, 0, 0, 0, 0, 0, 0, 0, 0, 0, 0, 0, 0, 0, 0, 0, 0, 0, 0, 0, 0, 0, 0, 0, 0, 0, 0, 0, 0, 0, 0, 0, 0, 0, 0, 0, 0, 0, 0, 0, 0, 0, 0, 0, 0, 0, 0, 0, 0, 0, 0, 0, 0, 0, 0, 0, 0, 0, 0, 0, 0, 0, 0, 0, 0, 0, 0, 0, 0, 0, 0, 0, 0, 0, 0, 0, 0, 0, 0, 0, 0, 0, 0, 0, 0, 0, 0, 0, 0, 0, 0, 0, 0, 0, 0, 0, 0, 0, 0, 0, 0, 0, 0, 0, 0, 0, 0, 0, 0, 0, 0, 0, 0, 0, 0, 0, 0, 0, 0, 0, 0, 0, 0, 0, 0, 0, 0, 0, 0, 0, 0, 0, 0, 0, 0, 0, 0, 0, 0, 0, 0, 0, 0, 0, 0, 0, 0, 0, 0, 0, 0, 0, 0, 0, 0, 0, 0, 0, 0, 0, 0, 0, 0, 0, 0, 0, 0, 0, 0, 0, 0, 0, 0, 0, 0, 0, 0, 0, 0, 0, 0, 0, 0, 0, 0, 0, 0, 0, 0, 0, 0, 0, 0, 0, 0, 0, 0, 0, 0, 0, 0, 0, 0, 0, 0, 0, 0, 0, 0, 0, 0, 0, 0, 0, 0, 0, 0, 0, 0, 0, 0, 0, 0, 0, 0, 0, 0, 0, 0, 0, 0, 0, 0, 0, 0, 0, 0, 0, 0, 0, 0, 0, 0, 0, 0, 0, 0, 0, 0, 0, 0, 0, 0, 0, 0, 0, 0, 0, 0, 0, 0, 0, 0, 0, 0, 0, 0, 0, 0, 0, 0, 0, 0, 0, 0, 0, 0, 0, 0, 0, 0, 0, 0, 0, 0, 0, 0, 0, 0, 0, 0, 0, 0, 0, 0, 0, 0, 0, 0, 0, 0, 0, 0, 0, 0, 0, 0, 0, 0, 0, 0, 0, 0, 0, 0, 0, 0, 0, 0, 0, 0, 0, 0, 0, 0, 0, 0, 0, 0, 0, 0, 0, 0, 0, 0, 0, 0, 0, 0, 0, 0, 0, 0, 0, 0, 0, 0, 0, 0, 0, 0, 0, 0, 0, 0, 0, 0, 0, 0, 0, 0, 0, 0, 0, 0, 0, 0, 0, 0, 0, 0, 0, 0, 0, 0, 0, 0, 0, 0, 0, 0, 0, 0, 0, 0, 0, 0, 0, 0, 0, 0, 0, 0, 0, 0, 0, 0, 0, 0, 0, 0, 0, 0, 0, 0, 0, 0, 0, 0, 0, 0, 0, 0, 0, 0, 0, 0, 0, 0, 0, 0, 0, 0, 0, 0, 0, 0, 0, 0, 0, 0, 0, 0, 0, 0, 0, 0, 0, 0, 0, 0, 0, 0, 0, 0, 0, 0, 0, 0, 0, 0, 0, 0, 0, 0, 0, 0, 0, 0, 0, 0, 0, 0, 0, 0, 0, 0, 0, 0, 0, 0, 0, 0, 0, 0, 0, 0, 0, 0, 0, 0, 0, 0, 0, 0, 0, 0, 0, 0, 0, 0, 0, 0, 0, 0, 0, 0, 0, 0, 0, 0, 0, 0, 0, 0, 0, 0, 0, 0, 0, 0, 0, 0, 0, 0, 0, 0, 0, 0, 0, 0, 0, 0, 0, 0, 0, 0, 0, 0, 0, 0, 0, 0, 0, 0, 0, 0, 0, 0, 0, 0, 0, 0, 0, 0, 0, 0, 0, 0, 0, 0, 0, 0, 0, 0, 0, 0, 0, 0, 0, 0, 0, 0, 0, 0, 0, 0, 0, 0, 0, 0, 0, 0, 0, 0, 0, 0, 0, 0, 0, 0, 0, 0, 0, 0, 0, 0, 0, 0, 0, 0, 0, 0, 0, 0, 0, 0, 0, 0, 0, 0, 0, 0, 0, 0, 0, 0, 0, 0, 0, 0, 0, 0, 0, 0, 0, 0, 0, 0, 0, 0, 0, 0, 0, 0, 0, 0, 0, 0, 0, 0, 0, 0, 0, 0, 0, 0, 0, 0, 0, 0, 0, 0, 0, 0, 0, 0, 0, 0, 0, 0, 0, 0, 0, 0, 0, 0, 0, 0, 0, 0, 0, 0, 0, 0, 0, 0, 0, 0, 0, 0, 0, 0, 0, 0, 0, 0, 0, 0, 0, 0, 0, 0, 0, 0, 0, 0, 0, 0, 0, 0, 0, 0, 0, 0, 0, 0, 0, 0, 0, 0, 0, 0, 0, 0, 0, 0, 0, 0, 0, 0, 0, 0, 0, 0, 0, 0, 0, 0, 0, 0, 0, 0, 0, 0, 0, 0, 0, 0, 0, 0, 0, 0, 0, 0, 0, 0, 0, 0, 0, 0, 0, 0, 0, 0, 0, 0, 0, 0, 0, 0, 0, 0, 0, 0, 0, 0, 0, 0, 0, 0, 0, 0, 0, 0, 0, 0, 0, 0, 0, 0, 0, 0, 0, 0, 0, 0, 0, 0, 0, 0, 0, 0, 0, 0, 0, 0, 0, 0, 0, 0, 0, 0, 0, 0, 0, 0, 0, 0, 0, 0, 0, 0, 0, 0, 0, 0, 0, 0, 0, 0, 0, 0, 0, 0, 0, 0, 0, 0, 0, 0, 0, 0, 0, 0, 0, 0, 0, 0, 0, 0, 0, 0, 0, 0, 0, 0, 0, 0, 0, 0, 0, 0, 0, 0, 0, 0, 0, 0, 0, 0, 0, 0, 0, 0, 0, 0, 0, 0, 0, 0, 0, 0, 0, 0, 0, 0, 0, 0, 0, 0, 0, 0, 0, 0, 0, 0, 0, 0, 0, 0, 0, 0, 0, 0, 0, 0, 0, 0, 0, 0, 0, 0, 0, 0, 0, 0, 0, 0, 0, 0, 0, 0, 0, 0, 0, 0, 0, 0, 0, 0, 0, 0, 0, 0, 0, 0, 0, 0, 0, 0, 0, 0, 0, 0, 0, 0, 0, 0, 0, 0, 0, 0, 0, 0, 0, 0, 0, 0, 0, 0, 0, 0, 0, 0, 0, 0, 0, 0, 0, 0, 0, 0, 0, 0, 0, 0, 0, 0, 0, 0, 0, 0, 0, 0, 0, 0, 0, 0, 0, 0, 0, 0, 0, 0, 0, 0, 0, 0, 0, 0, 0, 0, 0, 0, 0, 0, 0, 0, 0, 0, 0, 0, 0, 0, 0, 0, 0, 0, 0, 0, 0, 0, 0, 0, 0, 0, 0, 0, 0, 0, 0, 0, 0, 0, 0, 0, 0, 0, 0, 0, 0, 0, 0, 0, 0, 0, 0, 0, 0, 0, 0, 0, 0, 0, 0, 0, 0, 0, 0, 0, 0, 0, 0, 0, 0, 0, 0, 0, 0, 0, 0, 0, 0, 0, 0, 0, 0, 0, 0, 0, 0, 0, 0, 0, 0, 0, 0, 0, 0, 0, 0, 0, 0, 0, 0, 0, 0, 0, 0, 0, 0, 0, 0, 0, 0, 0, 0, 0, 0, 0, 0, 0, 0, 0, 0, 0, 0, 0, 0, 0, 0, 0, 0, 0, 0, 0, 0, 0, 0, 0, 0, 0, 0, 0, 0, 0, 0, 0, 0, 0, 0, 0, 0, 0, 0, 0, 0, 0, 0, 0, 0, 0, 0, 0, 0, 0, 0, 0, 0, 0, 0, 0, 0, 0, 0, 0, 0, 0, 0, 0, 0, 0, 0, 0, 0, 0, 0, 0, 0, 0, 0, 0, 0, 0, 0, 0, 0, 0, 0, 0, 0, 0, 0, 0, 0, 0, 0, 0, 0, 0, 0, 0, 0, 0, 0, 0, 0, 0, 0, 0, 0, 0, 0, 0, 0, 0, 0, 0, 0, 0, 0, 0, 0, 0, 0, 0, 0, 0, 0, 0, 0, 0, 0, 0, 0, 0, 0, 0, 0, 0, 0, 0, 0, 0, 0, 0, 0, 0, 0, 0, 0, 0, 0, 0, 0, 0, 0, 0, 0, 0, 0, 0, 0, 0, 0, 0, 0, 0, 0, 0, 0, 0, 0, 0, 0, 0, 0, 0, 0, 0, 0, 0, 0, 0, 0, 0, 0, 0, 0, 0, 0, 0, 0, 0, 0, 0, 0, 0, 0, 0, 0, 0, 0, 0, 0, 0, 0, 0, 0, 0, 0, 0, 0, 0, 0, 0, 0, 0, 0, 0, 0, 0, 0, 0, 0, 0, 0, 0, 0, 0, 0, 0, 0, 0, 0, 0, 0, 0, 0, 0, 0, 0, 0, 0, 0, 0, 0, 0, 0, 0, 0, 0, 0, 0, 0, 0, 0, 0, 0, 0, 0, 0, 0, 0, 0, 0, 0, 0, 0, 0, 0, 0, 0, 0, 0, 0, 0, 0, 0, 0, 0, 0, 0, 0, 0, 0, 0, 0, 0, 0, 0, 0, 0, 0, 0, 0, 0, 0, 0, 0, 0, 0, 0, 0, 0, 0, 0, 0, 0, 0, 0, 0, 0, 0, 0, 0, 0, 0, 0, 0, 0, 0, 0, 0, 0, 0, 0, 0, 0, 0, 0, 0, 0, 0, 0, 0, 0, 0, 0, 0, 0, 0, 0, 0, 0, 0, 0, 0, 0, 0, 0, 0, 0, 0, 0, 0, 0, 0, 0, 0, 0, 0, 0, 0, 0, 0, 0, 0, 0, 0, 0, 0, 0, 0, 0, 0, 0, 0, 0, 0, 0, 0, 0, 0, 0, 0, 0, 0, 0, 0, 0, 0, 0, 0, 0, 0, 0, 0, 0, 0, 0, 0, 0, 0, 0, 0, 0, 0, 0, 0, 0, 0, 0, 0, 0, 0, 0, 0, 0, 0, 0, 0, 0, 0, 0, 0, 0, 0, 0, 0, 0, 0, 0, 0, 0, 0, 0, 0, 0, 0, 0, 0, 0, 0, 0, 0, 0, 0, 0, 0, 0, 0, 0, 0, 0, 0, 0, 0, 0, 0, 0, 0, 0, 0, 0, 0, 0, 0, 0, 0, 0, 0, 0, 0, 0, 0, 0, 0, 0, 0, 0, 0, 0, 0, 0, 0, 0, 0, 0, 0, 0, 0, 0, 0, 0, 0, 0, 0, 0, 0, 0, 0, 0, 0, 0, 0, 0, 0, 0, 0, 0, 0, 0, 0, 0, 0, 0, 0, 0, 0, 0, 0, 0, 0, 0, 0, 0, 0, 0, 0, 0, 0, 0, 0, 0, 0, 0, 0, 0, 0, 0, 0, 0, 0, 0, 0, 0, 0, 0, 0, 0, 0, 0, 0, 0, 0, 0, 0, 0, 0, 0, 0, 0, 0, 0, 0, 0, 0, 0, 0, 0, 0, 0, 0, 0, 0, 0, 0, 0, 0, 0, 0, 0, 0, 0, 0, 0, 0, 0, 0, 0, 0, 0, 0, 0, 0, 0, 0, 0, 0, 0, 0, 0, 0, 0, 0, 0, 0, 0, 0, 0, 0, 0, 0, 0, 0, 0, 0, 0, 0, 0, 0, 0, 0, 0, 0, 0, 0, 0, 0, 0, 0, 0, 0, 0, 0, 0, 0, 0, 0, 0, 0, 0, 0, 0, 0, 0, 0, 0, 0, 0, 0, 0, 0, 0, 0, 0, 0, 0, 0, 0, 0, 0, 0, 0, 0, 0, 0, 0, 0, 0, 0, 0, 0, 0, 0, 0, 0, 0, 0, 0, 0, 0, 0, 0, 0, 0, 0, 0, 0, 0, 0, 0, 0, 0, 0, 0, 0, 0, 0, 0, 0, 0, 0, 0, 0, 0, 0, 0, 0, 0, 0, 0, 0, 0, 0, 0, 0, 0, 0, 0, 0, 0, 0, 0, 0, 0, 0, 0, 0, 0, 0, 0, 0, 0, 0, 0, 0, 0, 0, 0, 0, 0, 0, 0, 0, 0, 0, 0, 0, 0, 0, 0, 0, 0, 0, 0, 0, 0, 0, 0, 0, 0, 0, 0, 0, 0, 0, 0, 0, 0, 0, 0, 0, 0, 0, 0, 0, 0, 0, 0, 0, 0, 0, 0, 0, 0, 0, 0, 0, 0, 0, 0, 0, 0, 0, 0, 0, 0, 0, 0, 0, 0, 0, 0, 0, 0, 0, 0, 0, 0, 0, 0, 0, 0, 0, 0, 0, 0, 0, 0, 0, 0, 0, 0, 0, 0, 0, 0, 0, 0, 0, 0, 0, 0, 0, 0, 0, 0, 0, 0, 0, 0, 0, 0, 0, 0, 0, 0, 0, 0, 0, 0, 0, 0, 0, 0, 0, 0, 0, 0, 0, 0, 0, 0, 0, 0, 0, 0, 0, 0, 0, 0, 0, 0, 0, 0, 0, 0, 0, 0, 0, 0, 0, 0, 0, 0, 0, 0, 0, 0, 0, 0, 0, 0, 0, 0, 0, 0, 0, 0, 0, 0, 0, 0, 0, 0, 0, 0, 0, 0, 0, 0, 0, 0, 0, 0, 0, 0, 0, 0, 0, 0, 0, 0, 0, 0, 0, 0, 0, 0, 0, 0, 0, 0, 0, 0, 0, 0, 0, 0, 0, 0, 0, 0, 0, 0, 0, 0, 0, 0, 0, 0, 0, 0, 0, 0, 0, 0, 0, 0, 0, 0, 0, 0, 0, 0, 0, 0, 0, 0, 0, 0, 0, 0, 0, 0, 0, 0, 0, 0, 0, 0, 0, 0, 0, 0, 0, 0, 0, 0, 0, 0, 0, 0, 0, 0, 0, 0, 0, 0, 0, 0, 0, 0, 0, 0, 0, 0, 0, 0, 0, 0, 0, 0, 0, 0, 0, 0, 0, 0, 0, 0, 0, 0, 0, 0, 0, 0, 0, 0, 0, 0, 0, 0, 0, 0, 0, 0, 0, 0, 0, 0, 0, 0, 0, 0, 0, 0, 0, 0, 0, 0, 0, 0, 0, 0, 0, 0, 0, 0, 0, 0, 0, 0, 0, 0, 0, 0, 0, 0, 0, 0, 0, 0, 0, 0, 0, 0, 0, 0, 0, 0, 0, 0, 0, 0, 0, 0, 0, 0, 0, 0, 0, 0, 0, 0, 0, 0, 0, 0, 0, 0, 0, 0, 0, 0, 0, 0, 0, 0, 0, 0, 0, 0, 0, 0, 0, 0, 0, 0, 0, 0, 0, 0, 0, 0, 0, 0, 0, 0, 0, 0, 0, 0, 0, 0, 0, 0, 0, 0, 0, 0, 0, 0, 0, 0, 0, 0, 0, 0, 0, 0, 0, 0, 0, 0, 0, 0, 0, 0, 0, 0, 0, 0, 0, 0, 0, 0, 0, 0, 0, 0, 0, 0, 0, 0, 0, 0, 0, 0, 0, 0, 0, 0, 0, 0, 0, 0, 0, 0, 0, 0, 0, 0, 0, 0, 0, 0, 0, 0, 0, 0, 0, 0, 0, 0, 0, 0, 0, 0, 0, 0, 0, 0, 0, 0, 0, 0, 0, 0, 0, 0, 0, 0, 0, 0, 0, 0, 0, 0, 0, 0, 0, 0, 0, 0, 0, 0, 0, 0, 0, 0, 0, 0, 0, 0, 0, 0, 0, 0, 0, 0, 0, 0, 0, 0, 0, 0, 0, 0, 0, 0, 0, 0, 0, 0, 0, 0, 0, 0, 0, 0, 0, 0, 0, 0, 0, 0, 0, 0, 0, 0, 0, 0, 0, 0, 0, 0, 0, 0, 0, 0, 0, 0, 0, 0, 0, 0, 0, 0, 0, 0, 0, 0, 0, 0, 0, 0, 0, 0, 0, 0, 0, 0, 0, 0, 0, 0, 0, 0, 0, 0, 0, 0, 0, 0, 0, 0, 0, 0, 0, 0, 0, 0, 0, 0, 0, 0, 0, 0, 0, 0, 0, 0, 0, 0, 0, 0, 0, 0, 0, 0, 0, 0, 0, 0, 0, 0, 0, 0, 0, 0, 0, 0, 0, 0, 0, 0, 0, 0, 0, 0, 0, 0, 0, 0, 0, 0, 0, 0, 0, 0, 0, 0, 0, 0, 0, 0, 0, 0, 0, 0, 0, 0, 0, 0, 0, 0, 0, 0, 0, 0, 0, 0, 0, 0, 0, 0, 0, 0, 0, 0, 0, 0, 0, 0, 0, 0, 0, 0, 0, 0, 0, 0, 0, 0, 0, 0, 0, 0, 0, 0, 0, 0, 0, 0, 0, 0, 0, 0, 0, 0, 0, 0, 0, 0, 0, 0, 0, 0, 0, 0, 0, 0, 0, 0, 0, 0, 0, 0, 0, 0, 0, 0, 0, 0, 0, 0, 0, 0, 0, 0, 0, 0, 0, 0, 0, 0, 0, 0, 0, 0, 0, 0, 0, 0, 0, 0, 0, 0, 0, 0, 0, 0, 0, 0, 0, 0, 0, 0, 0, 0, 0, 0, 0, 0, 0, 0, 0, 0, 0, 0, 0, 0, 0, 0, 0, 0, 0, 0, 0, 0, 0, 0, 0, 0, 0, 0, 0, 0, 0, 0, 0, 0, 0, 0, 0, 0, 0, 0, 0, 0, 0, 0, 0, 0, 0, 0, 0, 0, 0, 0, 0, 0, 0, 0, 0, 0, 0, 0, 0, 0, 0, 0, 0, 0, 0, 0, 0, 0, 0, 0, 0, 0, 0, 0, 0, 0, 0, 0, 0, 0, 0, 0, 0, 0, 0, 0, 0, 0, 0, 0, 0, 0, 0, 0, 0, 0, 0, 0, 0, 0, 0, 0, 0, 0, 0, 0, 0, 0, 0, 0, 0, 0, 0, 0, 0, 0, 0, 0, 0, 0, 0, 0, 0, 0, 0, 0, 0, 0, 0, 0, 0, 0, 0, 0, 0, 0, 0, 0, 0, 0, 0, 0, 0, 0, 0, 0, 0, 0, 0, 0, 0, 0, 0, 0, 0, 0, 0, 0, 0, 0, 0, 0, 0, 0, 0, 0, 0, 0, 0, 0, 0, 0, 0, 0, 0, 0, 0, 0, 0, 0, 0, 0, 0, 0, 0, 0, 0, 0, 0, 0, 0, 0, 0, 0, 0, 0, 0, 0, 0, 0, 0, 0, 0, 0, 0, 0, 0, 0, 0, 0, 0, 0, 0, 0, 0, 0, 0, 0, 0, 0, 0, 0, 0, 0, 0, 0, 0, 0, 0, 0, 0, 0, 0, 0, 0, 0, 0, 0, 0, 0, 0, 0, 0, 0, 0, 0, 0, 0, 0, 0, 0, 0, 0, 0, 0, 0, 0, 0, 0, 0, 0, 0, 0, 0, 0, 0, 0, 0, 0, 0, 0, 0, 0, 0, 0, 0, 0, 0, 0, 0, 0, 0, 0, 0, 0, 0, 0, 0, 0, 0, 0, 0, 0, 0, 0, 0, 0, 0, 0, 0, 0, 0, 0, 0, 0, 0, 0, 0, 0, 0, 0, 0, 0, 0, 0, 0, 0, 0, 0, 0, 0, 0, 0, 0, 0, 0, 0, 0, 0, 0, 0, 0, 0, 0, 0, 0, 0, 0, 0, 0, 0, 0, 0, 0, 0, 0, 0, 0, 0, 0, 0, 0, 0, 0, 0, 0, 0, 0, 0, 0, 0, 0, 0, 0, 0, 0, 0, 0, 0, 0, 0, 0, 0, 0, 0, 0, 0, 0, 0, 0, 0, 0, 0, 0, 0, 0, 0, 0, 0, 0, 0, 0, 0, 0, 0, 0, 0, 0, 0, 0, 0, 0, 0, 0, 0, 0, 0, 0, 0, 0, 0, 0, 0, 0, 0, 0, 0, 0, 0, 0, 0, 0, 0, 0, 0, 0, 0, 0, 0, 0, 0, 0, 0, 0, 0, 0, 0, 0, 0, 0, 0, 0, 0, 0, 0, 0, 0, 0, 0, 0, 0, 0, 0, 0, 0, 0, 0, 0, 0, 0, 0, 0, 0, 0, 0, 0, 0, 0, 0, 0, 0, 0, 0, 0, 0, 0, 0, 0, 0, 0, 0, 0, 0, 0, 0, 0, 0, 0, 0, 0, 0, 0, 0, 0, 0, 0, 0, 0, 0, 0, 0, 0, 0, 0, 0, 0, 0, 0, 0, 0, 0, 0, 0, 0, 0, 0, 0, 0, 0, 0, 0, 0, 0, 0, 0, 0, 0, 0, 0, 0, 0, 0, 0, 0, 0, 0, 0, 0, 0, 0, 0, 0, 0, 0, 0, 0, 0, 0, 0, 0, 0, 0, 0, 0, 0, 0, 0, 0, 0, 0, 0, 0, 0, 0, 0, 0, 0, 0, 0, 0, 0, 0, 0, 0, 0, 0, 0, 0, 0, 0, 0, 0, 0, 0, 0, 0, 0, 0, 0, 0, 0, 0, 0, 0, 0, 0, 0, 0, 0, 0, 0, 0, 0, 0, 0, 0, 0, 0, 0, 0, 0, 0, 0, 0, 0, 0, 0, 0, 0, 0, 0, 0, 0, 0, 0, 0, 0, 0, 0, 0, 0, 0, 0, 0, 0, 0, 0, 0, 0, 0, 0, 0, 0, 0, 0, 0, 0, 0, 0, 0, 0, 0, 0, 0, 0, 0, 0, 0, 0, 0, 0, 0, 0, 0, 0, 0, 0, 0, 0, 0, 0, 0, 0, 0, 0, 0, 0, 0, 0, 0, 0, 0, 0, 0, 0, 0, 0, 0, 0, 0, 0, 0, 0, 0, 0, 0, 0, 0, 0, 0, 0, 0, 0, 0, 0, 0, 0, 0, 0, 0, 0, 0, 0, 0, 0, 0, 0, 0, 0, 0, 0, 0, 0, 0, 0, 0, 0, 0, 0, 0, 0, 0, 0, 0, 0, 0, 0, 0, 0, 0, 0, 0, 0, 0, 0, 0, 0, 0, 0, 0, 0, 0, 0, 0, 0, 0, 0, 0, 0, 0, 0, 0, 0, 0, 0, 0, 0, 0, 0, 0, 0, 0, 0, 0, 0, 0, 0, 0, 0, 0, 0, 0, 0, 0, 0, 0, 0, 0, 0, 0, 0, 0, 0, 0, 0, 0, 0, 0, 0, 0, 0, 0, 0, 0, 0, 0, 0, 0, 0, 0, 0, 0, 0, 0, 0, 0, 0, 0, 0, 0, 0, 0, 0, 0, 0, 0, 0, 0, 0, 0, 0, 0, 0, 0, 0, 0, 0, 0, 0, 0, 0, 0, 0, 0, 0, 0, 0, 0, 0, 0, 0, 0, 0, 0, 0, 0, 0, 0, 0, 0, 0, 0, 0, 0, 0, 0, 0, 0, 0, 0, 0, 0, 0, 0, 0, 0, 0, 0, 0, 0, 0, 0, 0, 0, 0, 0, 0, 0, 0, 0, 0, 0, 0, 0, 0, 0, 0, 0, 0, 0, 0, 0, 0, 0, 0, 0, 0, 0, 0, 0, 0, 0, 0, 0, 0, 0, 0, 0, 0, 0, 0, 0, 0, 0, 0, 0, 0, 0, 0, 0, 0, 0, 0, 0, 0, 0, 0, 0, 0, 0, 0, 0, 0, 0, 0, 0, 0, 0, 0, 0, 0, 0, 0, 0, 0, 0, 0, 0, 0, 0, 0, 0, 0, 0, 0, 0, 0, 0, 0, 0, 0, 0, 0, 0, 0, 0, 0, 0, 0, 0, 0, 0, 0, 0, 0, 0, 0, 0, 0, 0, 0, 0, 0, 0, 0, 0, 0, 0, 0, 0, 0, 0, 0, 0, 0, 0, 0, 0, 0, 0, 0, 0, 0, 0, 0, 0, 0, 0, 0, 0, 0, 0, 0, 0, 0, 0, 0, 0, 0, 0, 0, 0, 0, 0, 0, 0, 0, 0, 0, 0, 0, 0, 0, 0, 0, 0, 0, 0, 0, 0, 0, 0, 0, 0, 0, 0, 0, 0, 0, 0, 0, 0, 0, 0, 0, 0, 0, 0, 0, 0, 0, 0, 0, 0, 0, 0, 0, 0, 0, 0, 0, 0, 0, 0, 0, 0, 0, 0, 0, 0, 0, 0, 0, 0, 0, 0, 0, 0, 0, 0, 0, 0, 0, 0, 0, 0, 0, 0, 0, 0, 0, 0, 0, 0, 0, 0, 0, 0, 0, 0, 0, 0, 0, 0, 0, 0, 0, 0, 0, 0, 0, 0, 0, 0, 0, 0, 0, 0, 0, 0, 0, 0, 0, 0, 0, 0, 0, 0, 0, 0, 0, 0, 0, 0, 0, 0, 0, 0, 0, 0, 0, 0, 0, 0, 0, 0, 0, 0, 0, 0, 0, 0, 0, 0, 0, 0, 0, 0, 0, 0, 0, 0, 0, 0, 0, 0, 0, 0, 0, 0, 0, 0, 0, 0, 0, 0, 0, 0, 0, 0, 0, 0, 0, 0, 0, 0, 0, 0, 0, 0, 0, 0, 0, 0, 0, 0, 0, 0, 0, 0, 0, 0, 0, 0, 0, 0, 0, 0, 0, 0, 0, 0, 0, 0, 0, 0, 0, 0, 0, 0, 0, 0, 0, 0, 0, 0, 0, 0, 0, 0, 0, 0, 0, 0, 0, 0, 0, 0, 0, 0, 0, 0, 0, 0, 0, 0, 0, 0, 0, 0, 0, 0, 0, 0, 0, 0, 0, 0, 0, 0, 0, 0, 0, 0, 0, 0, 0, 0, 0, 0, 0, 0, 0, 0, 0, 0, 0, 0, 0, 0, 0, 0, 0, 0, 0, 0, 0, 0, 0, 0, 0, 0, 0, 0, 0, 0, 0, 0, 0, 0, 0, 0, 0, 0, 0, 0, 0, 0, 0, 0, 0, 0, 0, 0, 0, 0, 0, 0, 0, 0, 0, 0, 0, 0, 0, 0, 0, 0, 0, 0, 0, 0, 0, 0, 0, 0, 0, 0, 0, 0, 0, 0, 0, 0, 0, 0, 0, 0, 0, 0, 0, 0, 0, 0, 0, 0, 0, 0, 0, 0, 0, 0, 0, 0, 0, 0, 0, 0, 0, 0, 0, 0, 0, 0, 0, 0, 0, 0, 0, 0, 0, 0, 0, 0, 0, 0, 0, 0, 0, 0, 0, 0, 0, 0, 0, 0, 0, 0, 0, 0, 0, 0, 0, 0, 0, 0, 0, 0, 0, 0, 0, 0, 0, 0, 0, 0, 0, 0, 0, 0, 0, 0, 0, 0, 0, 0, 0, 0, 0, 0, 0, 0, 0, 0, 0, 0, 0, 0, 0, 0, 0, 0, 0, 0, 0, 0, 0, 0, 0, 0, 0, 0, 0, 0, 0, 0, 0, 0, 0, 0, 0, 0, 0, 0, 0, 0, 0, 0, 0, 0, 0, 0, 0, 0, 0, 0, 0, 0, 0, 0, 0, 0, 0, 0, 0, 0, 0, 0, 0, 0, 0, 0, 0, 0, 0, 0, 0, 0, 0, 0, 0, 0, 0, 0, 0, 0, 0, 0, 0, 0, 0, 0, 0, 0, 0, 0, 0, 0, 0, 0, 0, 0, 0, 0, 0, 0, 0, 0, 0, 0, 0, 0, 0, 0, 0, 0, 0, 0, 0, 0, 0, 0, 0, 0, 0, 0, 0, 0, 0, 0, 0, 0, 0, 0, 0, 0, 0, 0, 0, 0, 0, 0, 0, 0, 0, 0, 0, 0, 0, 0, 0, 0, 0, 0, 0, 0, 0, 0, 0, 0, 0, 0, 0, 0, 0, 0, 0, 0, 0, 0, 0, 0, 0, 0, 0, 0, 0, 0, 0, 0, 0, 0, 0, 0, 0, 0, 0, 0, 0, 0, 0, 0, 0, 0, 0, 0, 0, 0, 0, 0, 0, 0, 0, 0, 0, 0, 0, 0, 0, 0, 0, 0, 0, 0, 0, 0, 0, 0, 0, 0, 0, 0, 0, 0, 0, 0, 0, 0, 0, 0, 0, 0, 0, 0, 0, 0, 0, 0, 0, 0, 0, 0, 0, 0, 0, 0, 0, 0, 0, 0, 0, 0, 0, 0, 0, 0, 0, 0, 0, 0, 0, 0, 0, 0, 0, 0, 0, 0, 0, 0, 0, 0, 0, 0, 0, 0, 0, 0, 0, 0, 0, 0, 0, 0, 0, 0, 0, 0, 0, 0, 0, 0, 0, 0, 0, 0, 0, 0, 0, 0, 0, 0, 0, 0, 0, 0, 0, 0, 0, 0, 0, 0, 0, 0, 0, 0, 0, 0, 0, 0, 0, 0, 0, 0, 0, 0, 0, 0, 0, 0, 0, 0, 0, 0, 0, 0, 0, 0, 0, 0, 0, 0, 0, 0, 0, 0, 0, 0, 0, 0, 0, 0, 0, 0, 0, 0, 0, 0, 0, 0, 0, 0, 0, 0, 0, 0, 0, 0, 0, 0, 0, 0, 0, 0, 0, 0, 0, 0, 0, 0, 0, 0, 0, 0, 0, 0, 0, 0, 0, 0, 0, 0, 0, 0, 0, 0, 0, 0, 0, 0, 0, 0, 0, 0, 0, 0, 0, 0, 0, 0, 0, 0, 0, 0, 0, 0, 0, 0, 0, 0, 0, 0, 0, 0, 0, 0, 0, 0, 0, 0, 0, 0, 0, 0, 0, 0, 0, 0, 0, 0, 0, 0, 0, 0, 0, 0, 0, 0, 0, 0, 0, 0, 0, 0, 0, 0, 0, 0, 0, 0, 0, 0, 0, 0, 0, 0, 0, 0, 0, 0, 0, 0, 0, 0, 0, 0, 0, 0, 0, 0, 0, 0, 0, 0, 0, 0, 0, 0, 0, 0, 0, 0, 0, 0, 0, 0, 0, 0, 0, 0, 0, 0, 0, 0, 0, 0, 0, 0, 0, 0, 0, 0, 0, 0, 0, 0, 0, 0, 0, 0, 0, 0, 0, 0, 0, 0, 0, 0, 0, 0, 0, 0, 0, 0, 0, 0, 0, 0, 0, 0, 0, 0, 0, 0, 0, 0, 0, 0, 0, 0, 0, 0, 0, 0, 0, 0, 0, 0, 0, 0, 0, 0, 0, 0, 0, 0, 0, 0, 0, 0, 0, 0, 0, 0, 0, 0, 0, 0, 0, 0, 0, 0, 0, 0, 0, 0, 0, 0, 0, 0, 0, 0, 0, 0, 0, 0, 0, 0, 0, 0, 0, 0, 0, 0, 0, 0, 0, 0, 0, 0, 0, 0, 0, 0, 0, 0, 0, 0, 0, 0, 0, 0, 0, 0, 0, 0, 0, 0, 0, 0, 0, 0, 0, 0, 0, 0, 0, 0, 0, 0, 0, 0, 0, 0, 0, 0, 0, 0, 0, 0, 0, 0, 0, 0, 0, 0, 0, 0, 0, 0, 0, 0, 0, 0, 0, 0, 0, 0, 0, 0, 0, 0, 0, 0, 0, 0, 0, 0, 0, 0, 0, 0, 0, 0, 0, 0, 0, 0, 0, 0, 0, 0, 0, 0, 0, 0, 0, 0, 0, 0, 0, 0, 0, 0, 0, 0, 0, 0, 0, 0, 0, 0, 0, 0, 0, 0, 0, 0, 0, 0, 0, 0, 0, 0, 0, 0, 0, 0, 0, 0, 0, 0, 0, 0, 0, 0, 0, 0, 0, 0, 0, 0, 0, 0, 0, 0, 0, 0, 0, 0, 0, 0, 0, 0, 0, 0, 0, 0, 0, 0, 0, 0, 0, 0, 0, 0, 0, 0, 0, 0, 0, 0, 0, 0, 0, 0, 0, 0, 0, 0, 0, 0, 0, 0, 0, 0, 0, 0, 0, 0, 0, 0, 0, 0, 0, 0, 0, 0, 0, 0, 0, 0, 0, 0, 0, 0, 0, 0, 0, 0, 0, 0, 0, 0, 0, 0, 0, 0, 0, 0, 0, 0, 0, 0, 0, 0, 0, 0, 0, 0, 0, 0, 0, 0, 0, 0, 0, 0, 0, 0, 0, 0, 0, 0, 0, 0, 0, 0, 0, 0, 0, 0, 0, 0, 0, 0, 0, 0, 0, 0, 0, 0, 0, 0, 0, 0, 0, 0, 0, 0, 0, 0, 0, 0, 0, 0]}, {"id": 11, "name": "Labels", "type": "objectgroup", "opacity": 1, "visible": true, "x": 0, "y": 0, "draworder": "topdown", "objects": [{"id": 416, "rotation": 0, "visible": true, "x": 144, "y": 32, "width": 256, "height": 32, "name": "1. RECEPTION LOBBY", "text": {"text": "1. RECEPTION LOBBY", "color": "#ffffff", "bold": true, "halign": "center", "valign": "center", "pixelsize": 11, "wrap": true}}, {"id": 419, "rotation": 0, "visible": true, "x": 448, "y": 32, "width": 256, "height": 32, "name": "2. WORKSTATION AREA", "text": {"text": "2. WORKSTATION AREA", "color": "#ffffff", "bold": true, "halign": "center", "valign": "center", "pixelsize": 11, "wrap": true}}, {"id": 422, "rotation": 0, "visible": true, "x": 752, "y": 32, "width": 256, "height": 32, "name": "3. MEETING ROOM", "text": {"text": "3. MEETING ROOM", "color": "#ffffff", "bold": true, "halign": "center", "valign": "center", "pixelsize": 11, "wrap": true}}, {"id": 425, "rotation": 0, "visible": true, "x": 1056, "y": 32, "width": 240, "height": 32, "name": "4. BREAK ROOM", "text": {"text": "4. BREAK ROOM", "color": "#ffffff", "bold": true, "halign": "center", "valign": "center", "pixelsize": 11, "wrap": true}}, {"id": 428, "rotation": 0, "visible": true, "x": 144, "y": 400, "width": 256, "height": 32, "name": "5. LIBRARY / RESOURCE ROOM", "text": {"text": "5. LIBRARY / RESOURCE ROOM", "color": "#ffffff", "bold": true, "halign": "center", "valign": "center", "pixelsize": 11, "wrap": true}}, {"id": 433, "rotation": 0, "visible": true, "x": 960, "y": 400, "width": 336, "height": 32, "name": "7. PROJECT ROOM", "text": {"text": "7. PROJECT ROOM", "color": "#ffffff", "bold": true, "halign": "center", "valign": "center", "pixelsize": 11, "wrap": true}}, {"id": 436, "rotation": 0, "visible": true, "x": 144, "y": 768, "width": 256, "height": 32, "name": "6. LOUNGE AREA", "text": {"text": "6. LOUNGE AREA", "color": "#ffffff", "bold": true, "halign": "center", "valign": "center", "pixelsize": 11, "wrap": true}}, {"id": 439, "rotation": 0, "visible": true, "x": 448, "y": 768, "width": 256, "height": 32, "name": "8. DEVELOPER ZONE", "text": {"text": "8. DEVELOPER ZONE", "color": "#ffffff", "bold": true, "halign": "center", "valign": "center", "pixelsize": 11, "wrap": true}}, {"id": 442, "rotation": 0, "visible": true, "x": 752, "y": 768, "width": 256, "height": 32, "name": "9. HR CABIN", "text": {"text": "9. HR CABIN", "color": "#ffffff", "bold": true, "halign": "center", "valign": "center", "pixelsize": 11, "wrap": true}}, {"id": 445, "rotation": 0, "visible": true, "x": 1056, "y": 768, "width": 240, "height": 32, "name": "10. GARDEN TERRACE", "text": {"text": "10. GARDEN TERRACE", "color": "#ffffff", "bold": true, "halign": "center", "valign": "center", "pixelsize": 11, "wrap": true}}]}], "tilesets": [{"firstgid": 1, "source": "../tilesets/limezu-terrains_and_fences.tsj"}, {"firstgid": 463, "source": "../tilesets/limezu-office.tsj"}, {"firstgid": 580, "source": "../tilesets/limezu-garden.tsj"}, {"firstgid": 1148, "source": "../tilesets/limezu-city_props.tsj"}, {"firstgid": 1863, "source": "../tilesets/limezu-city_terrains.tsj"}, {"firstgid": 2214, "source": "../tilesets/limezu-subway_and_train_station.tsj"}], "properties": [{"name": "name", "type": "string", "value": "Vorkium HQ - Floor 1"}, {"name": "description", "type": "string", "value": "10-room top-down office floor plan: reception, workstations, meeting room, break room, library, lounge, recreation, project room, developer zone, HR cabin and garden terrace."}]}